/* XPM */
static char *result[] = {
/* columns rows colors chars-per-pixel */
"1165 699 51 1 ",
"  c #A7BAB4",
". c #A9BCB6",
"X c #ACBFB9",
"o c #B0BFBA",
"O c #AEC2BC",
"+ c #AEC8BF",
"@ c #B1C5BE",
"# c #B3C7C0",
"$ c #B8C7C2",
"% c #B6CAC3",
"& c #BACCC6",
"* c #BCCFC9",
"= c #BED1CB",
"- c #C0CBC7",
"; c #C1CFCA",
": c #C3D3CE",
"> c #C8D2CF",
", c #C6D6D1",
"< c #C9D7D2",
"1 c #C7D8D2",
"2 c #CCDAD5",
"3 c #CEDDD8",
"4 c #D0D6D4",
"5 c #D0DBD7",
"6 c #D2DEDA",
"7 c #D9DEDD",
"8 c #CFE0DA",
"9 c #D6E1DD",
"0 c #D8E3DF",
"q c #D6E5E0",
"w c #DBE6E2",
"e c #D7E8E2",
"r c #DFE8E5",
"t c #DEEEE8",
"y c #E1E7E5",
"u c #E1E9E7",
"i c #E5ECEA",
"p c #E9EEED",
"a c #F0EEEF",
"s c #E7F0ED",
"d c #EBF0EF",
"f c #F1EFF0",
"g c #E4F7F1",
"h c #EEF2F1",
"j c #EFF8F5",
"k c #F3F6F5",
"l c #F8F6F7",
"z c #F6F8F7",
"x c #F9F7F8",
"c c #F7F9F8",
"v c #FBFCFB",
/* pixels */
"vvvvvvvvvvczccvccccccccvvvvvvvlhkhhahhhhahhhhffkhkhkhkhhhhfhhhkhkkhhkhhkhhhhhhhahhfkkkhkkhkkkkkkkkkkkkkkkzkzkjkzkkhjkkkhjkkkjkkkkkjkkjkkkjkkkkkkhhkkkhkkzcckdhhdpdppdppppdpppppppadpddddfhhhhkahpdpyiiiuiuuyiiutwireewewwerrrwrwrqyuiddspdjjkkkkkkzzxzzzzzzzzzkkllkzlkkhhjhkdddauiiiippiassaaahhhaphhkkkkhkkzjkdkkkkkhhdhhhkjkkhdddddhdhhhhhhhhpaddhdhhhphhddhhhhpppppdpdhppphadddpphhahddpppppiyryyrqwq9qqw7qyit00000999909000000000wyiiuruuruutuuruutuuwurusitppyippppsssspsppyppipaappdddhpphpapapfhhfhhhhfkhffkfkkaaiisyyy7fzkzzccvvcvvvvvcvccvcccccccccvvcccccccccccccccccccczzzzzzzfdddahfjpdsitrwtw622252=1==11===18==11=11::>1<:,11,==:1=:=&*::::::::**:%=%tgjisvvcvvvvvvvvvvvvvvvvvvvvvvvvvvvvvvvvvvvvvvvvvvvvvvvvvvvvvvxcvccvccvcvvvcvvvcvcvcvvcvcvvcvvvcvvvvvvcvvvvcccczcvvxzdhhkkccchhhhhpppppappppphhjkzccccccvvvvvvvvvvvvvvvvvzw28:661,262<5wuuwuwuuttyuyuyuyuuuuwuutyyywuwuwrruiriuiiiiyyyywuwywwwwwwtrwruwuuuuwtrrywwwwy0iuuuiuruuiuuuipiiipdddsppiippdidsiiidiisudkzyw0690999666690wwww0wrrtiiuyyiiphkahkkjkphkkphhkkjkkkhhhhhhhdphhddppyphhppppakkppppkappphpppppadpiiwyiipiiiiiiiddiyywrriwwwrr00r0wrruiipiiifkkkzzzzczzzzzzzpakzccczcxzvvxxvccccccccvcccvvvcvcvccxvxvxvxvvvxxxxxxxxllxccc",
"vvvvvvvvvvzzccvccczzcccvcvvcvxchhpppppppppppppppppppdhpapdppphphphhdhdpadpdhpppppppddddpffkfkpkkpkhhkhhhhjhkkkhkhkkhkhkhkkhhhkjkkjkhkhhkkhhhhhkjhhhdhhhhccchpdddpipsisiisuuuiyiiiiiiippiipppippapyuuwutwrrwwurw0q6632566677q97999990uuisispdddkhdkkkkkkkffkkkkkkhkkkkhhaappadipuyy0yyyyyyuyiiiipapppdhdhhhhhkkhdhkkjkhhhhddhhhdddddpdhddpdphpppppppppdpppphdpdphhpppappdppiiiiiipppppppppiipipiyrwqrww7666535676009999998666808555955900r0www0ww00000wwwww00wurrwwyyywyw0wwwrwwryyyryyyyiuiipipyiiypiippiiiiipiiiipipuyyywyww0yfzzcccvvvvvvccvvvvccvvcvvcvcccccvcvvvvcvvccccccvczzzzzzzzzfkahkhhdhdssutwrw966222818181181881,11121:,12211,:::::::::=:,::::::::*:&&#8ykhjccvvvvvvvvvvvvvvvvvvvvvvvvvvvvvvvvvvvvvvvvvvvvvvvvvvvvvvcvcvvccvvcvcvvvvvvvvvvvccccvvcvccvvvvvvvvvvvvcccccvcczccddhkkcclkkhkhhhpppppppppihhhkzcccccvvvvvvvvvvvvvvvvvkw3252221<2656qqwwwiwtwurutytwwuuuutuuyytyytrwyururiiuiuiyiyuyuuwwww0wrrrruwuwwuuuuurrrrywww0uiuruus0utsuiiiippiidpdipppipidiiipidsiiphakppw000099996900wwwrwwwrrttuyyipdhpkdkkkzzklkkhkkhkckkkhhhhkkhhhkhhhahpaphhippphhpdppppphpaphhhhhhaiiiiiipppuiddipppiiritirrterrtiutiidippaakzzzzzvxcccclzcccayzvzzvvccvvxxvvvvvvccvvvcvvvvcvvvvvvvvvxvvvvvxvxvvvvvvxvccc",
"vvvvvvvvvvczcccccccczcccccvvvvkhppppppppppppppppdphpdddddppppppadpapppppidddppppppppddpppfhhpakkhhhhhhhhhhhhkhhkkhhkhhkkhhhhhhhkkhhhhkkhhkkhhhkhhhdhhhhhzccdiddppsiiiiiiuppuiiiiiiiiidpiiipppakkdpuywrrrqwwwwwwwtw525666667q06099669ruttpdsddhkhahhkfkkfkkkfkkfklkkzlkkjahhpdaiipppippdaaddddhhhhhhhhhhhkhkhhkkdhjkjhkjkhhhhhkhkhkhkhhhdhhhppahhhhhhhhhhhhhhhhhfkhhhfhhhhhpipadppphhhhhhadpppdiiuywyq966w009qrrqr0989900998500000909800iwyryuwryuuruuisipssisddpsiiippppsspspppppppappdaddhhhhhhhhahhdhhhhhhkhpaapppappissdiipiczzcvvvvvvvvcccvvvcvvvvvvvcvvvcvcvcvvccvccvvvcvcvcczzzzzzkkkzzlkkkjkkhdpshsurrtrw0r0r90000e090ew088823899988288281>:::<1<:1::::::,=*:7czvcvvvvvvvvvvvvvvvvvvvvvvvvvvvvvvvvvvvvvvvvvvvvvvvvvvvvvvvvcvvvvvcvvvccvvvvvvcvcvvccccvccvcvvvvcvvvvccccccvvvccccvpdhjlccckkkkkhhhpppppppadhdhhkkcccccvvvvvvvvvvvvvvvvki9262222,<67999wwuuwwtuuuryyyuuyuuwttytuuwywuruuuuuiiiiiiiyuuywwwwwwr0rrrwrrwuuuwuuyrrwywrw0uut00uu0u0iuppippipididipippididpppddppsdhpkkkyr0900988990wwr0rwwrrrtiuuuippdhdijjkczkzkhkjkkhkjkhkhhkhhhhhhhhppkdipkkipapppkddphppphfphhhhfhpppiiiiippriidiippiiiiiiurrrreruiiiidippdhlzzzcvccvccccccvczadkcvvvvcvvxxvvvvvvvvvccvvvvvvvvvvvvvvvvvvvvvvvvvvvvvvvvvvv",
"vvvvvvvvvvczzcccccccccccvvvvxxchhpadhdappphahhhhhhhfhhhhhphphddhhhhhhhhhhshhhdahphahhhdhhppdpadkhhhkhhkhkhkjhhkhhkjhkhhjkhkhhkhhkkkkjhkkhhhhkhhhhhhhhhhhkccdpdddpppppppppuppiipippppdddiipppkkkkkpuuurrturwyuyywiq52576699wqwq0w0690ruuuippdphkhhkfkkkkkfkkkklkkzzzzlkkljkhjaappuuuppdddddddhhhkkkhhhkhhkjhkkkhkkkhkkkkkkkhhkkkkkkkkkkhhkfhhhhhhhhhhkhhhfkkkhkkjjkhkkkhkkffpdhhdfkhkhhkhhhdaaahasuyyw096w0w0riiyi0099000ww9w000r9995890trriitrrirrruitssppsispppppdppdppsshphdhdapdppappdpghhhhhhhhhhddhhhfkhhhppiiiuppiddjhdpydzxcvvvvvvvccvvvvvvvvvvcvcvcvvvcvcvccvvcvvcvcvcvvcczzzzzzkzzzxxkklzzzkkdhppiiiiurrru0ererrre00rrwwe999996289992222221,<<<:::::;::1=,*7vcccvvvvvvvvvvvvvvvvvvvvvvvvvvvvvvvvvvvvvvvvvvvvvvvvvvvvvvvvvvvvvvvccvvcvcvcvcvcvcccccccccvvcvcvvvvvvccccvvccccvvczdhkzccxccccckkfkppappppppdddhhkkzccvvvvvvvvvvvvvvvczhiq6232:,262669qwwq0wwwwruutttuwtuyyyyyuuuwuuwrwruuuiyiuiiyyuuwrywwy0wrrrrrwwwwuutuuurrrwwwytu009999siu0yuiippiiiiidipipidididiiidiiddhdkkkdu09we986690ww0y0rr0rruuwuuuippppihhkzkkkkkhkjhhkhahhhhhhhhphphhsyhpyihkapappaddphppfhhhhhhhhhappppiiyiypdieripiirurrrurw0r00rriiuiidppddkkzzzccccccccccckvcfakccvvcvvxvvvcvccvcvvvccvcvcvvcvvxvvvvvvvvvvxvxvvvvvvcvcc",
"vvvvvvvvvcccccvcvcccvccvvvvvvvchpppphppppppppdhpppaddhpapdpppadddddhphppsdddddpppdpdppadddddddhjkhkhkhkhhkkhkhkhjkkhkkkhhkhkhkkkhkkhkkhkhkjhhkkhkdhhhhkkcccdpdddpipppyipiiuiiiipdiididdiiipapfkzjpuwuurruwwuwywwt92366637600090009690uiiidiipdkdfkkklkkkhkkzllklkkzzkllkhhhhdapiiiuispppppaaddahhddhhhhhkhhhhhhhkkkkkkzzhhhhhjhhkhhhhhhhhhphhhhhadhhhhhhhhhkhhkkhhhhhhhhhhapphhahhhhhhhhhdddddhdptuurq006907qrrrt0090000000800000009990wyruurrwiwrryissiisiississipsispsisppppdppppippppdsdhhhhdhpppppdhddahpppiuiyyiiissdhddi0uccvvvvvvvvccccvvvvvvvvvvvvvvvvvvvcvcvcvcvcvcvccccczzzzkzzzkzcckkkkkkkhddiiyiuryr00uu0000rw000urrw006966559996522822222111::>::>>:,1,wvcjccvvvvvvvvvvvvvvvvvvvvvvvvvvvvvvvvvvvvvvvvvvvvvvvvvvvvvvvvvvvvvvcvcccvvcvcvcvcvcccccccvvvcvvvvvvvvcjzvvchjzzcczkdhcccvvvckckkkkfdppppiapdidpdffkcczcvvvvvvvvvvvvvckyiiyw222:125238699999wwwtwuyuwyutyytwtuuwttwyeururrriiyiiiyiyuuyywwwwwwwrrrrwrwrriruuuyrrwwwyr00000860uuuyyuidipidipppiiiididdiippipidpkdzdhjiwww09992669000ywrwwrrrruuuyiippihkhzzkkkkhhhhhhhhhhhhddphdpdhhhipppiiapappppapppphphhhhhphhhhdppiiiiiyyitwwipiuurtrirrerrrrtitiididddddkkzzczcccxzcccczczcczpakkcvcvvvvvvvvvvvvvvvccccvxxxxvxvxvvxxcvcvvvxvvvvvvzvcc",
"vvvvvvvvvvkkccvvcvcvccvvcvvcxvkhhpdaphppppppdpahphphdhhdddpppppdapppppapidigdddpdappppppdhddpdhjkhhhhhhhhhhkhhkhhkkkkjhkhhkhhhkjkkhkkhkhkhhkkhhkhhddhhkkkclhppdpisiippiyuppuiiiiiddiihddpipphkkzkiuuuywwtywwuwwwr766qq696990000q0999wissiddipdhkhkkkzkkkkklklkkkkzlklkkkhhjhpppipipapdhdhhhhkhhkhddphkkhkkkkkkjhdkjddkkkkhhhhkkhkkkkkhhhhhhhhhhhhhhhhhkhhkhhkhhhkhhhhkhhhhpipphphhdhhhaphdpddadpsiywq666690qwuiirr0900r0w0000000ruww00wyyyiiuyriiiiippppppdappppdpphhhhhsspdhhhdfhhaddhddhdhkjhkkhhhhfhfkkhfhpppaaiaahadhhhddsrsvvvvvvvvccccccvvvccvvccvvvcvcvcvvvvvvvvvcvcccczzzzfzkkzzkzfzkkzkhkkkkhhdfaiiappuruu0ururrr0ruuuiw000969900rr0699955599552221:122;:11pvczcvvvvvvvvvvvvvvvvvvvvvvvvvvvvvvvvvvvvvvvvvvvvvvvvvvvvvvvcvcvcvvccvcvvcvvcvcvccccccccvcvcvccvccvcccvzcvckwhvvhpdhhjcvvvcvccklckkfhapppppphihdhhkkzzzxvvvvvvvvvvvvvkyywuuy92>12,<593265699wqwuiytwuwwytuyyyuuuyuwyirruiririiyiiiyyiyrwwwwwwwwrrrrrrrryyruutywywyww00r0yyw980uiuyuiipiiisipypypiiiidiiiidiisikkzihjhpu0990r66690wyrrrwwyrr0wuuuyyipihppkzklkhkhhhhhhhhhhhadidpiuhhpppafpiiipapppppppkphpphhhhhhhkhdpippiiyyrrtiiriiuuurriurrrrrruusiidddddkkzzzvccvcccccccxczzczzapdzccvvvvcvvvvcvcvvvvcvvvvvvvvxvvxvvvvcvcvvvvvvvvvvvcv",
"vvvvvvvvvvkccvvvccccccvccvvcvvlhhhhpdhaphdahhhhhhhhhhhhhdaadddhhhhphhafhhhdhdhhhadadpddpdiddpphhhkhkjhhhhjhhkhhhkhkjkhkkhhhhhhkhhhkhhkhkhkkhhkkhhdhdhkkkcckhiddippippiapppippippdihiidsiippphkcxzduiiurrywuyyuyww323653699qqwwwwr090russpddppkkkkkklkzkklkkzlzklzzxzzzzzkkhhhdppuuruissisppppppphhhhkkkkkkkhkkkkdddjkkkkkhkhkkhkhjkkkjkkhhhkhkkhhhhhfhkhhkkkkhkjjkkhkkkhkkdpphhhhhhhahhddhdhhhadurwwwq673667qtrrr0000rr00wy009wy0tt0000wiyyiiyiiuyuiisiiuipiiiipipspssspsipppppdhdpppipassddhphhdhpppphhhhppaiiiiiuiiaaphddyii0ycvvvvvvvccvcvvcvvvvcvvvccccvvcvcvvvvvvvvcvccczzzzzfzfkkkkkkkcckkkkkkkhhdpiuuuiuy0rr0rr0rr00rrw00wywww0ww900096559559965622112288,,,5kzvvvvvvvvvvvvvvvvvvvvvvvvvvvvvvvvvvvvvvvvvvvvvvvvvvvvvvvvvvcvvccvvccccvcvvcvvcvvvcccccvvccvcvcvvccvcvccvvvjwhvchhkkhzcvcvvccccclkkkddddppaidhhhhkkkkkzzvvvvvvvvvvvvvziiityit2>,21<52332256969wwwiuuywywyywwuwtytuuurrrrriiiiiyiiiyyiiywwwwy0wwrrrwrrrrrurruyrywywwryyrrriuw80yuuiiiiiidsidiyyuiiiiiiiiididpsikdkdhhhhp090w0696900rr0rwwyrr0wuuuuiiihdpphkklkjhkhhhhhdhhhhhdddiruppipppippiiiippppppppfpppahhhhhhhhhpppppiyyrriiwrriuiriiiurrwwwruuiiiddddddkkzzczcvzcccccxzzccfzvciddhkkvvvcccccccccccvvvvvvvvvvvvvxvvxvvvvvvvvvvvvvcvvv",
"vvvvvvvvvvccccvvvccccvcvcvvvvvlhhhdpdaphpppphpphphahhhdhddppdpadphpdppppsdihddddddppppppddipiphhhhhhhkhkhkhkhjhkkhkhkhhkjkkhkhkhkjkkjkkjkhhkhjhkkhhhhhkkcccdpddpipipipiipiiiiiiiiiiiiddiiiippkzxkstusurrwwwwwwwwt736977q79wwqww009900tisippppkhkklkzzzzzklzzkzkkkzzzzzzzkkhhpppppiiispppdahdhhhhhhhhhhhhjjhddhkdkdkkkkkkhhhkkkjhhhhhhhhhhhhhhhhhhhhhhhhhhhhhhhhkkhhhhhhhhhpppahhdadddhdpdadhhhpiuuwyw0009669riiqrr0000009000990wwuuw0000iiyyiuyupppppppiipppaipapippppdpspppdhhhhhhdpadhhddhhkkkhhhphhkkhhaaiyiiiiippdhdhhhdds0tcccvvcccccccvcvccvvvcvvvvvvcvvcvccvcccccccccczzkzzkkkkkkhfkcczkkdhkhhdssfiiuiiiittituurrrretr0wwuuyyw00w00000995222521121111222221:2fpvkvvvvvvvvvvvvvvvvvvvvvvvvvvvvvvvvvvvvvvvvvvvvvvvvvvvvvvvvcccvcvcccvcccccvcvcccccvvvcvcvvcvcvvcvvccvvcvvzhikzkkczkjjcvccvvccclckkkphapaappdhhhkkkkkkkzvvvvvvvvvvvvvkiiiwyuuw1:=12112396256267wwtuyuwtyytuwuuuyyuuwrrrirruyiypyiyiyirwywww7wwwrrruwrrryuuwuyrwrwwywyuuuyryy00000iiiiyippddiyuuuiiiidsppidsiudkdkhjsuhjt0w099996600r0rwwrrr70wtwywuijhiiphpkkkhkkhhhppdhdhhahhduuddsipiyafayyypppiipphhpppphhhhhkhhdiipiiiiytreeirrerrriruurwwrrruusddddddkdkkkzzzzzzzxzzzzzzfcvcccvydppakvccvvcvcvvhkcvvcccxvvxvxvxvvvvvvvvxvxvvvvvcvvcc",
"vvvvvvvvvvccccvvccccccccvvvvvvchhaddhhdhdddaapdhddaddhdppddaddddhppppppppppddappppppdidiiidiipdhdahkhshhhkhhklkhkkkkkkkkhhkhkhkjkkkklkkkhkkkkhhfhhhhhkhkkckdppdpppsipppiisisisddhdiidddpiiippfkkfpipdyyiiywyutwwq76699697999wqwq00990uusdipdpphkkkkkkzkllklkkzzzzzzzxzlhkhkhdppiuiiiipsaspkjkkfkkhhhhkhhdkjdkdkjkkkklkkkkjkdkdjkahkhjkhhhhhhhhhhhhhhhhhhhhhkhhhjhkhkhhkhhapphhhpddhdpadhdhdhddiprrrqq99090070rttr00000000w00900r0wuw0990uurtuutuiiipiaiiuiiappppdididdddssdddhaddphpphpaddhhhfhhhhhkkkahdddsiiipstiippdhjaahhiwwkvcccccccccccvcvcvvvvvvvcvvvvvvvccccccccxczxzzzkkkhhhkkhhkkzkzkkkkkfdpiippaiyyyyrrruiruryuu0r000rtr000009990005523523552622222221321:5kcccvvvvvvvvvvvvvvvvvvvvvvvvvvvvvvvvvvvvvvvvvvvvvvvvvvvvvvvcccccccvccvvvcccvcvvvcvcvvvcvcvvvvvcccccvvcxvxlfkvvckklccvcvcvvkzkkkkzcclkfhhhadhkcjhhkkkkkcvvvvvvvxvvvvkiiiyyitq2:11,8222363665569witqu09tiwwywuwywuuywwyiuuiiiirssiurtruw7wwwr0rrrwwruuuwturtrrwwrrr00rruuiiuyyw000ysiiuussusuuuuiiiuiiiiidsdsspdhkhhsiids09000999099r00wrwwewwwywuyuidhdiiakdhkkhhkkpiihhhdhpdfpiyyippiiiiphyiipdpiddddhhdiihhhhdhkhpdsrpipiirwwetiiwruuuurrwrrewutuipddpkdkkkklzccccccczzzzzzcccccvvhyppphvcccccvxckhazvclzvvczvvvxcccvvvvvvxxvvxxvvvcvc",
"vvvvvvvvvvcccvcvcvccccccxvvvvxzhhhdddhhdddddhdhpddddddaddppddddahpphpffppppadhhpdpppidsdddddipdhdpuytrrrphkkhhkhhjkhhhkkhkhkhhkhkkkkkkkkkkfkzkkzjhkhhdhkcckaipddppppppppipdppsiiiiidddpiippphkkkliippiyuuwywwuywt966qq9690qww7wwr0000uisdssdddhklklkzklkzkzzzzzzzzzxzzkkddhddpiyiiiiaisiiahhhkkkkkhhhhkhkdkdkkkkkkfkkzkkkkkkkkdhhkhkhhkhhkhkkhhkhhhhhhhhhhhhkkhkkhhhhhjhhppphfhphdddhddhdhdaappprurww0990009wrrrur000000w00000wruuuut000utwruusspiiiiiiiiiiippppidsdddsdidddhdddddphhppphdapphkhkhhfhhhpsddiiiiiiisppddhhhhfhpuwkccvcccccccccvvvvvccvcvccvcvvvvvxxcccccczcczzzklzfhhhhddhhhkkkkhdddddappiiiiiiyyrruuuurr0rryruurrrr00009000009525655575222111223,222<6cvccvvvvvvvvvvvvvvvvvvvvvvvvvvvvvvvvvvvvvvvvvvvvvvvvvvvvvvcvcvvcccvvcccvvcvcvvvcvvvccvvcvcvvvvvccvccvcvvvvphkcckclcvvvcvcczzkkkkzxccckckkfhkkzjhhkkkkkcvvvvvvvvvvvvjiiuwwutq2,11,2223266666336qeq9956wutrwwuwteiuwtyrwyiiirrrrisiurruwww9w0rrrrrrrrwwruuuuytywrryyurriuiiywryw00ruiiiruuustuuiiiiiiiiiddidpddkjllhdssdpr0000999999r00wrw00ywywwyytuidhapiihhhdhhhkhdpphhhdhfppaaiwhpiiipdiiipiiipddddddapppahhkkhhdppuiiipiuwerriirrryiiur0wwrriiiiiddpddkkkkzzccccccczzzzkccccccccckpiippkkkccvvvzvkpacvxcccvvxvvcccccvccvvvcvvvvvcvvc",
"vvvvvvvvccccccvvcccvccvvvvvxvvchhdadahhddddhddphdahddahddpadddddppphhphppppphhdphpppidsdddsdppphhiywrrrwyphhdhkchhkhhhkjkhjkhkhkkklkckkkxkkkzkkkhhddhhkzkjhiyusdpsppypypiipisdppidppiddipppahkcccpipdiyuuywywywwt766799369ww9wqwr0r0ruusddddppdkkkklkzlklkzklkzzzzzzczkaddddpsiiiiiisipiiphdhklkkhhhhkhkjkdkkkdklkfkzkzkkkkjdjddhkhjhkkhhhhhhhhhhhhhhhhhkkhhhkkhkhhhkhkhhhphhhhhhhhhhdhhhhdddpppssrrrq99q00q0rtrw0999999000000rriusuyw000ruuusspipipiaiiiiiiipppdidsddspddddhdhdaphpahhphhppphhhkhhhhhppidipiiiptisdjapdjhhkhpr0kcvcvvczcccccvvvccvvvvvvvcvvcvcccccccccccczzzzkzkkhhapppdhdkdhdkddddpdpaiipiiuiiruruiurruurrruuurrw00009w00q006577655652221111221113<6dcccccvvvvvvvvvvvvvvvvvvvvvvvvvvvvvvvvvvvvvvvvvvvvvvvvvvvvvcvcccvcvvvcvvcvccvvcvcccvcccvvcccccccvccvvvvclkhjccccklvvvccvcvklzzzzcccxcccckkhhkhhhhhkhkcccvvvcvvccckcpwiitwwq92,1<:22223526666669766556wtrwtwuywwiiwrriwuiuituriiiiuuruwwrwwr0rwrrrwwwwuuuuuiyyrrryyu0uuupiirytry0wwriu0r0udrutiiiiiiiidiidddddkkklfkauppsuw909979990090www0wwwywuuuuyypphpihpddhhhhhhpiphkdphpipkp7pppiiiiidiiiiiddidddppdkiphhkhkhpppuippiiirrrwuirrwrrurr0wwwrisuyipdkpkdkkklcccccccczzzzczccvccczcvkpppyddahkzcvvvzkhkzcchhcvvvvvccvvvvvxvvvxvvxvvvcv",
"vvvvvvvvvccccccvvcvccvcvcvvxvvchhhddhhhhadddhphpddhhdhhdpddddaddkpppppppappphdapphpddpppsdiiipiphpiuupiuwphhppdkjhhkkkhhhkhkkhkkklkkkklkckkkkkhkhhhhhhhkdduw7wersurryppppppiipphdidddipdppphhkzcchpppiyytwwwywywwq636666999w9www0r000rtididippjkkkkklkklkzlkklzzzzzzczfdddhddpppiiaiipipipdadkkkkkkhhjhhddkdhhhkzkklzzzkkkkkkdhdkkkjkkhkhhhhhhhhhhkhhkhhhhhhkhkhkjhkhhhhhhhhhhhhhhhhhhhkhhhdapppsusirw09970000rr09999599e0000wruiiuuiy09rrruuispaiiiisiiiiiipppiididsdddsddddadhhhppphpphhddphhhhhhpdpappiiiiiipiiadhjjdkhhkhsr0jccvcccccccccvccccvcvccvcvcccccczzxcccccccxzzzzkhhhdpipidhddsidhkkddppppiiipiaiiuiutturruuuurru0uutrwutw0wqq009596533352223222122228<5yzcccvvvvvvvvvvvvvvvvvvvvvvvvvvvvvvvvvvvvvvvvvvvvvvvvvvvvvvvvvvvccvvcccvvccvccvcvcvccvcvcczzcccvvcvvvvckpicczcccccvvvvvvcczzzzcxcccccccccckhhdhkkhkkcccvvcvcvvcczfjywqutww22:>1<,222225655526665369590w000wwuywrywrrwiyuiipiuispiiiyirwrww00wrrrrwwuwtuuuwrrrrur0ruuuuiiiiuiiiryww0u0rrt0utruitiiiiiiiididpddhkkkhksriiirw000999990960ww0wwwwwuwwuuuyyppdkyuiphhhhhhapphkhippphfhyyiadiiiddpiyuipddddhppdkppphhhhkdppuiiipiiiiuuywrwwrrwri0wwrrutuyppppppkkkkzccvvccclzxzzkzcccccccccccppdiidddhkcczcvchpaczkpzvvcvcccvvvvxvxvvxvxccccc",
"vvvvvvvvvcccccvvvcvvcvvvcvvvvvxhhhddhhhddddddddadhhhahhdpddddaddhppfdappppppdhppphppdpppdiiiidiihhdpprirsddpsuyrsiphkkkhhkkhkhkjkkkzkkkkfkzckhhjjkdhdpiiuuw97999099wshhpddppssiuidddiiidppphhkzckhddhiuyuuwwwuwwew06256969009wqw0r000trusisddddzkkklkklkkkzkklkzzlkzzzkdkhdddsppaipiipiippddhhkkhkhhhkhhhhhhhjhklkkkzzzkkkkjkjhkhkkkhkkhhhhhhhhhhhhkhhhhkhhhhhhhhkhhhkhhhhhhhhhkhhhhhhhhhhhphpdhiuirurq00q079rwr0000999000000rtuuuyiiyy9rruusippsiiipsiiiiiipsppisdidssddddgddhhhppppfhhaddhhdadhhdppppisiiiiippppjdjhkhjhhlhiw0hkcvvccccccvcvcvvvcvcvcvcccvccccccccccccvvccllkldsdiiiidkdddishhkkhhpppippisapiiistiiiuruuuu0uutuutwuiurwwwwq096366356522332211152222<7dzzzcvvvvvvvvvvvvvvvvvvvvvvvvvvvvvvvvvvvvvvvvvvvvvvvvvvvvvccvvccvcvvcvvvccccvvccccccvccvcccccvvvxccvvvhiujkhkkcvvvvvvvcccllcvvvvvccccxcckkhddjjkjkkccvcccvcvvcccku956993<:,=:11:2212525652555625655699622wiwwyitwrrrriuiipdppppiupuuwwuwr0wwrrrrrwyriiturrrrrrrrrt0uusiiuuiuutrwyrr00rt0rruuiippiiiiipdiidddhkkkajiuurrrw00w090990690w00wwywwywuwuuwyyihkiiuipdhhhfdkpidlppiphhhhyypdpispppyiiyppsdddpppkhaddhhhkdpiupiiigiirirrwwwerw0riwrwwruuuiipddhhhflkzlxccccczzzzzkkkzcvvcvckkkpipppppipakdzvckkdrpcvkhkvvcccccvvcvvxvvvvvvccvc",
"vvvvvvvvvvcccvcvvvcccvcccvvvvvxkkhahdkhhdhddadahdhhddhddddddddddfpppppdppppahhppsspppsppdididipidhkhprrwwurrwwrwwwrihkjkjkkkhkkkklklzlklkzxkpiipssrsrrwwrrw99999966rsdiwwrushsuwriiiihgidipdhkzlchddhiuyrwywywwwwqq755696690w97wrwr0ruutddddddjkkkkkklkkzlzkzzzzzzzzzzkfdddaipiippipispisjhhhhkkkhhkkhhhhhkjkkkkkkkkkzkkjkkkkkkkkhkjkhjhhhhhhhhhkhhhkhhkkhkhkhkhkhhhhhhkhhhhhhhhhhhhhhhhkhhhhhapiiiiirw0000990wq00909960e0000ruuuiiiiyr0ruuiipippsiiiiiiiiipppppdipddddddhddddhdhpapphhhhdahhdpahdppppipppdspipdppdjhkkkhhhkdirwkcvcvvvccccvcvvvccvcvvvccvcccccccccccccccczzkkkkpppiipiihdddddhhhhhdpppapiiippiisiuituiu0u0rtuuuttrrwuuutuuwu09736555662,12221225562256jhzcccxvvvvvvvvvvvvvvvvvvvvvvvvvvvvvvvvvvvvvvvvvvvvvvvvvvvvvvvvvvvccccvcvvccvcvvcvvccvcvccccccckfhhvvvkddhhkkkccvvvvvvvvccvvvvvvvvccvvvcckjhhjkczzlvvvvvcvcvchhfpt95252<:,11121:2222262562256666955656552wwiwwtiyrrwiwiiiddppppiupuurriwr0wwrrrrrrryipdpirrrtryry0r0uuiuuuuuuyyyuii08000urruuuyiiiiiiipidddhkkkkhhpuuwrruw00009999960e00wwwwywu0u0uuuyuiphpiyyuphkkkkduphkpyphfhppiuidhhipppyyuuyiddddpadhhhdphhkpdpiiiiiiiuiiiuwwwwrw9wr0rtwwuuripippdhkkzkkzzcccczzzzzzkkkkcvvccczppkkppppiiippikdddhhdiihcckcvvvvvvvcvxvxvvcvcvcvcc",
"vvvvvvvvccccccvvvccvvccvcvxvvvckhhhdhkhhdddhhdddddhdddddppdddddappppdpapppppaddpssppppspiiiiiiiipdhpprrr0wwwwrrr0wwwppakhhjkkkjkkkkczzkkczkaiw7q99wwwwwwrrrw999w99qqww9566qrustwwwwisgiiipddhkcckkhhdpiyurwuwuywwwq099656600qwww0wrrriisidddkdkzkkkkkkklzzzllzzzzzzzzzzzkhdpiiiiisiiiipisdkhhhkfhkhkkhhhhhhkjzkzlkkkklzkkhjkhkkkhkhhhkhkhhhhhhhhkhhhhhhhhkhkkkhhhkhkhkhhdhhhhhhhhhhhahhhhhhhpappppiisrww0009000q09909690rq00wrruiiiiiuyrruuiipppappiaspiisssppppidsddsdshhhddadappppphhkhddppppppppppddddpdpisddhhhhhlkkkhhkdiuuzcvvccvcvvccvvcccvvcccccccccccvcccccccccczzfakkfdsiiddsdhdiisdhdaddpapaasiiispiiisiiuuurrruuuuusyuurwwuwuuwwww092553565<:,2221<2526<<56jkkcccxvvvvvvvvvvvvvvvvvvvvvvvvvvvvvvvvvvvvvvvvvvvvvvvvvvvvcvcvccvvccvvccvcvvvcvcccccvccccccvclppipjcchhkdkkcclkxvvvvvvvvvvvvvvvvvvvvvvcckkhjkkkzvvvvvvcvvjkjiipiw962222,,1,111:1122526566262626625926666wwiuwywwrrrwiiiihddpdppipphidprr0w0rrrrrriphjhppyiuurwrru0uuuiurrit0trt0iu08900iryuuiiypippiiiipsdhhkkdkjpiurrrrwww009999900000wwwywwwu00rww0yyuhdpuyyiphkkkhpppfpiipphdhiiyidddpiiiyyuyiiddddpphadhhhhdppsiiiiiiiiiidiiw6werqqwrrrrruutippdpdhkkfzzzzcccccxzzzzlkfkccvvzczpdccjppipppipduidpupzhiuhccchzcvvvvcvvcvvcvvvvcvcc",
"vvvvvvvvcvcccccvvvcccvcvcvxvvvchhhhhhhhhddadddddddapdadpdaddadddkpppkppppapphhppspsiiiiiiiuuiiiuyupsuiurrrtwwwrrrrryyrhkjkkkkkkkklckkzkkkpiiwwwiqwwwwwwwrrw969996666636999669q96667uihgidipdhfkckhhdhpiuurwwirywwwwqtw6<66007wwerr0rruisiidskddkkhkkkkkkzkzkkzzzzklzzxzzkkddppddpiipaspssahklkkhkhhhkhkhhhhjkkkkkkhkkzkkjkkhkkjhhhkhkhhhkhhkkhhkhhhkkhhkjhhhhjhhhkhhhhhhhahhhhhhhhhaddhhhhhhhpppdpiiiirw0q0990www000000qwq0ewruuiiiyyiuywuuspppaapiiiissiipsdddpdipsddsdhhddddhhhppphppfhdppippppppphhhdhhddddddkhkkhklfjjhkhiuucvvvcvvvvcvvvcvvvvcvvcccccccccvccccccczzzzkfkdadkdspdhdisiiuiddspppdppiiiiiipapisituutu0uuiuuuuuusiuuuuwwwwuuww0<233522<,23221<2559::55dzzccxvxcvvvvvvvvvvvvvvvvvvvvvvvvvvvvvvvvvvvvvvvvvvvvvvvvcvvcvccvvccvcvvcvcvvvvcvvcvcccvccccvvcfiiiikhddj7ihlckcvvvvvvvvcvvvvvvvvvcccvcckcczkkkkkvvvvvvvvvjhpippiw632222,=,:,21:2222252669666565266922566yuwwwiiwwwwrwiipkdddhapiaphhhkiu00wrruurphjkkhppsisirrrr0uuuuiuu00ruyrw0tst0090u0yuuuuiiiiiiiidippdhjkadjpiw0yr0wwwwe0099900000eywwwwy0rr0y00yyiipdpuyupphhdkkdyyaayyihhihhiuushpiiyuyuuuusjhhpipphhhhaphpsuupiiiidiiiiiw76rrww9qwwwruiuiipspdkkkzzzzxccccclxzzzzkkkccvcvczkdipjipiipppiiddiiadihkhidcvkpdcccccvxvvxcvcvvvcvv",
"vvvvvvvvcvccvcvvcvvcccvvcvvcvvcjhkhhhhhhdhhhhhdadddpddadpppdpddddddadpppppppkdddpppyippissuuuuuuyrruuuurirurwrrrwwurruhjhjjjkhhjkjkccczziuuuuuyyrrqwwwwwuww769996699999999699696090qyippppphkjccckhadpiitywwwyywwywwywww6226qqww0uruiiiiddddhkkkhkkkdkkzkkzzzzzzzzzzzzzzzkdpspiidiisddshddhhkjkhdddhkhkkppfkkkkkkkhklkklhhfkkkhkhkkjkkhhhhhhhhkjhhhkkhhhkhhhkhkhkhhhhhhhhhhhhhkhdhhkkhhhddddadpppppiiirwwq669w97wqqwq96qr000wrrtuuiiuituiiiuiippspsiipipasipahdppadhhhddhhhhppppadpipddassiiidddpppfhhhpjhpphhhkzkzzkkzkkkkhhpipvvvvvccvvcvccvvcvvcccczzzzcvcccvccczzzckkkkhhfkkdkkhhhhhddpuipdpiddpiipiiituuiistrrr0rrrirrruruuwhhrwiiwwqwwrww965253<,23323211<,1282,29cccccccvcvvvvvvvvvvvvvvvvvvvvvvvvvvvvvvvvvvvvvvvvvvvvvvvvxvxcxxxvvcvvvvvcvvvvcvvvccczccvccvvvvzhtiiuyhczpiphhkvvvcvvvvvvvvvvvvvvvcvvcccvcvcvjkkzccccvvcckpppypyp98622221,111,,,1<96wt70yt00q72232939<659rwuuuuuuuiuyuidpdddhhhhdddkjkdduu9t0ru0szzkkfkfakikpuuwuwrruuuuurut0wuutwrt0r0ttrtr00ussuiiiiiiippphhkkkdddiuywuw00wyw070000wewwwwwrwr0ru0uu0uu0rriiirrrwhjdhzhiyyppyppihhpsspipipditwwwwrusdddpappdkhhhdpiiiyiiiiiiiiiir000ut00000ruuiuiipiddhhhkkkcvvxvccccccckzzkfkcvzvvcdddiayiipapiyiiaiyiiddhjdidcjddhcccvlvvzkvvcvvvvv",
"vvvvvvvvcccccvxvcvcvvvvccvcvvvckhhhhhkhhhdhhhhdpddpdddddppsdpddddddapppppppadddippsiupiiuuuwuitiuururuurrrrrwwywwuuuwwusdpdiyuhjzzkcckhkuytwwwuwqwwwwwwerrwwq7999668998969966q6969777yiphppkkkcvckhdhppuywwyywwtwwwywwwwwq7666qrr0ruiddiiddkkdkkkkkkkjkkzkkzzzkzzzzzzzzzkhdppsdiiiddsdssdhdhhkkhkddhhddkpphhkkkkkkakkkkkhhkkkkkkkhkhhjhkhhkhkkhhhhhhkkkhkhhkhkkhhhhkkhhkhhhhkhhdhhhhhhhhhhhadpppdppipsr0ww999wwwwwww77wew000rwrruuuttuiuiyiiiippssispipipiipdddphpphppdadhhhpdhhddddpdddiuiiiippappphhhhghphhhhhzzkzzzzzlzkhhpypccccccvvcvcvvvcvvccccczzczcccvccllzzzzlkckzfkkkzkkkhdhddipiiiddpiddiuuuiuutyytyyrwrrutrrur0uur0urtiriiiwwwwwe9w975223<<<332211121211,221cccvxccccvvvvvvvvvvvvvvvvvvvvvvvvvvvvvvvvvvvvvvvvvvvvvvvvvvvvvvvcccccccccvvvcccvcccccccvccvvvvczityuipcckhkhdcvvccvvvvvvvvvvvvvvvvvvvvvvvvvcczzzccccvvccdyyyyyyi9921222<,12:,111<isutwutww7w935667392056wywururuuu0yuidddkkhkdhhddkjdjdyu0trruudfzzkkkkkfskpuuwtwrrruuuu0uu00tr0rw000rwururwrusiiiiddidshphkphdddsiurwwww000y0w0w00ww0ewwrrwrw0y0uu0u00urrtirriiuihhhkkhiyidyrppppppsruuddpuuwrrrrridddddppaapppddpiiippipippiiitt0000t00000riisiipdddhhkhkzccccccvcvvcczzzzkkzcvkkvvpidiiippipiiiiipiiyiidhhiipdiidfzxcvccccccvvvccc",
"vvvvvvvvcvccvvxvvvcccvvvvccvvvczkhhhkhkhhhhhdphpddaddddpppdddddddddappppipppadayspsiiiiuuuuuuiutsurrrurrryrrywwwyuuurwrripiryyphhhdppiyyuuwuuuwtwqwwwwwrrrww99979666698666699699690656ypppphhkzcxkkhhdiityywtwyyywwwwwywwwwe759e0uuuusdidsdgdkkkkklkjjkkkzzzkzzkzzzzzkzzkhdpdddidisdddddhpddhkkkjkddhhhhppphhkkklkhhfhfkhkfkjkkkkhkhhhkhkhhkhkhkhhhkhjkhhhhjhkhhkhhhhkhhhhhhhhhphdhhhhhhhhhhdddpddpipirw99999q7www9999www00w0rwrtuuuiuuwyyuiiiippppiiiippippphadpapphdpppdpdadhhdpddaaapiuryipddppfhhhhhhhhhhhkkzzzzlkkzlzkhkpricccccvvvvvcvvccvvzjzzzckcccvcccczkkkzzkkzlkkfkkkjkkdhhhddddiidppisiiyyyuyyyyrrwwwwrrruyuirrriurutwriiruwwweww99wq655<22<322221<2,1,:182>kcccccccccvvvvvvvvvvvvvvvvvvvvvvvvvvvvvvvvvvvvvvvvvvvvvvvvvxvxvvzzccccccvvccvvccczccvcvcvvccvvvvhiwiuiphdkdidcvccvvvvvvvvvvvvvvvvvvvvvvvvvcczzzcckccccccdiyuuiyie3<262121111,,226sgsiuyyt999966q99275655wywwrruy0uyyypdkkkhhhhhdddkkkddiuru00uyzzzzzzzkkkakjuuwrwwruuuuutut00rwwir000rrrquytuuuuidsdidpipphpdhdkjdiurww0w0w0wryr0wr0wwwwrwww0yryu0yu0uy0wwrrriiiuiihjhjkpwyppiipppphpyuippdsu0wutw0wuddddpppppppddpyyipiiipdppiyirr0000000000uisidpppdhhhkkzcccccccccccczzxccczzczzckcddiaiaiiaapiiiiiiyyyyhhpuyridkhfzvvckvvclccvvvc",
"vvvvvvvvcvccxvvvcvvcccvcccvvvvcjkhhhkjhhhhhahhphapdpadddppddaddhdddddppapppaapppiiiiiiuwuutuuuiuuurrrrrrrrruurywrwuuuurrtssirrryiruuuwwwytuwuwywwwwwewwwrewq996996699999699869990qw066wippdpkklvvkhhhaiiyuwywywwwyuwyywwwerrew97tuuiiidsdsdddddkkkkkkkkkzkkzzkzzzzkkllzkkdppddsdidsdddddphdhkkkkkdpdhkhjkhphjkjkzkhkkhkckkzlkzzkjkhkhhhkhhkjhhkhhkhhhhhkkhhhkkjhjhhkhhhhhhhhkfpphhhhhkhhhhhdadapddppisuw99w9w9weq97667wwtw0000wtuiuuuuruyiuyiiiappipiisiiiiipdddpphhadhdhhdapdpdddddddppstiiipddpphhhfhkjhhhkkkkkzkzzzzkklljkpuiccccvccvvcvvcvvvzzzzzcczcccccccczkkzklzkzzzkkzzzjkkdkkkkhhdpidpiiiytuyyywrryrwwwwyyyuuyturriiuuuwweiiityweww769977653221<2222222:11<121,dkcczccccccvvvvvvvvvvvvvvvvvvvvvvvvvvvvvvvvvvvvvvvvvvvvvvvvvvvvvccccccvcvccccvczzzcvvvvvvvvvvvvvcpyiywwweiywhcccccvvvvvvvvvvvvvvvvccvvcvvccckzzcccccvcvcjiiyyiypq222622661,22,270iidjuyiiw97999q96665555wwwr0rwuuuyyuphdkdkhkkhhkdkhkjdpu0rrrrdckkzzzzzkkpkkswrrwurruruw00000wwttr000r0r00wuuuuiiiiidddspfppphhkkjiuuy00wwwywwyyrrrrwwww0rwrrrr00u00u00uwrwrrruurridhhjhku7ypppyisdhdpiiwusdir00t000riispppppppadsiiiiypiiiiiiiute0r0000000000tipiddpdhkdkkxcccccccccccczzzvvczkpvvkkvcriiiiiiiiiiiiaiyyiyyiiuuy0rshzczxccccvcczxcvcc",
"vvvvvvvvcccvxvvvcvvcvcvcccvcvvczhhkhhkhhhhadphppddppadddddddddhhdddpapppipppadpystissuuttuuuuiuusruruurruriiuirrwywruuiuruiirrrqwwuywuutwwwuuwwwwwewwwerruw0q99766669699699699969999999qiphkklxvxkhhhhputwywywywwuwuwwwwwwrrir750usiiiddddisdhkkkkkjkkkkkkkzzkzklkklzzlkkhhaidipdspddddhpahhkhhdhdphhhhkkhhhkjkhkkkkckkkkkzklkkzkkhhhhkkkhkhhjkkkkhhhkkhhkhkhhkhhhkhkhkhhpdhhhhhdhhhhkhhhhhhddddpdpppirw99w00www076099wwirq000rutiuuuurwiiyiiiiipspiiiipiiispdhdhphpdhhdhhadddhdaddppappiuuiipdhhdhhhhhjhkhhkkxkzzckklzklkkkkaipvvcvvcvvccvvcvccczzzccccccccccczczzzzczzcczkkzzkkjjhkkzkhhhiipiiiutruryuwwrwyuuyytiuiuuuyrruiiyriewisieuwwwiw9696q6663212132332222382:3wzccckkcccczcvvvvvvvvvvvvvvvvvvvvvvvvvvvvvvvvvvvvvvvvvvvvvvvvvvvvcvcvvcvcvcccvcczjcccvvcvvvcvvvvcchhiwwu75wwwjcccvvvvvvvvvvvvvvvvvvcvvvvvvczzzzccvccvvvccdpiyypyp92265<609,,98,2t0uwypyppitwq66qe99007266uwwuuwuwuuruupadkkkjkkhhkkkkkkfprururrdczfzfkzzzkdkksruwrrrruwuwtr000rt0ww009990qwwtyuyuuyippdddpphphkkkddprwuw0w0ww0ywyuuwrrrrwr0r0y0ry0u0uu0yrwwrwwuwywiiiihhhkhurrhhyyippdppu0yydiu00r0990tsspppppppaddiiypyiiipiiiii0rr009955999uruipppppddkkkkzccvccccccccczzkzxvvchaakkdpdaiiippaiiiipiyuiyiyyyyiii00ulcxdhcvvvcczkkkcc",
"vvvvvvvvvcccxvxvvcvvcvvvccccvvvzkhhhhkkhhhhdhpahdddpaddddddddddhdddapppppppaadpiuuuuiuuuuuuutitiisrrrurrrrrrrrrruuwruuuurrrurrrutuiiiuuiuuwutuuuwwwwwwwwrwwq0996966669366669969q99999996qidhkklxckfhhpiiyyytwtytywuwwywyrrrrtir60sissssddddddhhkkjkkzzkkkkkkkzkkzkzzzkklkhhddipiidsdsddddhhkkhdihhhahhhhhhhhhkhhkffkclkkzzkzzzzkkkkhkhhhhkhkkhkhhhhhhhhhkhhhhkkhhkhhhhhhhpdhhhhhhphfhfhhhhdaapddphppisirw9qwwwwq900wqwwtiuww00riiuuuuuuuiiiiiiiiiiiiiipiissdadhhhfhhhhhhpppahhhfhdpipppiuurripaddhhhhkkkkhhkkczkklkczkkzllhhhpupcvcvvccccvcccccvvczzccccccccccclcczzcccczzzzkkkczzkkkkjdiiiriiiiuuyrityryrwrruuuiiiiuiuitrwrrrrriiiiiiwwwwwww999676769211232233261232,wczcvckccccczcvvvvvvvvvvvvvvvvvvvvvvvvvvvvvvvvvvvvvvvvvvvvvvvvvvvvccccvccvvccccczzccvvcvcvvcvvvcckcckdyww55wwpkvvcvvvvvvvvvvvvvvvvvvvvvvvvvvzccvcvvcccccccjipyyiui3966250rw1,09<<t5iu7ypkiiiww97wiwwttu670uuuwwuuuuuruupdkkkkkkhjjkzkkkzkfuururudckfzzkkkkkkjldwurrrrruuwurttr000000w09990wwwuwwwtyyiiipsdhphfhhaduiirruuqrrwwwrwyuuuurrrwyyry0rr0yuu0yu00yrrwwuwwuiirihhiidhuwydpyyyipdppuyyyuuwwr0009rtipkhppppidiiipyyiiiiiippprr0r005555690rtsyippdddkkdkkcccccccccccczzkkzvvvvppkjuichpiiadaiiipiiyuuyiisiyiiriuiihkzhjzvchjvkkkxv",
"vvvvvvvvvcccvvxvvccccccvcvvcvvcjkkhkhkkhhhddfhhpdpadddddsdddddaddddadpppppppdddptuwuuurruitiuuuuuuirriuurrryrrriuurrrrtrrriyrruiyuiiyiyuuwuuuuuwwwwwqqwrwrww099666669996996996q9q9999q966wihkkllczfdhapyutwyyurywuwrwuywrrrrriuw0usssdsdsiidpddkkkkkjzkkkkklzzzkklzkkzlkdhddddisipidpdddhdhhkhdpahjjaddhhhhhhkkkkfkkkkkklzzlkkzzhkhkhjkhhkhjkkhkkhhkkkhhhhhhkjhhhhhhhhkhkppkkhphhhhhhhhhhhhdadpdphhpssirwwwwrrwwq00qw0wyuuytwwyutiututiuiiiiiiiiiiipiaipppdsphdhhpphhhdhppppdhhhapipipppirwryidhphhhhhhkkhhkzxckzkkkzzlzkkdadiupzzcccvcvccccccccvczzzczklczccccccczzcczkkkfkkkhfkkhkkjhiiiiiipiuiuyiuitwrrtuyiiiiiiyyiiii00rrrrriiiiiyyweweww99999633332123223312<<4<2tjplclkcczcccccccvvvvvvvvvvvvvvvvvvvvvvvvvvvvvvvvvvvvvvvvvvvvvvvvvvcvccvcvvvvccczcvcvvvvvccvccvcccvccjiww266yhkcvvvvvvvvvvvvvvvvvvccvczkcvvccccvvvvcccccccdipyyiyu609526qtt5597<205piyyidphsiw79wsuwsid000uuuwuwrruuuyuihdhkjkjkkkkkzkkkkhpdwuuukckkkkkzlkzkkkpwiwuuyuuwrr0wr00000e00w0000wwqwuwwipyiyidddphphapppwiputuurrrwwuwiwuuyrrruw0r0rr0y0u0u00rurywwrrwwwrriiiiiiuphpwyippywysppspywtuuwr0ww000rriaappppidiiuyyuyyiiiiipiur00u097258990rsuipdpddhhkkkcccxzzcczzzzzzkzzcvvvckipdjdaaiisiaiiipppuiiyipiuiii0shsryjzkhhhhhkvvckfc",
"vvvvvvvvcccvcxvvvvvcvvvczccvvvvzkjhhkkhhhhhhphphdpdpddaddsddhhhdddddppapippahhddur0ruwwtsstisiiriirriuiuuirrrrriruuurrrurrrrrrrrwyuiuyyyuuwuuuuuewwwqwwrrqwq09969666666669986966w99969976qsjzxxxckhhppiiuuytuwuwrruwywuw9rrrriur80ussddddddidddkkjkjzkhdflkkkkkkklkklkkkdhhddsddpispddsphdhhhkhhhhkkhddkhhhkhhkjkkfkkkfkklkklkklkkjhkhhhkhkkhkkkhkjkhhhhkhhhkhkhhhkhkhhhhppfhdphhhhhhhhhhhddpppdpdpppssuwwwrrtw0000090wtuuuiuytuiuuuuuuipaiaaiiiiiiiiipippddaphdpphhphhdhppphhhhyiiipppiiiryiphhpphhkkhhhhkkzzlkzzclkkzklkdppurikzzcvcvczccczxzcczzkzkkkckzccccccczzcczkhkkafahakhhhkkhdiddiipiuuittiu00wrwuiiiiiiiyyyidiiriytyytiirwtiwyq7ww999693<<22213323331222<<<22ypklkkclccccxlvcxvvvvvvvvvvvvvvvvvvvvvvvvvvvvvvvvvvvvvvvvvvvvvvvccvvvvvvcvvvcczczvcvcvcvvcvvcvcvkhkcie9w93wjjkvvvvvvvvvvvvvvvvvvkccckjkxcczzvvvcvccccvccdpdyyiyu9w0250uwq0763<256iiyy0idihpt7qihiwisgww7uuywwwruru0yudkkhhkkkzkkkzlzkzkfjd0wrucckklkkkkkzckkpwtwruuuyrrr0000rr000000009666wtiutipiiiyiidppphpiiyupjsuuururwriiiwuuyrrruu0yr0yyrr0u0u0y0rwwwrurwerweidrrdpippyyyyhiyrudpppyyisu000www000wyippppdpidiyuyyyyyyiiiiiiu0900998858800tuyypphdkkdkzcccczzclzzzzzzzzzcccckdyphduaiaiiiipaiipaapupiuyyiis0tiiipiuhkhyyjvcvkpip",
"vvvvvvvxxvvvvvxxcvvccvccccvvvvcchhkhkhkhhhhhhhhpdpdddadhdddadhddddaddppdpipppappurrutuuupiiiiiiisiryiyiyiyywrrrrrruuuuruurrrrrrruuiiwitwutwuiiuu0y0y000urqr0099993996993666966767999366999tphdkvzkpppiiiutyttwuyrurwrwwwwwyuuuii00sdipkpppppiphhkkkkzkkkklfzzzllzzzzzzkkpapppappppsdpdddhaphhkhphkhkhhhppphhhhjkkjhkkkkkzkzzlzkkkhkhkkhhkhjhkhkhjhhhhhhhhhhkhhkhhkhjkhhhhpphkhhhhhhhhhhhhddpdapppphpiiiiurrwwry0000000uupyydurwuiryiiiyiuiiipiiipppppphhadsddhhhhhhhhhhdhhhhhapyppiiiaipiiayiahdphhhhkkjkkckkzczkkkkzzkkxfkdsu60kddzzczkzzzzzzcczzkzzkkkkklzccccczzzzczjhhfhphhhhhhjkhdhdpppdiipsuisurttiiiiyiiiiuruusiusiiiiuiidiiiwyyytw66qw9669662222222211<222212112,9vdlllkczzccvcczcvvvvvvvvvvvvvvvvvvccvvvvvvvvvvvvvvvvvvvvvvvvvxvcvcvvvcvcvccvvcvvvcvvcvccccccvvccpxpk0536wwhzcxcvvvvvvvvvvvvvvzkkkhhhfczvvcvvxxvvvcccckkdkhkklkdr225uuy9i999:295iurupdyhhpiiipppwrts005900wwwwurtuuuidkkkkklkkckkckklhkdpkyipkkzkzklzkkkzzjsurrrrwwruurr07700w00000099069qwwiiiwiipiipipphhhppiwiddiiiurwiwuiutrrrwrrwwr0rywwywyywwry00ryrwrwywwwwrrrriuyidpryypitrrrphuutrugpww7qyw77w6wuijdpijpuuwwwrwyyiiiiuuwq0999958599900uuuupdddhkkzccccccvccczzzkzcvvvcxckhpiaksipiiiipisissppppipiiiyyuuuuuiiiwiiewdccccckk",
"vvvvvvvvxxccvvvvvcvvvcvvcvcvvvcchkhhhkjhkhhhhhhppddddddddddhddadpdppdddpppspphdpiiuutuuiiiiiiiiiiriuyiiiiyrrrryrrrurruutruruyryruwwyiwwyuuuuuiuywwy00yu0ur000999696663699666q63699966999990tuyikckhfhpuuutyyytytuwwuywwrwwruuuiiuuuddpddhppppaddfkkkkkkkzzzzkzkzzzzzkzlappppppppppdsdddphhhjkkhhkhjhhhhhphhhhkkkkjkhkkkzkkzkkkkkjkhhhhhhhkkkkkjhkhkkkkhhhhhkjkkhhhhhhhkhhhphkhhhhhhhhhhhhddddpapdhgppippuuwwwyw7qw000wwuiyuiiw0uuuiyyiiiuiiiiiiipppppddhphasddhdhddhhfhhhhhadappipaiaippipiiiadahhkfkkkklzkccczzkkklkzlkckhdsu9wkkkkzczczzzzxccckzzkkkkkzkcccccccczzvczkkkhppypahdajkhpppupppsuisuisrruiiiiiiiiiiutuiiuusiiiiiiiiiiiiwyyrw999w966765212311<111<<12122222,9zdclkklzccvccczzjcvvvvvvvvvvvvvvvvccccvvvvvvvvvvvvvvvvvvvvvvvvcvcvvccvvvcvvvcvvccvcvvczcvvvccvkclcii606wttpkcxccvvvvvvvvvvvvvvkkkkaphkkvckvvvvcvcccccckkkzzcccisr25udywi9q91826siquppyphhiippap0wru0050qwrruuutruuuddkkkkkkkckckclkchkdpcypdklkkkkkzzzkzzkdyrurutrruiusurrurrw0006669099qwqttiiiuipaiiyipphhfpiidpipiu0yiuwuuurruwuruwwywwywwwwwyw0yrywwrwywwwqqwwrrituupyupyw0ssr0rsrjsrudyupww0www0600wupppiyu009999wwwwtiuiuttw099095855990uuuiiddkkhkkkccccccccczzzzzcccvccvzkpppppsiiipisappppspsppipiiyiuuuutiuiiiuyikccccjhk",
"vvvvvvvvccvcvxvcvccvcvvcccvvvvcckhhkkhkkkhhhhhhpdpdddddhdhdhddddpdppppddppsphphpapitutuiiiyiuiiiiiuiiiaissyrrrrrrrururruurrrrrrrywwtrwiwuutuiuutwy000u0urr0r9959666996669969666639666969967wwypzckhhhpiyyttyuuwuwuuwrrwywwryuyyisu0ikpikadpppdhakkkzzkkkzzzzzfzzlkzkkkkkipyapppppdddddddhhhkjkddhkkhhphhhdhfkhkkkjhhhzkzkkzzkkkzkkhkhkkhhhhhhjkkkhkhkhhkhhhhhkhhhkkhhhhhfddhhhhhhhhhahhhhdppddpppdddpiipuywwwyywwqqw0wtudyuuiw0ruiyiiiiiuiiiaipiapppddhhhdpadpadpaphhhkhhkaiiiiapippppapappiaapphhkkjkkjclcclkcczkklzkkzzhhdpu0skkjklczlzxzzzzzczllzzkzzcccccccccvzzcczkjkhpiipahhkkkhapppppdsisdissuriipppuiiiiytyuiiiuiiiiiiiiiiiiiuwiew9669666673<12q,1<<122311122221,2dkckkcccccvvccvckkccvvvvvvvvvvvvvvvckkvvvvvvvvvvvvvvvvvvvvvvvxcvcvcvccccvcccvccvccvccczzccvvvcczccpp6w9tiiipkzccvcvvvvvvvvvvvvckkjpipdkcckxvvvvvvccvckkkcvvvvcdkd69sdrq969612,9situpkihhfiappiu600w9929900wrurriuuiakkkkklkckcckckkkpkjdkiphzlcklkkzzzzzzkdurywuurewuisiiipppitr096890999wwtyuhiuippiywyppphhkddppdddiruiuwuwiuuuwrrrrwwwrwwwwwyww0r0rrryyywwwwwwwrrrrydpyyppy7upsrrrrssusu00uiy07wuw0096qyiiyww099769qq9wwwuirrww096698598900wuuuuyddkhkkzccvccccccxzzkzccvvccxvcapipasppipppsiipssppidiipiiutituuuiuiiwuikkkcjdid",
"vvvvvvvxccccvxxvcvcvvvcvvcvcvvcchkjkhkhhhkhhhhdpdadadddddddddhddpadhdapdpppphhpphdiruuuuisutiiiuiiiyiiiispuurirrurruuruuruyrryrritiyiiwiuuuuttuuwry00yurt0w09959939669966666666669696899960wyykzchppppiyyuuuuuuuuruuwrywwrrryyyidsuudduhppddapdhhkhkkkkkfzzfzzzzklzkzzkaypppppppspddaddddhhhhddakhhhdphhhhhkhkkkhjhkkzzkkkzzkkklkhhhkkjhhhhkkhkhkhkkjkhkhkhkkhkhhhhhkhkhhddhhkhhhhhhhhhhdapppdppppppiiuiuur7wwwww0wwwqyiiuuiywwqiiiiyyiyipiiupipppppadpdadasdpadpppdhkkhhhapyyiipappappaiiiiiapaphjkkkkkzcckckklkkkzzkzzhpdpsuwhdkkkzczzccczzzzzzkzzzzzzkccccvxccvvvcczkjkaaipiahhhkhppppuppdpppddddytisuuiiiyiiiuuiiityuiiuuiriirrrywywwwq966366663<<<3<<22222222228321,1wkckkvcccccvcckkkkkkcvvvvvvvvvvvvvvvckvvvvvvvvvvvvvvvvvvvvvvvvvcvvvcvvccccvccccccvccvcczccvvvcvhkkhk709riiiipkzcccvvvvvvvvvvvvvcckpiipjzzcvvvvvvccccvccccvvvcvdckw0dd09,:2128,2iwwypkdkkpppfhir600e9085690wruuruuuihkzkkkkzklkckcckkakjdcidhzlklkkkzzzczkkhir0wuwrrusiiuiuispptr0099906679qyyihiipppaywiiiiiphkhppdddiuuiuwuuywwuururrryrwyrwwywwryrr0wywryywwww9weerrriurrisrw0rhhrwr0sdsw065iiy00uuy0767yyyyuy090995976567wq0ruy09555995900w00rruuddjkkzzccccccvcccckzzccvvccxccfppippsipippissppippdipiiiiiuuuuuutuwuywiiiwtiiik",
"vvxvvvvvccccvxxcvcvcvcvccccvvvvchkkkkjkkkhhhhhhdahddddddadddaddhpppppapppdspdhaajpurwrruuuuuuusuiyyyiiiirisrrrrrwuruururuurryrrywiwituuyuuuuurtuwuw00uuuur00955996699666336666q696669999000qwwypgdihsiiiuuuuiuuwuurruwrwwrrrryyyskuyikidpppddppphkhkjkhkkkzkkzzzkklzzkfhapppppppipidddddahhhhdaphhhhphhhhhhhkkkjjhhkkzzkkkclzkkzkhkahkkhkkkhhhkkhkkjjkkhhhhkhjkhhhhhhhhhhdphkhhhhhhhhhhhhdppdpdpppssiiuuiurwwrrwwqwwtwwiiyyiurwriiiiiyiiiipppppippppapaahdpaaddhpppphhkhhdiiiiyyappppdadppiippppphkhjkkkzkkckkkkklxzzkzkhppiir0kkkkkkczlzzczzzzzzzzzzzzzkccvvvvvcvvvcclkkahppiaasppprypiiippppppddhdiyiupuiiiiiiiitryyrruuyiuuiruuwuwwwurww9q676665321112222222222228211129jckkccvcccccciipkhkccvvvvvvvvvvvvvvvcvvvvvvvvvvvvvvvvvvvvvvvvvcvcvcvvvcvvvcvcvcvcvcvcvcczcvvczidphp627tipiipakkzccxvvvvvvvvvvcvckpuippzlcvvlvvvccvvcczccvvvcckkdipdi6q::222884t07yyddkkippdhpu0urt9095900wuuurrruidkklkkkckzzckckkzfkhdkigkkllzzkzzzzckjkhiryuuwwihasaiyyryuistuw00993699qrwiwrihppiyeiiiyippkhhpapppsuiuuiuruurrwururrwywwrwwwy0rrryywwyywyw0w999wrwwryirrrii07phrwwqissiu0<0uiwqwuyw09970wyrr009995765667760wtrr9995559900rr000uiiiddzzcccczcccczxczzkzcvccxcczfhppppipiaisasiapppppipspiiuittuuururiwuwyw76wqik",
"vvvvvvvvccccvvvxvvcvcvcvcvvvvvccjkhkkhhkjhhhhhahddhhhdaddadddddhadhppdpjpppddhdpdpuw0rwruurruuuuiyiyiiiisrurrrrrururruruurrrrrrrwrwrwwwwruuuuuuuywy00ru0ru000999699366996666666q6966366690qw00wwwuidhiiiuipiiiyyruururrwwryrryyydzduudssppdapappddddhhhkkkkkfhhhlkkzzkkapppppppaiidsddddhhhhhhphhkhhpahhkphkkhkkjhhkkzckkkklzkkkkhhhhhjhkjkhkkkjkhkkhkhhhhhkkhkhkhhkhkhhkdhfkhhhkfhhhhkhhhpaaddpphhppspiiirwwrwywqwwwwtiiiiuutwriiiiiiiyipipiipppppiiippddpdpdhhhppahhhhdiiippyypppdadahpppapahphkkhkjkhzllklkkkkkkkkkkkhspiur0pkkdkzczzzzzzzzzczzczczzzzccccvvvvvvvccklhhpyiiiiipiyryiyypipshpppdkhiyiyipippiiiiiirrrrruutyytrrrywwywwwewq9696qeq666322223<111292222921112dkzcccccvvckkyyippphavvvvvvvvvvccvvvvvvvvvvvvvvvvvvvvvvvvvvvvcvcvcvccvvcvvvvvvvvvvvvvvczkcccvzhjkhw760iipiippddkzvvvxvvvvvvvvvccjpiuipkklvvvvvvvccvvczccccccvcdphkpw6w22222286uwwyypkzdpipkhpyrsuu0w5900wuuurtrruikkkkkklkcczcfzkfkpakpcidkzzckkzkzzcckkkhsu0ur0rsdpussuyuusiiittrw09966qwwwiqwiippiiuriiiiphkkkkkhhhdsiwiiuruurrruuuurrrrywwwyr0yw0ywrrrwwwwwwwqwwwwwwrirwwuirwwtsu6uqwuiw962wiiuwwwwwq0690rrw095925666669760000q009555900w0r000ruuiidkzvcczzzcccvcczzzzcvvvvccckhapiipisiiisiisipppppsppipptiiuuuuuuwuuwwwwqwqwi",
"vvvvvvvvcccvxvxvcvcvvvcvccvcvvcckkhjkkkkhkhhhhhdhhdaddddhdddddhhpdpppddpdpdsdhdddpuuwwuurwrwuuutiiyyiiiirirriiriwwuuuurrrrrurrrruwwuuwuwwyuuuwuuwwww0urrr00099599366939666666q76q3636696600wwwwuwqwisiyyiipiiiyuuurrrrwuwrrrryuidkdiuidsdapddppddddddhhhhhhdddddkafzzfaapapppapdpppdddahdhhhhhhkjkkkhhhhhhhkkhhkhhhhkzkklkkkzzkkhdppphhhfhhhhhhhhkhhkhkhhkhjhkhhhhhkkhhkhddhkkkhhhhhhhhhhhddddddhpphdpiurirrrryww0wwuwyiiiiuuuutiiiiiiiyiipsdppppppppspppdddhhkjadphhhppiiddpiiyippddhdhappphpphkkhhkkkkkkzkkhkkkkkkkzfkhsiypy0adkkklczlzzzzxcccvcccczzccccvvvvvvvvvcckkfpppiiipiiiiipayyupuspdpppfpyyiiiippiiiituuurrryttrrrrrrrwwuuwyuww996666677q6333332211223212288122>hkkzzvcvccckdpiiiiiiiclclvccvvcccccvcvvvcvvvvvvvvvvvvvvvvvvvvcvcvvccvcvvcvccvccvvvvcvvccczkcccckzk7iwtuiiippppdkccvvcvcxcvvvvvxckpyuihkkkvvlvcvcccvvcccccccvcckahkiw9u66255,00utwuypzkkppakhpiyduywu0990rtuuriiuupkzkkkkcczzzkfkkhkpkkdcihkzzzkklzzzcczhkjduruuuiisssuuuuuuiituuuur0096797qwwwwtiipiiriiwiiiippphkhhhhdsiiiiyuuuuwruuuyuuywwywwyy00rrwrywywwwwqwwwwqwwwrrwrrwwsuwwuuru99qtw0766wuitrwww00990wtr09958536669q09965900965558900r0000ruiiipakzvczzzccvczzzkkzcccvvvcczkdpisisipiiissipsppipppippiiiiuiuutuywurwweeww7e",
"vvvvvvvvccxvvvvvvcvcvcvcvcvvvvcchkkkhkjhkkhkhhhdhhhdadhdhhddddahphpaddppdpsdhdhpastrruuiuuwtuttiiyiyiiiipurrrrrruuuuuruuuurrurryrurwiuwiwtuuuuuuuyy00rrur00099596699696666669666q696666660qqwytuiq0wtiiiipipiiiuruurrrywwruuuyiikdkku0gddddpdaddsppdddhhpdpppdadkhhkkkpaippppppppsddhhhfhhkjhhhkkkjkkhkhkdhhkhhjhjkkzzckkaahkkkahppppphhpppppdhdkhkhhhhhhhhhkhkhkhhhhhhhkhhhjhhhhhphhhhhhhhddadahspsdsirrrirwrwwt00tt0wiyiiiuuuuaiiiyiiipsippppapapipphppaahhhhhhhhhhppiiiddpiiipppddhdhpiiphpppkkhhkkzjkkkkkkfkkkkkkfzfduuipuydkkkkzczzzzzzcccvccvcczzccccvvvcvcvvxckkkhppppaiyrispphpiruussppppphpyypiyuyuyyyy0tuuurrrt0wrwwwwuwerwwwwee666q6623763222333<123351112221252dkckkvccvvcfppiiiippppppkzzcvvvcvccccvxlxvvvvvvvvvvvvvvvvvvvvvcvcvvvvccvcccvccvcccccccccczzccvcikc6dwppiyiphpyddcvvccvxxxvvvvvvvchiuikkkkcvvvvvvcvvccvvvccvvvzlkkdpuqywq609:r6w0wyypkphdpdhappidpdyjd590uuisiuiuuikkklklklzzzckckkzfzkdcijkczczzzlzzzckhkkdryudkhpipkuuuitrrwuuwruurw9966677wwwwwiiiutriwwyyyiyydzkhpdhsiuiiuuurruuuuuiuuutywywwwryy0wyrwrwyww9w0wq0wwrw70sr76wrw00rp0q90wit7y65wiiiir09900q0w09292883333690w96569009855559rw0rur0uusyyphzzcxzzccvcvzzzkzcvvcxvvvckdpssaaisisaisasspppppppppisiisituuuywwewq77q97w",
"vvvvvvvvcccvvcvvvvvvvvvvxvvxvvvckkkkkkkkhhhhhhhahdhdhhphphapipphppppdppssisiddhfjirwuutitrrrrruuisitittsittuuruwrrururuttiuuuuuwwrrrtyuywwyyiiwtyrqwyyrrwww7966666666666666366996666669639qwwwywurw090tiiiiipiyyururuuurrrrruruiddjddsiisdddddaaippppppppppphpaddhhhshdsiistissahsddsadahkkkjkkkkkfapppaphadkhdkkhhhhzzhkkkhhdapphhhpipiaiidddddhjjjkkhkhhkkjkkkhhhhhhkkdhhhfkhhhhhhhhkhhhddddpdpdddsiiiqsiwqur0qiwwiueiiiiiiiyyyyyiiiiiipppdpdisipippddppdhhhkhhkkkhpyyypppuppppppdahkhppapppadhhdpdzzkkkkkfkzflkkllkkkdiiipirpdkhkzzzkzzzzxzcccvccvccvvcvvvvvvvcccccxkhpddhsidssiihhhiuyrpdpspssiiruuitiuurrryuyuryrrrrrwyrwwwirwwurww9q7w99763225552432224225222322122322hjvkxcccvvdyyiiippiipiidzccvcvvccccvcvvccvcvccvvvvvvvvvvcvvvvvcvccvczfzcccccccvvvvccccvcczkkkdpkiwpaddisddiuaykacvvvvvccccvvvvlfppiyhhkkcvvcvcvvvcvcccccvccvkkkhjiiwiw7ww5<w9iiwwiakhhphhhhhhhhhdpdhyrpkzzzkkkhafkkkzzlzklzzzkklklkkklkhhkzzlzklzkzzzzhhhdiu0djdkkdrkuiprrrwrrrrryrr06667q97qqwwqwtuiuutuuuiiuuuphkkhdpiiyyiuuuuuwuuuuuuturur0r0rwwwwrrrryw7ww0qw0wrwwq096qwqwyw0600s0829rt090060pdir099999rr09582213536677wqq6555532835560qwww0wuiuiiiiakkcckkccccvlcccccccvcccvcjdiiiiidiipddiiiidipippppsiiaiiiuurrrew00w00000",
"vvvvvvvvccvccccvccvvvvvvxxvvvvvxkkkkkklkjhkhhkhhhhdhdhaphhppiappasppddppsssaddhhhirruruiurrryyuutuuuuuuiiiuuuuwurruuuuuruuuuwywwrrrruyitwwwttyyyyywwwryrwww969666666966666669996669366666q0qqwtyttw0976qiiipppyiursrsuurrruruupishjckhiuiisdddddddpppppppadphpppddhssddpwiuuudassssaasshhhjkkdhkkfapiupadkhdkkhkhhkhdhzjkhhhpdppppppaippppppdddddhhhhhhkkkjhhkkhhkhkkhhhdhhhhhkhhkhkkhhhddddpddppddpiutiuuiuwq00wrwewwwhiayiyyiiiiyiaiiiiiipppdiddidddddahhhhhkkhhhdhpii7pppppdddpdhhkkkpdppapphjdadkzzklllkzzzzkkhkkkkkhipipprhkkkkzzkfzzzzzxcccccvcvvccvvvvvvvvccvcczkjhidhspjhdsphhhyyyyppiipssiuruuiuuiuuurwytruryryrrywwwyriwwwrrywqwew93256655555222<4<255322332221262hkczcccvvvzdiiiipiippppkcvvxcccccvcccccccccccccvvvccvvcvccvvvvvcvccczkkcccccvcvvvcvvvvvvcckzkdpdiyiidsdidsiidikdcvvvvvvvccvvvclpppiyhhhzcvvvvvvvcvcvvcvccvccchkhkdpriwwwrw5rwii7iphhhhhphhhhhhhhhphkypddkkzzlkkkkkkllkkkzzzzzklkkkkkkkkhhlzzkzkzllzzcckkdiuyuiddkkkisduwdr9srrrwwryw07669776979qwwwwtuuuuiuuuuuipphhjhpsiyiytuuuwwuuuuuuuuutryrywwwwywrrrrwwqw0wwwqrqw0099qwqw0qq066rr098909q0006yddur00900rr09521,22235666996636553223666000wqwttiuyiuippdkkkkccccczzccccvcvccxvckkdsdippdiiipiddiipipiisppiiiiiuuurrtr000000090",
"vvvvvvvvcvcvcvcvvcvvvvvcxcvvvvvvkkkkkkkkjkkhhhhhdhhdhdhphhdiipppiaiiddspisspddddsurrruuuuuuwytyuuuuruuuitiuuuwwwrrurruuuuuuwuwwywtrrtyyyywuitiiwywwwwyrrwww9966666669663666660069966969969wwqutuwuww96669iipppuisrusrsuusrruipppkdzcckdiuiidddddpdaddppppapadpdppdppiiiiruuuuidissdsdpskhkhkddhhddayyiyaadppjhhkhhkkphlkkhaspppdpppppppaipipsdiiiiddhhhhkhkhhkkhhhhhhhhhphhhhhhhhhkhhkhhhpdppaapppdpuuuiiuuuw09wwwwwrwwiyiiiiiiyiiiiiiiaippiididsassassadadhhkkklhpppppiuusupddhdddhkhkhdhhdppphhdpdkzzzklzzzzzkkkkklkklhiiiiiypakkkzkzkkkxzcccccvxvvvvvcvvvcvvvvvvccczzckhhhhphhhddhhsryyrppsiiiituurutuituuurrtyurrrwrwwwywywyww77wrrwwwe932565632225542425633322322222<92uzklccccvvccpiipiyihhhkzcvcvvcvcvcvcvccvvcvccccccczzckcczzccvvcvvcvcxzkzcccvvccvcvcvcvcvcccckpikpipiddiisiiuaikpcvvvvvvvvvvccclpippidhkzcccvvvvcvvcvccccvcccchkhchsruwwure6rwiwwikhhhpphhfhhhdhhdpdkdddkkkkkzkkzlkzzkkkzlkzzzllkkllkkkkhhlzkkzkzkkzzkkkhiiyuuishkkdkdppptrrrryrwwwwww0769q9699999wqw0ruuuiuuuiiiyyiahhhppiiyuuyytruuuuutiuuurrrwwrwwwwywrwrwwwwwwwww009969qqww9qww069rt02299u0ww60udssr000wwr099211,<235366qq79665352226669900wwwutuuuiiipppkkkzcccclzkzccccccvvvvvcdddssiiidiiiiddiipiipsiiyiiiiuurrrr000ww90099",
"vvvvvvvvccvvcccvcvvvvvvvxvvvvvvvklklkkkkhkhhjhhhhhhahhpahhhpippaaiiaspsiusppddhasrruuuuuruuuuuuuuuuuuiiiuuuuuuurruururruuuuuuwwuwwetuwutyitywytiwywwwyrrwww9996666666666666qq9q66996666697wwwwyurwwq09795qwwpiuiuppuippussupuuppdkdkkzkksdiiddadddpdappppppppapppppiiiiitsiuuuuuiiidiiiahhkhdddhppiiyyaippuihhpjkhhhidhhhdpaippphhfpaiiipipiidiiiisdhhhhhkhkkhhkhhhhhhhhhhphhhhhhhhhhhhhphpddpdppppiutuisiuuw00w9wwwwwwiyiyiiyiiiiiaiiiipiipidddsssasahhdddhdhdhfaiippiipssppddpadhhjkkhphahiphkhdpdkzzzkkkkkkkklkkkllkkjapiiy7ikkfkzzkkzzzzcccccvcvvvvcvcvvvvvvvvccczzcckhhhppphjhdspuwppypppppstuurrututiuutrruuyrrrrrwwwwwwrrwwwwwryw9q9762695652<45362225655233228222<q2tcazxccvvvvvkpyiiyikkfzcczcvvcccvcccccccvcccccccccczczzzclccvccvccvcxkkkccccvvvcccvccccccczkkdykapapkdiipddidukavvcxvvvvvvvcccfpippihhkzzkcvvcvcvcvcvccvvvczckkhchdeiwrwr73wiirwijkhhdhhhkkkpdhhdpphhkkhkkkkkkzzkzkkzzlzkzzzzkklkkkkkkkkklzllzklzzzzkkkkapuyuidkkddkkudhurpwrrrrrwyy9069997999q70wwwrrruuiiuuiiiywiadhdaaiiiuwwyrruituuituuurrrrwyr0wwywwywywqwww0099996667quw7quw0620r09299w0wr99rusgsw00r0t05521:,,2365569q66666652222669960twwyiuuiiiiippjdkkkczckkzzcccvcvvcckccjddpdppiiiuidddipipippppiiiiuurrerr00r0w00900",
"vvvvvvvvcvcvcvcvcvcvvvvvccvvvvvvcklkkklkkhhhhkhhdhhhdhdhhfaiipppiiiiisiiussispdpuwrtuuuiuuwuruuuuuuuutituuuuurwrrwuuruuruuurwwywwwtwyuyutiiriuitywwwuwywwwq7976666366666666q0066693666669qwwwiywtr0999qw777qiiiipippppppuiuuyppddkdkjdcckdiiiidhaddpdppappppdpppppiuyyiissiiwuwwuuiiyyiphkhkaddahppiiiiaiiiypjpdkddhpphhapaadpppphahppiiiiiiiiiiiipdhhhhhkkhkhhjhhhkhhhddddhhhhhhhhhhhahppppppphpppiyuuutiuqwuwwwwqww7wiiyiiyiyyiiiiiiiapiiiisidasahshhhdddadhhhfppyipiisssuppdddhhhhkhhdhhhpphjjsdhkczzkklkfzzkkkzzzzlkjapipu0ikkkkzzzfzzccccvvvvvvvvvvvvcvvcvccccccccckkdkkpppkjkhhhpyppippippiiuuuuuuuuuutyyrtuyurrrwwwwwwwyywwwwywwrwq66666665224<5696522552223223326,920ckckccvvvcvvdyiipdckkkccccccvcccvccvvcccvcvcvcccccccccczzzzcvccccvcvzkkzzzcvvvcccvvvcccvcckkpyppifiddiiiddikikdcvvvvvvvvvvccczpippipkkckkcvccvvvvcvccccvcczckcdkdhidrrww93wriuwdkhdhhhhhhjkkhhkhhkkdhhkkkkkzzzkzkkzzlkzkzzzzkzlkklkklkkkklkkzkzkzzzccczkiy00gckddkkdkpyhiwurrurrrwr66669999970000qwrrruuyipuuiuuuypsspipiiytrrywrruuuutuuuuyuurrrrwwyyrrwwyqwqwq9670965699q096909692999999899q09wt9rsds00w0r0922::,;<<33666966666332223696650wwwuiiiiiissiiddhkkkcckkklzxccvvvckhhkdsididippiuiidiisipsiiaiiiiuurrrr0r0w000000q0",
"vvvvvvvvcccvcvvvvccvvvvcxvxvvvvvkckkkkkljkkhkkhhhdhahdadppappppiiiiiiiiirssiippsurwuutusuuuwruuuurruuruuuwrrruuurruuurruiuuruwwwwtwwwutuwrwiwiywywwwwrwywwq0966663667666666660q6666666966qwwqtywuw0979w9q966riidppppdpppsiupppdakkczzkkczzkiiishpdappppppapappppippiiiiyidiuuwwerruuyyyihhkhhdddhpppipiiipiidhphkddhpahpssdphdaphpppphppddppdpiipipdhhhhkhkjkhkhhhhhhhhhhdhahhhhhhkhhkhhhppapfphppppuuuuriiwquiqwqwwww7iiiiyiyyiiiiiiiiiiiiipiddassssasahddhkddkpapipapysrtdppddhhhkjkhhhahhddhzhddhkzzzlkklzzzzllzzzlkkpiiipiyakkfkkkkzzzccvcvcvvvvvvvvvvvccvcvccvccccckpkkzkkzkkkhhfhpppsiiiiistuyuuuuuuuuurrrtutyurrrywwywyrwyrywrrwweq656q6566542266324<5224222123322<328ccckcvvvvvcvjiipdkkczccvccvcccvcvcvcccvcvcccvcccczccccczzkkcccvvcccvzkkklzzvcvcvvvcvvcvvvcckayippkpksiiddiikizhcvcvvvvvvvvcvvcdpppihhkzkkcvcvcccvvcvvvccczzckckkhkjdurwww9rwiurihhihhhhkkkkkhkkhhhkddkjkzkkzzkzzzzzkzzkklzzzlzkklkklkkkklkkkzlzlzzzzzcckduy0szkddkdapupdpuuuyuuuryr6666699990669wwwurrruyiiuiiuiiiiuiiiiuyirrwwyryuuuiuuuuuuuuuurrrrrwwwywwwwwww76699666699999966605525805222969ut90sdsuwrrr0982:,,<<<226667666966622226695600wwuuuutissipiipidhkkkkklkzccxvvvchpahpppididiiiiiiddipppppsiiiiuurrrrrr0000w0000rw",
"vvvvvvvccvvcccvvccvcvvcvxxvvvvvvckkcklklkhjhhkhhhdhdddddahpipppiiiiiiiuywiiuuiiuuuruuuuiuurrututrrruuuwuuuuwrururruuuuuuiuuurwywwwttutyuuuywiwwiwwwwyrwwyww996666566666666666060666666996qwtwtwwrr009976ww77wethdddddddppupipphkhkkzzkkkkczkdissddpppappappppppiippiiiiisdiwwuururwiuyyiahhaddddappaapiuupiipppphpphppasiaddddapppppahppdipidppipiipdhhfhkhhhkhkhhkkkhhhpphhhhhhhkhkhkhhpppppapppddpiuuuuuurttwwqww7777iiyyiyiyyiyiiiiiiiiiipippsdsahhssdhhhhhhhapiiappiruspdspkhhkkkjhhdddpddhkhddkkzlkzkzzzzcczcxzklkdiuiipuwpkkkkkzzkzzcccccvvvvvvvvvvvcvvvccccvczkzkkaaklzzzkkjhkkkhhhsipiiiiirruuiutuuryuuuuuuurrryywwywwywwyrrywyww96566656622256322426624,22,,3322223,dcccccvvvcvvckpphkdckkcvvcvcvcvcccvcvcccccvcccccccccccczzkkccccvcvcczkkzkkzccccvvvvvvvvvvckkpiphpkpsiiisdiikizdvccvcvcvvvvvvczdpppihkkkkkcvcccvcvvcvccckzzcxkckckkkiriwrr9rwiridkduhhhhhkkhhhkhhdhkhhkjzklkczzzkzcckllkkzzzzzkzkkkkkllkkzzkkkkkzkzzkzzzkkdkssdkddddkrpkiihuuuuuurrw6677969969900wqwruiyuuuuuiruiuyiuuiyiiuuuywyrrrrrruuuurriuuuuuuurrryywwww97ww79q99336999979996795955599522569uuwwrusirruw0952::1,,,,26666666766382236996690qwuuyuuiiidiiiippphjkkkkzzzxcccxzhpppdsipidipiiiiiiiiipisisisiiiuwwwwte00www000000",
"vvvvvvvvcccvvccvccvvcvvcxvvxvvvvkzklkkkkkkkhkhkhdhdhhhddppaiiaaiiiiiiiurwuuuusiwtuuurrtiyrrrrruuuuuuuuuuwwrurruurrurruruuturrurwwiwuuiuuryytwwiwwwwwuwwwww77966666666666636666q6636669996qwwwyywrr00qwq7wewq76widdddddddpppppdkkkkkzzzzkkzcchiiipppppppppppappipisppiaiiassiuurwtruiiuipdhsdddpdpppipiiyupiipiiapidhaipasisppdddfhpppppisdsidddipiiiphhhhhhhhhhhhhhjkhkhphphhhhhhhhhhhhhppppppahppdpyutuurwuiuwwwwq9y7ypyiyyyiiiiiiiaiiiiiididpissasashaaddddhhdiippppppsspddiphhkkkkkhhdddpadkkjddhzkkzzlzkzzzczxzzllhapipippwikkfkfzfkzzccvvcvvvvvvvvvvvvccccvcvvczjjhkkkkzkkkhhkkhkkfhhpsippiituruutiuuurytiussiuuuyyyyywrwwrwrrrryww6665366q524226555226992::22,1232,338:wccccccccvvcczppkhpkjdccvcccccccvcccccvvcccvccccccccccczlzzcccccccvvzkzzkklzzcvcvvvvvcccvkkfhihkklpddidddsikizacvvcccccvvvvcczhpppphhkkkjzvccccccvvcvvzkkzcxfkhvkkditirrr6eriiihkpykkhhjkkhhhhkhhhkjjkkzzzcxlkkkzxxzzkzlzzzzkklklkkkklkkklkzlzzklzzzcczkdkczdikkdidhzdakpudururrrrw66969796900wqwwuruuyuyyuuuiuuuiiiiiiiuuiurwwrwyrrrruuuwuuuuuuuuuuurwww7wq99qwq7w09336999555999659989590091299quur0rsssuur0991,,2,>:,266353366666822256967000wuutsiiiiippiiiiipddkkkkkzkzkkckapipdipidisiipidiiiisppaiiiiiiuyww00r0r000w000000",
"vvvvvvvvvccvcccccccvvvcvvcvvvvvvckkkzzkkkzkkkhkhhkhhhhdhhppdpppiiititiuiwuuuiitruuuururuuuurrurutuururuuuruuurrrruuuruuruutuuuuturrrrruriwririrtwwwwwrry0wq07997669696666336q0667666999990wrrrrrrr00000ywwww9676spdddddppiiipdkjkkkzkzfkkczzcdrpppppppppppdiddidpippppiapppyyyyyuuuiiiiiadddisddppdiiiiuiiiiiiiappdsddsdiipppdpddsdipipippppapapipiiaaadhkkhhhhhhhhhhhhdahdpahkhhhhdhhhhppddpppddddiiuyiiwtiiuywwqww00yuiyiiiiiiyiyiiiiiiiiipipdapdpdpddddaddpppdiidiiidpssddhhhkkkjhhhhddipdhkkhhhkkhkkkkzzzxcccxkxczaupiipiyihkkhkkzzkzccvvvvvvvvvvvvvcccvvccccccvxzkcckhhkkkkpdahhhpppapiipaiptyrruuuuuusstuuusupuyyrrrwyyrrwrrrriwww7963<45662<<425563883<<2,<322222223:9>ivcccvvxvvvvvkkkhdkcccvvccvcccvcvcccccccvccvcccccvcccczzkzkcccccvvcckkkkkzkccvcvccccccczklkddhhfkkiduppkdikdkacvccvcvccvvvvvchadpphzkzzklzvcccvcccvcvzcdcvzkkkkkjhiiuyurruwiiipkhidkdkdkkkjhdjdkdkkjkjzzkzkckcckzkkzzlkzzzzzkkkllkkllklklkkkzkkzzzczzckpyizgsudkdiddhhjjduiiiurrww66399699600qrtuwrrruuuiiiyiyyiyiiiiiiyiiiyyryrrwuuuruiurrrwrrttiuuuiw06060wwwwweq6536996599900986589759u095500yrrrrrrisi00081>,1,,,,<25666663566233266969999wtuwyyiippiidiiiiipiphkkkkfkkkkdkpppdidisddipipipiiiiaiiaisiiiirw00w000r000009000",
"vvvvvvvcccvcvvcvcvvvvvvccvvvvvvvkkkzkzzkkkkkhkhhhhfhhhhhhpdaddpitiiituutrruruuuruiituutuurruuuurruurtrruurruruurrruuurruuuuuruuuiuuurriiwirririrywywyrwrwq00996666699q696666660666699q990wwwrrrwrr00y0wwwwwww999rrpdddppspipphkkkllzzzlzkxkkchuppppppppppppiiddsddppppippppiyyiiispiiippisidddiiiipiiiiiiiiiiiiappidpdddiipppspppddpdpsippppppppppiappapdhkhhkkhkhkkhhhhddhpdhhhhhhhhahpppppppdddddiyiyiiwwiiuww0wwww0wyiiiyiiiaiiiisaipyiiiiippddpdpdadhdhhdappiidiiuudppsdpdhhkkkkkkkhdsppakklhkkjkkkkkfkzzzccxzkzkdpupipipyupkkkkkzlzxccvvvvvcvvvvvvvvvccccvvccvvczkckkhkjhjkppphpppiiaiiyipasirryttuuuuiuuuuuuuttyrrrrwwrrywrwwwwwwe9973226725522266822<<338<2633332128,9:dvccccvxvxvvkkhdkdzzcccccvccvcccccccccvcvccvcvcvcvccccxzzzkccccccvcclkkkkzkkccvvccccvvcclkjpphhhkkidydiksdkpkhccvccvccvccvvvckkdhphzkczkzkcvvcvcvcvcvzckccckkjkkhhipururwuuipipfhikhkhkhjkkkkdddkjhhkkkzzkzklkkzkcklkzzkzzklkkkkzkkllkklkklzzllzkzzkzkkpiiujduidkdidhhhhhpppuuurrw666996699900wuuurrrruuyiyiyiiyiyiyiiiiiyiyyrrrrruuuuutuwtrwweruwr0re000w60wwwwww7656669695599999845896690995000wrur00wtiww9521,:,,,,,25566656566283556959669wtuupiiiiipididipipipphhhpkkpppppappsdidpdipppiiipipiiiisaaiuirr0w0w0000ere000900",
"vvvvvvvxcvccccccccvvvvcvcvcvvvvvzzkkklzkjkkhkhkhhhhhhhhdaddppppiiiitiuuuuurwruuruuuuuuuurrrrrrrruuuuuuuuuuuuuurrwuuuuuuuuuuuuuuuriuuiritririirrrywwwwwrww0000966696q696666676066696699090wwwyrryrrwwwwyweew999w7wrpdddpsdiisdhkzzkkzzkkzzzkkckipppppapppdpppididadddppiipipyyiiiiiiiiyyiuusdssuuyiippiipiiiiiiiiiiddididipppppipdddsspddipppppppppippappphhdhkfhhkkhkhhhhhpadkkhhhhhhhhpppddpapappiiiipiuwqiitwww00wwwuiiiiiiiiyiiiiiiipiiiiiisspddaddddkkddaisiiidiuwihppppddkkkkkkkhhddppphhklkkkkkjhhkkfzzzcczzzkaiipipppiyyykkkkkcczccvvvvvvvcvvvvvvccccccccccvvcckzhhhhkhkkppaipiappaayyppasuurutuituuyyyuusstyywqqyrwyryrwrw9wwwwq673<<5552266625562,<<332<222222<,26<6<pckkccvvvxvclddkkkkccccvvcvcccvvcccccvvccccccvccvccccczzzkkkzzcccccczkkflkckkccccvvvvccckkhidhhfkkidipijdhkpkhvccvvvcvcvvvvvczkkddfzkczklzvccccvccvzvzckcvkkdkkkkhssururriuipipkhikkkkhkkkkddkkkkkhhkjzklkkczkckckzzkkklzzzzklkkllkllkkklkkzzkkzlzzkkzhppp0sjdyidjidppdhhhdiiuiruu966993699990quuuurrruuyyiyiyyiyiiiiiiiiyiyyrr0yruuuuuuuwtr00wre0009q60qr9wwwwwwqq6636q669699899996469665095909990rr999wtrw9521,:,,,,<225666535663322266596660uuuypiiiiidiiiidiiiiippipfkpkppipphdididiiiiidpiipiiiiiiaspiiurwwww000r00r009990",
"vvvvvvvcccvvvcvccvvvvvvcccvvvvvvzlklzzzkkkkkhkhhhkhhhhhddpppaappsssiiuuuuuurutuuuuuuuuruurruurrrwuwuwruwrruurrrruwwurruruuruurtutrutririrririirwwrwywyyrw0007969666696696666966q967790070wwwwyrwwwwuuyyyrrwqw9qw0rpdhdppppsdphkkkkzkkzzzkkzkkhpipaapppppppppdsddhhddiaapdiipyiiiiiiuywwywiiisiuuyyipippiiiiiiiiiipiidipspppssspiddddppidpppppaapppppppppppddhhhhhhhhhhhdphppdkjhhhkhhkhippdapppppiiiyyiiuuwusit0w0qwwqwuiiiiiiiiyiiiiiiiiiaiispdppadddddhhddaaiiidiiiipdispdkkzjkjkjhhdpdhppakkkzzkzkkkkxzzzzxzxzzkdaippippapiiydjkkklcccccvxvvvcvvvvvczcccccvcvvvcvczkkhhkkhhhhdappppppdaapyyipityruiuuuuutytutsuuurrrrywwwrwrwrw99ewwq953<<254>256622522<<333,<222<222,12<2<hckkccxvvvvvlhdjkkcccvvvcvccvvcccvccccccvccvccvccccccxczkzckkzvcvccczzkkkzzkkcccvvccvxckkkkpdhkkkkikiddddhkicfcccvccccccvcvvcckkkkkckczkckvcvvcccvvzczvkcvckjkkkhhddiiiuupyppipkfpfkhfkkkzkkkdkddjhkkkzkkkckzzkzkckzzllzzzzzzklkkkkkkkkklkklzkkzkkkkkkkiyirwujdyyddpsikjkddppiisuu966696699990wtuu0rruuiiiyiyiyyiyiyyiyyiiiuiiry0rutuuwruwuw000rw9099990wr99wwerwwq96367q699599999082698669958989890w00000w0051,,,,,,,<<22366655352322269697090wuwuuiiidppiippppiiiiiiipkkkkkkapppdpipsddpppipdpipaiyiiiiiiiurww0rr000rt0000900",
"vvvvvvvvcccvvccccccvvvcvzccvcvvvzzkkllzkkkkhhkkhhhhhhhahpppppapissisuuruiiuwruiuruuuuuuuururuururrrrurrrwuuuuwwuuwuwrruuuruuuuuuruurrtuuruuurrrrwwwwwwrwqw00q996666699699699669696769999wqwwwryywwwwuutwrrrw00wwrsdhhddpphsshhkzkkkzzkzfkkzzddpspppahppddidisddshhhiipppppiiiippiiiuwwwwuiiiituuyyipppiipiiiiiiuiiiiippsspppisssspppspdshaddppppippapdpppipphpfhhhkhhhhhppaiphhhhhhhhhaiipaadpppdppiyiiyiwtisiuwwqww07yupiiiiipyiiiaiippiippppshdadddhhhhhapipppiiidddduuidhkckzkkkkkhpadhhhhkkkzzzzckkkzzzzcczzzkddppppppiiuiiikkkkkcccvcvvvvvvvvvvcckcccccvvccvvvvcckzkhhkhdhhhdpipppypahdyiiisiuuuutuuuuuuuuupiuuryyywwwwuwwyew9qwww6662<<222>4>62622<632<22,26632552222<<5kczzcvvvvcxvckhkkkcccvccvvccvccccvcccccccvvcccvcccccccxzzzzzkzcvvcvcckkkkkkkkkzzccccczzkkkkpphhkzkihpdpkikkpzhzzcvcvcvccvccclzcckkkczczklzvvcccccvccvzvzvckkhkkkjhddruiiyptdhphckpkkkkkkkkhjhhjkkkhjkkjkkkklkckcckklzkkzzzzzlkkllkkkkkkkkkzzklzzzzzzkzhiypi00jksuydppddddkddpppiiu9666969999990uurruuuyiiyyiyiiyyiiyyiiyiiuiiiy00rriurwuwwt000wrw00900q00099qwwrrww76699q99969999996669890995999999909900000051:,2,,<<<<2<55566625<22<5699q009000wrtussdiiiiipiiiiiiippphhhzkkkdpisdidppiippppiipiiiiiiiiiiyirrrw000000r000000q",
"vvvvvvvvvcvcvcvvvvvvvccczzcccvcvzzzzzczzjkkkkhhhhkhhhhddaappppppsititurutiuuuuiuittiuuuuuuuuuuuurrrrrrrruuwuuuuwrruurrrruutuutrrrrrurrururuurrwrywywwyrrwww00996666669999996666q966q7q9qwwwwwrwrywytwuywrrew09wwrphaddpdpsddhhhzzkzkzllkkzckpiddpappddpaididppddhadiypppiiiiiiipiiuwwwwwuuuitiuuyyipiipiippipiiipippdispdpssiiisspppdsidhhddppppppppppahpiippphhhhkhhkhkapiiphfhhhkhhadiiadpdapdddiyiyypiuwwisiywwwwwwwiiiiiipiiiiiiiiiiiiipisdhdddhhhhhhdppippadiidhdpwuudkkkjkkkkjkhhphhhhhhhkzzzzcczzzzzzcczzkapppiiiiiyyuipidkkzcccvcvvvvvvvvvvvccckccccvvvvvvvvvckkkhhkhphhkhdppdpppdhdppaipituuiuutuuiiuutsiuuyyrrrywywywwe799wew69952<22322>26662883,,<2<396656665222<7cxccvcvvvxvvckadkdccccvvvcvcccvvcccccvvccccccvccvccccczzzzzzkzcccvvcckkzkzzkkzlkcccczzkkkkjpphhklkidpkahihhikazzccccccvcccvczzckkkzczczkcccvcccvccvcczczcvzkkjkhkhsduupuipdjhdhkhikkklzzzzkkhkhhhkhhhkkkzkckklklklkzklzkzzzzzzlkklklkkkklkkkzzkzkzzkzkkiiyuywykkdyupkhdpdzddpppiiuq936666969990ruwruruiyiiiyiyyiiyiiiiyiyiiiiyirrr0rrrwwr0r000wrrwq00rw0906wwwetueeq766799q96399999965259099999990099590ww90051:12,,<<22242456566512<<5909900979770wtuipiiyyippiiptiiiipphpphkkkdppidispdiiiiipiiiiiyiyiiiuiyyuurru000000rw000q",
"vvvvvvvvvcccccccccvvcvcckccccvvczzzkzczzkkkjjhhhhhkhhhddpppppdapsiiuuurwuiuruisuitiiuutuuururuuurrrrwurruwuwwuuwrrwuwurruuuuuuuurruurirruirrwrrrywywrywrwww0q7966666699q9q0666666976q799wwwwwyrrywwyywywrerw000wetppppddshhphhhjkkxzzzkkxkzkupddpphpdpppisdidsddpaayyaaipiuiipiituw0w000uuuuuuuwyiiiiiiiiipippisipippspppppippsspdhssdddhhddpppappdhadahpppapppdhhhkkhkfipiiphhkhkhhhhapiipdpppaddiyyppiiiwwisiwwwwtwwuppiiipiiiyyiiyyiiiiiipphhdhhdhhhhkdpiaippiisidhdrisdhhkkkkkkkkhhhhhjjhhkkzzzccczzzzzccvzfppddpiyiiiuyuppijkcccccvccvvvvvvvvcccccccvvcvvvvvvcvvcckkhhhhhhhkhddadappddpiappstuutiuuuiutuuittuutuyyrwwwwwywwww9wwww76963<42522666662363,,2326665355665565ivzvcvvcvvvvvvzkkkjccccccccccvcccccccccvcvccvvcvccccccxzzkzkkzkzccvcclkkkzzzkkkkckkkzzkkzkkkipfpkzkkkiddkphkpzdzzccccvcvvvccccckdhczczcccvvvcvcvcvcvzczvcvvckjhkkhhpppipiuddkhpakhikkkzkzzzkhkhhkkkhhhkjzkkkckckcckzzkzzkzzzzkllllkklkkkkkkzllzzzzkzkzzkpyi0wtidckpyidhdidkhappppiiq626699699960ww0u0yuyiuuyiyiiyiyiyyyiyiyiuriirrr0ryrr0w0w000www0w0wrwq009wrrwrrreq669qq9999990995985569907999999909280ww9995>::1:,<,<<2<<2266652221229q0000q90709000uyipippiiiipiiuiipppppphkkhpsdidpppipiipipiiiiiiiiyyiiyiuuuwt00000t0w00ww",
"vvvvvvvvccvvvcvccccvvvcjzzcccccczzkzzczzkkjkhkkhkhhhhhhadappppdpitiuuurritiuussisiituuurrrrrrrrrrrtyuyyruwuuuwwwwruwuwrrtuuuuuruuuuuriiriruuwrrrwwwwwrrrwwwq7999666666999906636q99699wq9wwwwywwruywwuytyrrrww90w9ryyruphhshhhkkzkkzzkzkkzakpyahppphppdppipiisdddpapyypppiiiiipiitw00www0rutttuwwyyiiiiipuiippppppispipppppppipsphpshdhddhkapadpdddhhdpppfppppipdhhhhhhhfpppiphkhhkhhhhaiippdhddpdiiyyyiiiuw0tsiwwqwwwtidiiiiippiiiaiiiiaiiiapphhhhhhhaddkdapuippsdhddhdshhhkkkkcjkkjhhpphhhhkakkkzzxcxcczzzccckapphdiyyiippyuppukkccvccvcvvvvvvvvcckccvvcccvvvvvvvcvvckckhphhhhhkddaddpphapiiipiiuutiiiuuuuyutuuuyuuttrrywwwwrywrwwwwwww69q34224>26662<2<22,288,6675556665506pvkvvcccvvvvvvzadkzzcccvvccvcccvcvcccccccvccvccvccccccczzzzkkzzkzcvclzzklzxkzzxklkkzkzkkzcckdpkkkzkzzikdkihhpcdzzlxccccccccccvcdipczvcvvcvvcvccvcccccvcvcvccjjkjkkhdapppppdddkpdkhifklkzlzzkkhkkhjkhhgkklzzckckckkckzzkllzzkllkllklhklkkkkhzkkzkzzkzkkzkpppwyidddpkiyupkhdpfhhpppiyq9566966966690w0000uuuyuiyiyyiyuiyiyyiyiiyruirrr9yyrryr00e0w0e000000ww0w9wrrwrerwe9969q9938990q989955999000909009909590w99911:::,:,><<24<<2266662222690060qwqrwy8990wyydyiyiiiipiiiipphhpppdkkhppidippppiiiiiiiiiiyyiiyyiiyyuiuru000tu0tw0wqt",
"vvvvvvvvvvvcvccvccvcvczzkkkczccxccckccclkjkkkjkhhhhkhhddidpppppiuuuurruuussuuasiiiuiuttiruytyyyryrrrryrwryryrryyyrrrrrrruuruuurrirruruurrrrrrrrwwwrywywrqwwqq7669696q999699q99679909000qwwwwyrrrwywyywywtww0909qt00uidddddkhkkkzkkzlckkkkcfipfphhpipppiipiippddiiaiiiipiiiiiyippw900wuuuptrwwwrrwyidiiyppypippiiipppppiiapppppdpspppppppppddddddhhpdpphsddsdddddddhjhhsspiippdhhhhdhhhddipippppaiiippippuurruds0wwewwutpipippiiiiyyiiiiiipipphhkfhkhkkdkjdppiiiphhdphhhdklkkckkkhhkkkhhhddddhhkckzzlcccccxzcckhipddsiyuiyryiiddidcvvcccccvcvvvvcccccccxcvvvvvvvvvvvvvczzkkhddhkhddspdsirpiyyippputuiiuiuuiiisiititruuurrrw7rwuuw0rq00r0996655555236332886<<<42256625576566992pkvvvvxvvvvvvvvcczzccccvvcccvvccccvvcccvcvccccvccczzccvvvcczkzkklzlczkkzkjhkkkhhkhhkkkkzkzkkdpklkhkxlkjhhahhpkdzkklccvccvcvcvvkjdipccvvvvvvvvvvccvvvccccvcvckhkjkkkhhdspiihpphdhhhpkkkkkklkjkkjkdkkdkkkkklkzkzkklzkzzkzkkzzlkkzzzlkkkkklkkkhhkkkkkkkkkhhhiyrrrijddkkdyihkpiihlkhiipw6666766799995995yurwuu0uruururuyiyyuuiuuuruiuuu0w0ww00000000w0009000rw00w0rwtywww790000679900009955599009999090999669997w9,:,,:,,:,1121112266222222369999wqywww09999wrtusiuutuudssiiipidsidddkkddppspppiyiayyiyiyiiyiyiuurwuurwuuuuu00u00000",
"vvvvvvvvvccvcvccccvvvccchkkcxzzxcckzzckkkkhkkhhkhhhhhhhappddpppiuuiuruuuispiipsuiutuuiyurruytturyrrrrrrw0yrrrrr0wryrryryyrruutuuurrruuurrrrrurrrwywrwwywq070q9669669999999979999996900wwwwwywrrytwywwwwuwwwww00wr0wrsdddjddkjkkkkkzkkckchcfipppfkpppdpppiiiidddiiiiuiipiipiiipppw090wrwwuuwwrrrryiisppppippppipiipippspippppppspppppppphpsdsdsdppsppppppdiiiisiiisdhhhiiiiippdhhhhhdddpipiiippppduiipiipuuur0dduwrrwwrrdiipiiiiiiiiiyipiyyipphhhhkhkdjkdkkkdpkdahhhdhhhhkkkcklkkkkjhhhhhddkkkjkklzzzcccczzckkkhiisdiuyyiiiiidhdiihkzcvvcccvvvvvvzzccccccvvvvvvvvvvcvcxzzkkhddhkhppdddddupiiyippiiiutuuuttutiitiuuuuuiurrrwwwyyww0r000rw9555<355<4<3<<238224225664522366<22332pklvvvvxvvvvvvvvczcccccccccccccvcccccvcccccccccccczccvvccczzzkzzzzlkkkkjkkkkkhkkhkklklkkkkkkdpklhhkkllkhhkhhpkazzzzccvcvcvczvchhpipkcvvvvvvvvvvcvcvvvccccvvkkkkkkkkhkpipiihhhhhhhhplkkklkklhkkhhkhkdklkkklklzzkzzkllkkllzzzzzlzzzzklkklkkklhkhhkkkkhhkjkhhpr09ijdiikjiyikkipphhhppiu60960669999995990ywwyurrrruururiyiuuutiuurruuuu000wwwr00000w0e090900ww00wqwyuutwe9w0006996600099559999900990000qq969wq69tq2,,:,1,:,,11212123352222226999wqwwwwwtrw09990rtutwwrutuuisdidddddddhkddpiiiisyyiyiiyyiiyiiyyyuuuwuuuruuuuu0u000000",
"vvvvvvvvcvcvvcvccvvccczkkhkzzzzzcclkzcckkkhjhhkhhkkhddahipdpippiuuyrrrwuipiiuiiyityryiyurrtyyyryyyrrrwywrrrrrurrwrrrryrrrrruusuuirrruurrrurtruurwwyywwwrw00ww76666690999997q966799660000rwrryyrrywuwtyywiwwww0qwrrqridkkhhkkkkkkklzzzkkkkkfippppppippiipyiipidiiiiiiipppiiiipppy0090urwwuruiiuurrriipppiyypipiiipippppiippsssppspppappppddsddpppdsssspssidiiddiiiiddppsiipiiiddhjhhhappiiiiiipaadiuiiiii0uuryiduweewwruipiiipiippppipiiiiiiipphhkhkkkkdkdkhdhkzkkhhhhkhhkzccckckkkjkkhhhdkdkjdhkzzzzcccczzzzkhsisddpiiiiiiiidhhdyihzcvvccvvvvvcczzccxvvvvvvvvvvvvvvclkkzkkhddhkdppppddpupiiyipiiiiiiutuuuuuiiituituuutrrwyrrwwwuwq00qrr9343<<555<<<<<33362223666<422255232363hccxvxvvvvvvcvvvvvvcccccvcvvvcvccvcvcccvvccccccccccvcvvvvczzzcczzzkkkhkkkkkkkhkhkkkzkkkklkzhhahkkkllkkkkfaahpzdczzzvccccvvccvjdppidkccvcvvvcvvccccvvvcccvccckjhkkkkhhppppphhhhdphhhkklklklkkkkkhjhkhlzkklklkzzlkzkzkzzklkzzzzzzklkkkkklkkkkkhhhhkkkkkkkkkkhsr9ukjsipkkyyyazhpphhpppt60650999999999970yyruuwrrururuuurrutuutrtrruuww0099wr0000000e000900r0w000wyuuuuwwwq0006996900079998999900970000qq979q969q932::,<1,,,,<2111123522222569w90wwywwwwr000099wwtrwwwrwrtusddissisppdhhdiiuiuiyiiiyyiyiiyiiyiyuuuuuuuu0rtu0r0yu0000",
"vvvvvvvvcccvcvccccvvcczfhkkkzzzzclckckklkhkkhkhhhhhhdpapidiiipiiuyrrrwuuuusyuuuryrrwrtrryruyytrrwrryyrrwrryrrr0yrrryrrrruruuusuurrruruuruuuuuuuuwwwryywww000w9676668999979q769966697000wyrrrrrrruytuuwuytwtw0wwwrrwrupdkkkhkjkkjkzkzkcklkkpipppaiyuyyuyyiypidiiiyiyyyipiiiiippiy000wuuuututuiiu0urryyipipiiiiippiiippisiiispsdpdppppppapidpdspsiphspppppdpppdiipidiiipiipippdddhjhhdppppiuiiipppdpyiipipuuuu0uiuwwreryupipiiiiiipiiippsiipppphhhhhkhdkkdjhkkkkhkkhkkkkkhkzklcckckkkhkkkhdkjkkkkkxxzzcccvzzzzkdpsdddpdiiiuuisdhddphkcvvcxvvvvvvccczccvvvvvvvvvvvvvvvvzkkzkkhdpdddisppddpipypiiyyitutuuuuuuuuitiuuuuuuuirrrrrrwwww0w00r00936555655<,13368333222<<<<222663<22396ccvvxvxvvvvvvvvvvvvcccccvvcccccvcvcccvvcccvccckccvvvvvvvcczzzcczkkkjhkhjkkjjjhhjkkjkkzkzkkkhddklkkzkllklkkhkpkdcczzcccvcvcvvvjiddppkcvvvvvvvvvvcvcvvccccvvcckkkkclkhkhdhhdkhfhhpdapklkkklkkkhjkhkkkklklkkklzkkzklzzzklzklzzzzzzzklklkkklkhkkkhhhkjkkkkjhkkhki9ydjddypdca7ykhapppppfy660697999997599yyywruirrruururuurriuuuuuurruuww09990w000000000090000rw000qquiuuwew700000909909995999999095900r0w0990w9623363,:22122<<<1111122252222669q70wwwwyw00ww0r0000www00r0wrruuiiuiiiippdsdsiiuuuiyyyyiiiyyiyyiyiuuturwwuruu0yu0000000",
"vvvvvvvvcccccvccvcvvzzkkdkkkzzzzkckccckkkjkkkhhhhhhppppaiiiiiiiiwurrrwrruiuurrr0trr0trrtrrryurrrywrwrwwyru0yr0uywryrryrruuuuuuuuurrruturuuuuuuruwwrwwywuw00wq066666669000q96996999990wqwyrryruruwuwuuwutrruwwwwwwwwyyippkjkkhkkkkzlzclkkkjiupppppiyiiiyyyipiiiiyyiyiiippaiiippyy090riiuuiiiuiirrirriidhppupuiipipuppppiisisspppdpappppahsdsiidpippppppppdiisppppippiiipiiipiippphaapahpiiiuiiiiidiiipiipuuu00ipuwwrwrrrppiiiiiiiipipppipppdddhhhhkkhkhhjhhhkhhhhkhkkhkhhkllkccckzjkhkkkkkkjjhkkkcccccccvzckkddiippppiiiiiippaddapjcvvccccvvvvcccccvvvvvvvvvvvvvvvvvvzkkzkkhhppppupppippuypiiiyiyuuuuuutuuutuuuturruurrururwwyww7r0qwq779666355621<<3883<222<<<,,<555566222266kvcvvvxvvvvvcvvvvvvcczzccvccvvccccvccvcvccvccccccvvvvvvvvcclccxckkkjhhkkkhhkkkkkkkkkkfzklkzhhhkkklzzzkkkkklkizhccxlcvvccvcvvvkphhipcvccvvvvvvvvvcvvvccvvvvvvcckkckkkkhhhdhkhhhdpappllklzkkkkhkjkkkkllkllkkklkzlzzlzzlzzkzzzzzzzkkkklkkllkkhkhkkkjkdkjkdhhhhkd09ihdkfyyhchyyapahpipku5995099899599000ywrruurruurruuuruuuuuuuuyrrwwwww0990000000000000900wwww090wyyuuiww00000909900999999000900990000ww9wq962122881,3223322<<,11112222213369w990wwyywwurrr000000ww0e0w0wwruuuiitiyippiiiiiiyyiyyyyiyiiyyiiyiyuiiiry0y0urr0yy0rr000",
"vvvvvvvvcccvcccccccczzfhdhhzzzczckkkkckkhhkhhhhkhhhpiiiasiiuyyiiyrrrwrwwuuurrwww0w0r0r0rrrrryrrrryryywwr00urryr0rrrrrrryuuuusuyruuyrriurruuuuuuuwwrrwwwww00ww76663969009799979969960wwwwryrwwwuwytuutuwitrrqqw0wwuippiaakhjkhkkkkkkzkckkchiippippiippiiiiiipiyyiyyiiispipiiiiiyyw00rtsitirruyiuirrriidphppipipipiipiiipippppppspppppppppdsdddpppspspppshididippppspipiippiipipppdppappppiuiuuuiudiiidiiiu00yuiiywrwwwruidpiiiiipyiiiippppdddhkhhkhhkkkkhhhkhkhhhhkhjjkkhkkkllkklzjhhjkkjckkddhkzccccccccckkhdipiddapapppiipphhkfphzvvcvvvvvvcccccvvvvvvvvvvvvvvvvvvvczkkkkhkppippdpiiiiipyiiiiyyuyurutiuuuuuuuiuiuuuusrruywwrrw7r0w0qq99665<222<,,1333<,,,,,,,,<<555696522366zvcxxxvvvvvvvvvvvvvvczccccccccccvccvcccccvczcccccvvvvvvvccckkkkkkkkjkkhhkkkkkkhkjkjzzlkkkkkhhkkklkzzzlkkkklkdkdccccccccvcvccvkpppphvvvvvvvcvvvvvvcvvvcvvvvvvvcczkkkhkfhfhpfphhdpppphlkkllklkkkhkkkkkkklkkkkkzzkkkkkkkkkklzzzzzzzllkkkklkkkkhhdkhdhpkkkkkkkjgdiupddkfpiihzkyipphpiifi909606999999000yrwyrryrrrruuuruuuuuuruuuyrruur0w0990000w000090090900w009090wwwwwtwq9wqq099900000999000009990000w7099621,21396296655622<,,11,1222222570w690qwwwtuwuutrww00000090wwwe0ruuuuuuiiiiyiippiiyiyiyyyiiiiiyyiyiutturrry0rru0000r0r00",
"vvvvvvvvcccccccccvcczkfhhhkkzzcckllklkkkkhhkkhfhdhhdpaipiiiwrryiwr0ywrrwurwrwwwwwt00rr0rrryrrrywywwwwywruyurrry0rwyrryrruyrrtuuruuuruurruuuuuuruwyyrwwrywwwqq76669399760999969997999wwrwwwwyyruuwwywwywwrrww0wwquuddkahkhhkhkkjkkkzkckkllhyyapiipyiiyiyyyppiyyyiyiiiiapipiiiiiyyr00riiiiyiyiiiiirriiippppupyypiiiiiiiipippppspppppppppphshdddsppppppppppiiiippppppspippiipippiipppappppprtriuiuidiypiiuur00uyiiywwwwrrupiiiiiiiiiiippipipsdhhjhkhkhkkjhkkhkhhhhhhhhkjkkhkkkkkckkzkhhhkkkkkkkhkkkcccccvccckhdappihhaaapppdphhdhhdphhcvcvvvvcccvvvvvvvvvvvvvvvvvvvvvvvczkkhhhhapphpdpiuiiiipiiyiiirruuuuutuuuuuiuiurrrsrurrrwwyywwrwwrq7976663255<,<<2<<1,,,,2,,,<2555266628863zvvvxxvvvvvvvvvvvvvvvccccccvcvccccvvcvccvvczcccvvvvvvcvvvcckkkkkkkkkhkkkkkkkkkkkkkkkkkkzzkkhkkklklzzzllklllkdhaccccvcvvccvvcvkpidhzvvvvvvvcvvvvcvvvcccvvvvvvcckcckkkkkfkhakphhapppphhkkkzkkkkjkkzjkkkklkkkkzkkzzllzzkklzzzzzzlkzkkkkkkllkkkkhhhkkhhhkkkccckdkdphhahpkkpyphpiiphayyps0005969899900tui0rwryrrururruuurrruuruuuuytuyrww0968900000990990900www00999700wwwwwqqw999900w00009000w000090000090w91::,1,1899962255662=1,1,,112222699qqwwwwwur0ywuuuuu000000000e0wwwrrrriyiiiiiiiipiiiiyiyiyyiiiiiyaiiiuutuuyruryuu0yu0r000",
"vvvvvvvvccccccccvcczzkhahkkkzzcccckkklkjhkhhhhhhdhhdppiiuuywwrrry0y0rwwwrwrwww0w000000r0rrrrryrrrrrwwwwyr00yru0rrrrrrrrrtrruuuuturrrruurrrurtuurwwwryrwwq00ww766669960699966999996690qwwwwwwwrwuwywuywywrrrww0wwwudkkkkzhhhkhkkhkkzzkckkkfyyppiiiiyiiyyiyiipyuuyyipispiiiipiyiiir00ruiuuiiiiisiuuissdipdppipuiuuipipiiiippppppppppppapppdddddppppppdddhgdidpddpppspppipipipiippippiiippyirrrriuiiiiiiiuyr00yyyiywwwwrriidiiiiiipppiiiiiisshhhhkhkhjkjkkhhhhhkkjkhhkkkkhhhkkkkkkczkhdjjzkkkkkkkkzcccvccccckapppiihdppppppipphadaphphkvvvvvcccccvvvvvvvvvvvvvvvvvvvvvvvlkahphhappfddpiyuiuiiiiiyiiuuuruuuriutuuutiurrrsuirrrrywwwww0qrr7qw99656665<3<2<<<,,1<,,,,,<22226661333<kccxxxvvvvvvvvvvvvvvvccccccccccvvcccccvcccczccvvvvvccvvvcvckkkkfkkkkhdkkjjkjjkkhkkkkkkzkfzljkkkkzzzklzzzllkzdkacccccccccvvcvvkdihzvvvcvvvcxvvvvvcvvccvcvvvvvczzlclkkckkchhkhhhaiphhahhkzkkkkkkjkkkjkkkklhklzklzzkkkzlzzkzzzklzzzzlzkkkllkkkkhdkhkkkhkjjccckkzhphhhhppfppiphpiifkpiijru099768990000uirw0rrrrrrruuruurryuruuruuuwuyrw00096690w000990090900r0w00957000ewwwyww7999000000090000wy009900077096:=::,>,899992<<5666=1,,::::222266wwwwwwyrwywrruwuwutee00e0000wwwrwwuuuiyuuiiipiiiiiiyiiyiyiiiiiiyiiuuiispiyur000y0ut000r",
"vvvvvvvcvcvcccccccvvzkkdhhkkcccxkkkkzkkkhkhkhhphdhhhapppsiyrwrrrrrr0rr0www0009000r00w0ww0rurr0tw0rterr0r0u0uuu0uwywrrruuwrwruuurruururirsrrrruuryrwywywrw00qq96666667090990699969999wwqwwwwyuwwwwuuwu0u0rrr0000eywwpjkkgtwwipkzkkkjzcczkkki0piwpissuuuuuipyyiuiriiiapppsiiuiisyrwruuuiiisiipadhpuuussdsippiiyiiiiippidpidpdsdddippphddsppphpppppppppppappipapapiipisipppipipipipppiuiiipipyyyiyiuuuuuuuu0rruipiuwwrw7yyiippipiiiyiipppiifhhhfkhkkhkjkkkkkkkhkkhhhhkhjjjkkkkkkkkkzhddhkjkkhkkkkkkccccccccchpddiuippdipddippdhddhkpppkvvvvvcxxvvvvvvvvvvvvvvvvvvvvvvvvvchkkkpipphpkkhpiiyiuiiyyiiutyuuuiyyuuyiiiiiiirrrruuurrrrrrrurwwqrw99666632<221,22,<,2<,,2,,,12228522:222dvccxccvvvvvvvvvvvvvvvvccccvcccvcvcccccccccxcvvvvvvvvxvvxvvzjdkkkkhkkkkkjkhjkhhhhjjkkfkkhkkllkkkzzkkkzzcvczzkffzzzzcccccvcvvvccvcvcxvvvxvvxxvvvvvvvvvjccvvvvccccczzxkkkkkkkplhhpidppddkkzkllkkkkklkhhzllzdxlkzzzzzzklkkkkzzzzkkzkkzzlkklkhlkkkkkkkkzkdhkcvxkkhfhfhahhadhsiiiipyhihwir00r009990000ut0rrrruuurrurru00ytrrryuuutwyuuurt00000909900009800000000q0000009eqwqqwqw0090000000000w00ww06900097693<,<::<<5592282122888==128=1>,26999qtiiwwwwirwuuuuuuyur000900090rr00rrr0uuyiiiiiiiiayyiyyiyyyiayiiiyiiyiayiauu0y00yyr00t0",
"vvvvvvvvccccvcccccvvkkkakhhkccvcccckkkkfhhhhhdhhddhdppppuiirrryrew99we0www00900900000tw00rtttr0r00r00rrry0uu0uu0wyrrrryyuururrurrrrurrrrrrrrururwyryrrwww0wqq666366660009006699799797wqwwwwwywuuuwwy0uwuwwr00000wwwyisuywywudkkkkkkkkkkzkkiwuutisiuusuuryyuuuitriiiispppitutiurrwwuuiiaippipdpiiuuusisuspuupiipppiipiiipisidddiipppppdsihpapaphpdppppppppppppppppppippiipisipipiiiiiiiiyiyiiiypyuuutuuuu0ruiidiuwwwwwiippipppipupiiisppippphhhkhhkhkkjkkkjjhhhhkkhhkkkkkhkkklklkjdddahhhkkhkkzzzcccccccczdiddspppppiidpipphhhhhfpppzvvvvvccvvvvvvvvvvvvvvvvvvvvvvvvvvkhkkhpphhhphhdiiuiiyiipiiyyuwryiiiipuuyyiiiriitriruryryrruuwqwwwrr099966662232288,222,,<2<,,12222652162<ivvccvvvcvvvvvvvvvvvvvvvvccvcvcccvccccccccccvvvvvvvcvxvvxvxzkkdhkhkhjkjkkhkkkhkkhkkkkfklhhkkkkkkllkzlzzccczzfhkzzzxvvcvccvvvcvvcvvvvcxvxvvxvvvvvvvvvczcvvvvvvcccczzckkklfhkdkhdppapddkkzklkklkkkkkkklzkkzdzzklkzzzkzzklkklkzklzzllkkkkkkkkkkzkkkkkljkhhkzcckkkhakkhhhddhhiiiipipistt00ri0089000t00urr0yruruuuurrruuyuyrrtuuuutuuuuwrw0000009900000099000r0090000009w67qw9ww9999eqe000000rww0w009www966762,,1,<2522228822222821==211,126990wqwewuuwwwrrruuuyyurrw00900990r000r0ryuiiyiiyyiayyiiiiyyiyyiiiiyiyiiyyiiiiiiuuyyyuurtu",
"vvvvvvvxvvccccccvccckkzkdkkkccxxclkkzkkkhhdahhphaddaadppyyirruir0r99000000000900000t0w000rrrrr0tr00r0er00u000uu0wwrrrwryuwwrurrrrruuiririrruriurrrrrwywyq0w009693669609900066999w9wqwwww7wwwwurrwywwu0u0rr00000rw00wqw07wtyupkkjkkjkkhkzdzdy0yuwtuituurruuuwrturiiisiipiituuuurrwwtuiaiappispsiuutyytutuyuiyyyipiipipspidddddsdipippdspipppdhphhppppphhdpppppppppppipuipippupippiiiiiipyyiyyyiyiitiiuuu0rruuiiiuwwwwwiipiipppiupppippppippphhhkkkhkkkkkkhkhkkhkhhhkhkkkkkhkkzkclkdddddhkkkfkzcczcccccczzkdphapppipiiiipipahhhhhdhphkvvvcvvvvvvvvvvvvvvvvvvvvvvvvvvvvvzpkhhhhhkkphapiyyuiruppipurrwytippduuyyyiiiuisritrrurrrryruq00w0rrw969q9663182262<,221<,22,122282922262<ivvcvvvvvvvvvvvvvvvvvvvvvccccccvcccczccccvvvvvvvvvvvxvvvvvvkkkjkkkjkkkkkkkkkkkhhkkkkkkkkkkkkllkzzklzzzzcczzzkkkzxccccccvccvvvvccvcvxvvvvvvvvxvvvvvvvcccvvvvvccccczzckkkkhfkdkdkadhphkkklklklkkkkkkklklkzlaxzzzzzzlklkzklkkzlkzkkkkklkkllkkkkzkzlkkfkhkkkzclckkfkhkhhapdhhppiipiiwipi090st09t00rrru00yrr0uurrurrurrutyyrrytuutyyuuuwt0000000889900099999000r000qww0076699qwq0000wqqq000000w0w0069www65662<<,12662<<12882222218=1=11221239qqqw0wtuwywrwwuuuyirrrtr0000999r0r00rr0ruuiyiyiiiupiiiyyiiyyiyiiiiiiyyyyiiiiiuuuuyw00rrr",
"vvvvvvvxcccvccccccvzakckkdkzccclckkkkzfkhhhhdhhpddddapppiiyrrurw0r9909990w0909990000r000000twwr0r0r0rr0ry0uuuu0uwyrryyrruurruuuurrurrrrururrrirrwwrrrywwq00wq9666696000660067996999wwewwyw7wwwruuwyu0u0rrww00000wwywwq0ywwwwijkkhiijcckdjkkpywuysuuuuuuryiuyriuriiippppiiiiuuwrrwrrtiiiipiipsppiurwtwuuuuppuyyipipiipiippsisddiipppipppsppdppphfppppphhppppapappppsppiiiupupiiiippipppiiiiyiiypiuuuuuru0ruiiidurwwrwwypiuiupipsppipisppippphhhkhkkjjkzkjkhkhhkkhhkhhkhhkkkkkczklhhhhahhhhhkkkccccccccczzjhhhhpiiiiiiiiiihphkhhdphhfkcvvvvvvvvvvvvvvvvvvvvvvvvvvvvvxvvlakkkhhhkhpppiywriiuyppppiwrruuuuupuiyiypyyirrsirrryrrrrruyrwwq0wq96698962<,22<82,<221,222<2222298266557kvxcvvvvvvvvvvvvvvvvvvvvvvvcvcvcccvxccvvvvvvvvvvvvvxvvxxvxxkkkhjkkkkjhkkjhhkjhkhkkjklllklkkkkkkkklkzzzzccxzxzzkxcccccccccvcvccccvcvvvxxvxxvxvvvvvvvvvvvvvvvvccczczzckklkkfkhkdhhphihjkzzlklkllkkkkflkzkkzhzzzzzzzklzkkkkllkkzlklklkkkkzkkdkkklzzkkhhkkklkcccklkkkkkfhddhhpppipypqrigt0000rtuutr00trrryruu0urrurrrrutuywtuiuuuytuuuu0r0t0000669980000999900r00wqww0096667qqq00000qq000990r00ww0660qq63222<,:,2665<<<2222282211111=1122269qw90wwwwiuwrwuuiyiyuuuutr0000900e00000wrruuiyiiiiiuiiiiiiiiiyiyiiiiiiyiiyyyiuuuuywyirr00",
"vvvvvvvvcccvcccccvvzhkckkkkkzcccckkkkkkfhhhdhhadddpdapdpiiirwrwwww09009000000999990000000t00u00t00r00rr0y0uuuu0uwywrwyrrwrwuururrururuurirrrirurrrrrwyrwqqqwq7666696990000067q069w7wwwwewwwwwwwuwwuw0rrrrrr00000wwwrwwwt00wwuippiwwupjhhkdkhy0ruuittuuuuuuuwuuuiiispsdppsiturrruryiiiiiipipsppppuutwuusuippppiiaiddpispsddiddiidppidddspapppaphpppiiaapapppppppppppiiiiippipiiiiipiipiiyyiyiiiyiuittr0uruiiiiiirwwrrwiiiiiiiipppppspisiippphhkkjhkhkjkkkkhjhkkhhkhhkkhkhhjkkzzkkkhhhhhhkhhkkzcxzcvcczzzzkfkfhpiyiuuiisidphhhhddpzkhkkcvvvvvvvvvvvvvvvvvvvvvvvvvvvvxxvcpkkkhphhpppppuuuuiruiiiiuwrrruuuyiyiipapiyrriuuyrrrrrrrwryrwrw00w68996662<23<<2<,222<,222,2296596666757hvvvvccvvvvvvvvvvvvvvvvvvvvccvvcccvvvvvvvvvvvvvvvvvvvvvxvvvckjjkkkkkhkhjkkkhkkkhkkhlkklklklkkklklklzzkzzxczcczzzcccccccccvvvcccvvvvxvvvxvvvvvvvvvvvvvvvvvvvvvcczclzckkkkkfkhhahhddpkkkzlklkkkklkhfkzkxklkhzzzzzzzzzzzlkkzlzkllzkklkkklzzhadkkklcckhhkhlkkklckzkkfakkkkhpphpfipipwewsu0999risuur0uurrrrr0ururrrrrr0uyyrrruuuuutuittw00r0ww00999090000000000ewqw9wqwwq666999qqqq90w0909000w00qq0667962<1<,::::2695<<12211128211,181111236660qwwwqywywrwruuuyiiuiuurrw009000000rr00rrwyyiiiuipiiiiyiiiiyyiiiaiiiiiiyiiiiiipyiyiuuu0",
"vvvvvvvvvvccvccccvvzakchkddkkccccclkkkkkhhhhhhhdpdpppddppdiiurrq0066000r0w00009999000000000t0ut0er0t0rwr0u000uu00yywrrrrurwuurrrrruuruururryriurwrrrrrwwwq7q0766666699066006660699qwwwwwuyuwywywuwywrrr00r000000wwww000000w7wyww0wwwquhcjdpjdw0uiuuutiutruwuriiuiiipppppsiiurryuyiipiaiiippppiiiiuyyuisippsiuiuppsdsdddddiisdididdppddddppppphphpyiaadpapappappppppiippipuiiiiipiiiyyiiyiyypiypyiisuuu0uuiiidiirrryrryiipipipispppuipppppppfhhhhkhhkzkkjkkkhkhjhhkjkhjhkhjklclklhhhkjhhkhhhkzcclvcvczzzfzkzkkkkfiiiipiddhhfhdddkckjjkcvvvvvvvvvvvvvvvvvvvvvvvvvvvvvvvckkzkkphhhipiiurwrurrywuue9wwryuyupiuippdppirrrrrrrrrwyrwwwrwew9ww9999996528832222832,,,22226656696269540hvvvvvvvvvvvvvvvvvvvvvvvvvvvvvvvvcvvvvvvvvvvvvvvvvvcxvvxxvckzjkkhkkkhkkhkjkhkkhkhkhkklkkkkklkkklklzzlzzczzczzzzccccccccccvcvcvvcvcvvxvvvxvvvvvvvvvvvvvvvvvvccczcczzkkkkfkkhkdhhpdpkkkkklkllkkkkkkhzllhkkdxzzzxzzzzzzzklzzzzzzzzkkzlkkkkkhkkffkkckkhhhkkkkkckzkkkkkzkkkkhppkphupwiwiiiuu00uiiuuuru0ruu0rruu0uurruurytryruuuiuyuuiyyr000w0000999900000000rrewq77799q9666963676679qqq0090wwq000966632<<,,,::::<66521211<:,28281,1121,,26666600wwwwwwyruuruuyiiyyurrurr0r0e0r0r00r000ryuyuupiiiiiiiiiiiiiyyiiiiaiiiiyiuiiiyiyiuutut",
"vvvvvvvvccvccccccvvkpkckkkkkzccccclkkkakhdaphhadpppppdddddpywrrw00669090w0w0000999999000000tuur00r000rr00uuuuuu00wwyrwwrrrwuruuwrruruuruirrrrrrryrwrwywyqqqwq666996960600096799699qwewwwwwuwuwwwwuwwr0r00e009900q00w00997007qww00www70ugdjddks0ruuuutuiurrr0uiiisissspppsirrrruuiiiaiiiipspppiiiuutytsusipiiuupppdiddddddddidddiipipsdddpppppahppiiipppppipppppippsppisiuipiipiiiiyyyyiyyiyyiyyitiuuu0ruisipist0wwyrwyiiiiiippsppiiippppphhhdhhhkhkjzjjjhhhkhhkhkhhkhhhkhkkzlkkkhhdhkjkhhhfkzczzvvcccczzkzzkzkzkhdiipisdskkkddhkkzzzkkvvvvvvvvvvvvvvvvvvvvvvvvvvvvvxvvckkkkjkhhiiuirwwwwwrryyuw7qwruyyypiyuiippuruyrrrrurrrrrwwwwqww99w999999966898332,38,,2222226666666296655wkcvvvvvvvvvvvvvvvvvvvvvvvvvvvvvvvvvvvvvvvvvvvvvvvvxvvvvxcvcjjhjkkkhhhhhhhhhjkkkhhkkkzzzlkklkllklkxzzzccczzzxcxzcczzzzcccvcvccvcvvvxcvvxvvvvvvvvvvvvvvvvvvvvczzczzlkkkkkhkdhdhhpahjklkkllkklklkkhhlkkhkkdxzzccxzzzzzzzzzzzzzzzzzzzlkflkhfkkffkklkkjjhklcllkkzkfkkzkkxzkhpphpkipwiiiisgdiuiuitrrr0rrrryyruuuuurrruuytrryuuuuuitiuutr00w0w000099000000000000ww009w7976669666635569w00990000069625552<<,,:=:::,56522121:>,88211,=118122266666900wwtyyrrruuiyyiyiyurutrr00000r0r00r0w0wrrryiipiiyiiyyyyyiyiyaiiiyiiiyiyyuiypiut0000",
"vvvvvvvcvcccccccvvcfpfcdkdkkklccclkkkkkahdphhhdapppppdddddirwwww0r969660000r0009999989090000tuut00r00r0r0y0u00ruwwrrwyrrruwuuuuuryruruurrrrrriurrwyyrwwww7qw0966666009097906607679wwewwrwywiuruuuwryr0rrr09999900000q00767wwwuwqq0qww070dcdskjwrssuuiiiurruwuippassspiipsuwwruuyiiiiiiryyiiipisdwwwuuussdppadpdpsidddsidsdidsdidsiiiiddsphhppppppiiapppyipappppapssiippppiupiiiipiyyyiiipypiypiyuisiu0uuiidisitrwwrryipippiiuippppsspppphhhhhhhkhhkkkzkhkkkhkkkhhkkhhkhhhhjzklkkhdhkkkkkhhkzzczzcccvcccczzzzkzzzjhdddpiddkkkddkzzzccccvvvvvvvvvvvvvvvvvvvvvvvvvvvvvvvvczkkkkkkhippiiuurrerryiuw6uyytyyiiyyryyiipiiurrrruyyrrrwwww9ww69w699699q99288332,28<,13228556566659629w650ykvcxvvvvvvvvvvvvvvvvvvvvvvvvvvvvvvvvvvvvvvvvvvvxvvxxvvvvvzzkkhhhkkhhkkkkhkjjkkhllzxzzzkkkkklkklzzzzcccxzzzzzzcczzzzccvcccvccvvvvxvxvvvvvvvvvvvvvvvvvcccvcczzczzlkklkkkkdhdkhpkkkkkllkklkkkklfhhkklahzaczzczxzzzzzklzzzzzzzzzzzzlfhkkkkkkdahkzzkkkkkccckfkkkkkkxkxxckfhppkkiiwisiisgddiuuuuuurururry0uy0u0uruuruuyyrwtutiuuuuiuw0r00w0w00009000099000000wwwqqwqq965q967662526666966690996665552<<<,,,::::<25521121::,22,81,,==8822266066660wyuwwrruuuiiiyiyiuuurrrre0rr0e00e0rrw00wyyiiiayiiayiiiiiiiiyiiaiiyiiyppiiiiiiuitu0",
"vvvvvvvvcvcccccvcvcgphhhkhkkzzzklkkkkkkhdhpppapppipddddidiir0w0r009958990000009909950000000rrr0u0wewwwwrewwwwrrrrrryrrrrrryruuuruurrrryyuuryruuryrrrwywwq0000666553776q69q99666900000u0y0y0y0rrr0rrw00re0099999000009990w0wwrwwr0000r099iishhsrryiwisiuyyyuissiippppiiidirwtiuwwipppiiiyruuiiiipiiipiiidiipppappsdididddsddiddddpipuipdddddhhhhhiiippappidipddddaiaiayiiiiiiiiiiiiyiyaiiyiiyiyiiiuuiutuspiiipiywyy0uuiiiiddipiidppdddppadhhhdkkjkkkzlkkkfzkfzzkkfkhkhhkhhhhkkkkkhhhhkjjkkkkkkkkczczzzzcczzzzkklkkjjdddipaapdhlzzvccvzkvvvvvvvvvvvvvvvvvvvvvvvvvvvvxvvvxkhckhkhipuusuttw0wuuwd070trwrtiuturrutustrrrruuuurruuuruurw00qw007qw796973666522<522<255565667666666699332qijcvvvvvvvvvvvvvvvvvvvvvvvvvvvvvvvvvvvvvvvvvvvxvvxxvvvvvczkdkkhhhhhhhkkhkkkkkfzzzzzkkklkkkkzzzzxkzzzccccczzzzzccczccccccccvvvvvvvvvvvvvvvvvvvvvvvvvvcvvccccccckkkkkjdkphdzdhakckckccklkkkkkkhflkkkalhkllzzxxzzzzzzzzzzzzzzzzzxkzazzakhzddddkdkkkkzzzzlkfkkzzzzklkkkkkkphpisirppiipkkkyurrisuuiuurrruuuwuwrurrrttyuiitirrruiyrrww0wwwrwwww7wwywywwwwwwwwwwwrrw000990076999635655555525566388822,,,1,1==:=,121<<21122211211,:><1656553257666quiwuwuuuyyiututuuuuututuww0wwwwww0w0ewwruiiyyyaiiyiiiayiyyiiipiiyiipipiipyyyyyuu",
"vvvvvvvvcvcvcvcvccchihkjhkhkzzxkkzkzkkfphpphaappppipdddidpirwwwr0009996900r00r9999990000900r0t0r0wewwwwrewwrrrrwrwwrwrrrrrwuruuwrrryyrryuurruuurrrryrwyw090q0633333536669q9663968000r0r0uu0ruyrrwrrwrr00000999800009089000000w0000000099667ww990iwuuuuyuiwwuwsiiipipppppireewiitipiiiiiyrruiiiiippipidddipppppipdipiidpdiddiiiispppiiaddddddhhhhapapppppdidddaddiaiiiaiiiiiiiiiiiiiiiyiiyyiiiiiusitiirtuipiiipuyyyuuiisdiiipdidippdpddhphhhjjkkkkkkzzkkkfkzzzzkkkhkhjkhkkhjjckkjhhhhkkkkkkklklkkzzzzzzcczzzfkllzkkkkkhhdhkhlklxzccvckzvvvvvvvvvvvvvvvvvvvvvvvvvvvvvvvvcchkzjjpipussuurtwwwy0i060uurruruuiuuuisiuururrururrruuwrutrrqwwqwwe9w9w99696665525522<4255556699666669993657egcvvvvvvvvvvvvvvvvvvvvvvvvvvvvvvvvvvvvvvvvvvvxvvvvxxcccckkkkjkhkkkkkhjhhhkkflzzzzzlzzlkkkkzkzkzzzzccccczzzzcccccccccccvcvvvvvxvvvvvvvvvvvvvvvvvvcvvvvccccckcccckkjdhhhhjdhhkkckkckcklkkkkhkfkkkkplhlklzzzzzzcczxzzzzzxcccccczzkzzdkhkddkdkkkkkkzxzzzkkkzzzzzzzzzkkkzhjppaiuiiippdkkpsuuuuiiyuuuwruuwywuuuuutyyuuytryytytityrrrwwrrrrrwwwwwwrwyrwywwywqw0rru0q99666696666636665222566622238<<,,11,,==::,12212222112221111,,<27533523669q9wqqwrwruuyiyuuuuuuuuuuuuuyww00wew0wwee0wwuuiiiyyyiiiiyyiiiiiyiipiiiyyuyiypiyiyuuu",
"vvvvvcvccccvccvcccchphjhhhhkccxcckkkkkkhhapppappppipddiiiiiuuwyrr0095999000rrw099900000000000tt00wwwwwwwewwrrwwyrywywryrrryruuuurrrrrtytrrrrrturrrruywww099q066625336366699666669900000u0uy0rru0rwww0000000099000900999099000ww0999009968558>>:5ewuuuuuwuwwwyyiipiipppipitwwwwtiiiiiiiiiruiyiiipiiypiiiiippppapipddidddsidididdiipppppadahdhphppipppppppspspddddaaaaiiiiiiiiiiiiyiiyiyiyiiiiiiiiiitiuwrupiipppyyruuiiiiddiiiididpppddphhhkkkkjjkkkzzzlkkkkzkzzfzhhkkjhkhhhkkkzjhdhkhhkkklklklklkkkzzzcczzzkkkkzxkkkkkkkkzzxklllzcccczzcvvvvvvvvvvvvvvvvvvvvvvvvvvvvvvvvvhhkkpypisssurrrw0wuqy00yrwqwruussuuuuusiituurrrrtuurrwrrruurq0wwwwwqq0999693666525555<225225696666999696q6<27pcvvvvvvvvvvvvvvvvvvvvvvvvvvvvvvvvvvvvvvvvvvxxvxvvvvvccckkkkhkhhkjkjkkhhkzzkkkzzzkzxlklklkzkzzkzzzzzzzcccccccccccccccccvxvvvvvvvvvvvvvvvvvvvvvcccvvvcccccckkkkkkddjhkdkhkhllkclkckclklhhkkkkkklpldlllkzzzzzccccczzzccccxzzlkzkzlhkakjjkjhkkkkccccxzlkzkkzxzxzzxllzzhkhdaiiapppppdkkdsuuuuipusittuuwwrruruuuuuutirtryyyiuurrurrrruurrwwwwyrrwywywyww00wqrur09996669w966666669322566368<<322<,,,11,1==::,,:<22<22282111111<12522555365ww7667wrwyuuiyiuuuuuururuuuuwwwwe0wew00e0ww0wruiiyiiyiiyiyiyiiyyiiiapiiyyyipyiyiyiyi",
"vvvvvvvvcvccvccccvcdihjhhhkkcccxlckckkhhppppppppppppiiiiyuiuuwwrrr00997990www00990900000000ur0r000wwwwwwwewwrwrrwwwwwwryruwrurwurwrryyyturruyuuywuruwrywq9900653556666666996666688000r0yu0r00yu0rrw0000r00999090999089999990w000699006999821>>>,59ruuuurwwwuuiiiyiyippiiwwwwwwtspiiyippyiisiiipiiyyiddiipiipipiadsdpisidiiiidiiiiipppappdhhdhpapiaaippppdiiddddaapaiaiiiiiiaiiiiiiiyiiiiiiiiiiiitiuurruuiiypiiiy00uiipiiiididisdssppdjhhkhkkkkkjkkkzzkkkkzxzkkkkhkkkkkhkkkhkkkhhhhkkkhkjkkkkkkkkkfzccccxzkkkkkllzzzkkkzkzzllkkkkcczzzzccvvvvvvvvvvvvvvvvvvvvvvvvvvvvvvvvkphkippisuirrrrrwyiwi0tuwwqwrrsdsiuruuuuuuuuuruuuuuuwrrurrtr0700ie7www976966666555665<25225267669996996657622ycvvvvvvvvvvvvvvvvvvvvvvvvvvvvvvvvvvvvvvvvvvvvvxvxvvvcccckkhkhkhjhhkhhhkzzlkklzzzlllkkkkzzzzkkzzzzvzzzccccvccccccccccvvxvcvvvvvvvvvvvvvvvvvvvvvccvvvvcccccczkckhpdddddkdlkkkckclkcklklkhfkklkkkplhkkllzcxzzccccccccccccccczzzfzldlhkdkhhhddkzcccccczxzkkzzzccxzzzzzjkhhhpidppppppdkjsiuiuipuuiurrutwutuuuuuuuuyriyiuttyiiiruuruuuusryywwruuwwwwwwwywwwwwtrq0076660w936666697625366582,2222,,,=1,11=::::::,2,<<1282111182212523355566qwq9797wwwuuiiiuuuururrwruuuuwww0ww0wwww000wrrriiiyyaiiyiiiyiiyyiiippiiiyiyyiiyyiyiu",
"vvvvvvcvvccccvvccccpihhhhhhkzccxcklkkkhdhppppppippipidiuiypiutuuuu009959600ww00600999900t00t0r0rw0wwwwewwewrrwwrrwwwwwrwrryruuurwrwyytyturrrurrwuwurryww999996555566666669966666989900yr0r00t00trr0090000990909000000900999900009999999621111:111590wrrr0rrrryryiyiiiiiywwwwwuihdppyipiyuiuiipppiyidddidiapiapppddssidipiiidiiiiiiaipappdpddphpdpiapppppddidshhhpdppiiaaiiayiiiiiyayiyiiiiiiiiiiussurwuryiyyippytutisiiiiiiiisdppspddhhhkkkkkkkkzkzlzzkzzzzzzkkkkdjjkhkhjkkkkhkhhkjkkhkklkkckkkkhfzccvcczzkkakkkkkklkkkzklkkkzzczccczzzzvvvvvvvvvvvvvvvvvvvvvvvvvvvvvvvvvpihidgitiuuwrwwyyiuu0uurrwrrrisssurrruruurrtuutuiuuuttuttrrrq09rwe9w9969696699666665525225666636999993627965wpcvvvvvvvvvvvvvvvvvvvvvvvvvvvvvvvvvvvvvvvvxxvvvvxxvxvxzzzkjkkdhkhkhhkkzzzlkklkllllkhhkkzxzzklzzzzzzzccccvcccccccccccccvvvvvvvvvvvvvvvvvvvvvvvcccvvvcvccvckzkzkhppdyppkdlkkkzzkkckczlkhkkkzkkklpldlzzzccczzvzcczxzzzzzzzzzzzxkxlhlhhjdkkkhphkkccvvcxzlkkkzzcccczzxzhkkjkhpdpapapppaddiiiyyyusiuuuuuuuruuusuiiityurururutuutyuyuuuuuuurywwyuwrrrrruruwwqwrrwr00900w00666966665256652222232,=,,,,,=,=,,,,::<8:,,,1111,,<,<<22532653666qqwqww7wwruiiiyuuuururruuuuuuuywwwewwwweww0r0r0yyuiiiuuiiiyiiyiiiyyiaiiiyiypyiiyiyyu",
"vvvvvvcvccvccccccvcpphjhphhzcccxlckkkhhahpapppiiipiiiiuuyipuuuuur0y9995969000009099995000000r0t0wwwwwwwwwwwrrrrrrwywyrryrrwuruyryrrrryuyrrrrrurrrurywywwq9999655355656656996666655990000u00tu0u0r0r09900009999000000000099900y0009999666,,:,11,,244560rtiurrryyipyiiiyyyrwwqwythdppiippyuuruyyppiiypdidipipapppasddididpididdddiaiiappippaadapppipippdapdiidahhsppppaiiaiiiiiiiiiiyiiyiiiyiiiiaissuuururiippppiyr0uiispipidididissppdhhkjkkkjzkkzzzkzkkzxkzkkkkkkkkkkkkkkjkhkkhhkjkkkkkkkkckckkkkkccvvcvxzkkkklhlzkzzzkzkkkkzzxcccczzckkvvvvvvvvvvvvvvvvvvvvvvvvvvvvvvvvvhiphhpiuuurwwqwiqiuu0uutturrrrsutrruururtuuuuuiiusiuuuusrrerr09rwwwww969969666965666565655569669999969965337wyivvvvvvvvvvvvvvvvvvvvvvvvvvvvvvvvvvvvvvvvvvvcxvvvxvxvvvzkkdjkkhkhkkkcxzkklkkkkkkkkkhkfzzzkzzzzzzzxczcccccccccccccccccvvvvvvvvvvvvvvvvvvvvvvvcccvvvvccvcczzzzkdppjrpyhdlhkzzkzckckkllkffkcklkkpkakzzzzcczxccccczzzzzzzkzzzzzkxzhlkkkhkkkkdhhkzcvvvzzlkzfkzzzzzzzzzhllklhahpiiphhppjdddiyyyussiiiiiuuuuustuutuuiuiuurrrriiyiiyuyiiiurrrwrrrryrryrrrqqwwwrrwuw000wq0q6399636665666522222822=,,=,,,=,<::::::<::::111,,,,::,2852455366377wwqw790ruiiuytuuruuuuwuyuiyuiurwww0ww00ww00ww7yuisiuuiyiiiyiiiiiyiipippiiiipyiyiii",
"vvvvvvvvcvcccvcvcvkpifkhhhhkccczlckclhhhhdpppppppiiiiiiuyyyurrurr00999956000000099009900000u0t0rw0ww0000eewwwerrwyrrryyrurrruuurrrryrrrrrrrrruuwwuruwrwr999996535256355336936665566500r00u0u0u0trr0099900099999900000000999900000999095>141111>:,,186686wryuyiiiipiiiyyuiwwtiyisidppipiiuuyyypppyyipiiidipipipppdddpiddsdidiidisppaappadddpdppppaiapdpdddiddshhapppiaiaiiiiiiiiuiiiiiiyiayiyiiiiusiuruuuiiypppyyrrussssiipidpdidppahhhhhhkkkzkkzkzzzlkzkkzkkkkkzjkkkkkhkhhkhkkjhkhkkkkkkkklkckfkkzcccvcczzzzklkkzzzzzzzxzkkzzzccccczcvczvvvvvvvvvvvvvvvvvvvvvvvvvvvvvvvvvkiihiiitiutwwwqy0utu0iwiurtrrruiuuuuutiuuiuuuuituiuiuuurrirrw00wwwww9969966666653256666625690779q99699966337qyyacvvvvvvvvvvvvvvvvvvvvvvvvvvvvvvvvvvvvvvvxxvxvvxvvxvvvckkddkkkhkzzczzlxxlkkkkkkklkkkkzzzzkkzzzccccxvcccccccccccccccvvvvvvvvvvvvvvvvvvvvvvvvcccvvvvcvccckzkzkdipjupidplkkklkzzkkckkzkkhfzlkklakalzzzxczzzxczzzzzzzzzzzzzzkzhxxklkkjhkkkkhhhkzccvcczlkkzzzzzzzkzllhkkkxkdhpppahppdddddpiuuiyiiiisutiuiuuuutytyrutyurrruuuuiyyiiyuuurrryrrrryrryyyrqrrrwrrrrwqqqwwww6690636655422522283221,1,,,,,,,:::::;:;=:::<111,::::,1263366566567qwqw7900wwyuuuuuuuyuyyiiuyiiuturwww0700ww0rwwwwruuiiuyiyiiiyiyiyiyiiippyiiiiyyiiiy",
"vvvvvvvcccvvcccvcckpphhhhhkzcxzzccckchhphapppppyiiiiiiiuyyuww00wr0095559900wq00059000900r00000u00w0eww0ewwrwrrrwyrwrrrrrrwyrururuurrryrryyyqrryruruwrrwq96996322533665553666566555690000t000t0u0ewr009900009909900rt000099900009996000>>11841>1:,288864,>5risiiyiipiiyyittwituiiiipppipyiuyyyypypppadiidaiaippppddidsiiiddiddisdpappdpdddddpapiiiiipddddddsdahshppppiiiiaiyiiiiaiiiyyiiiiiiiuuaiussuruuuiiiipyywruuiiiisipidiiiipppddhhhkhjkkzkklkkkzkzzkkkkkkkkjkjkkkjkkkhkhkhhkhhhkjjkkckcckkfzcccvcvvkzzxxzkkzzxzxxzxzkzzzzcclcczvvccvvvvvvvvvvvvvvvvvvvvvvvvvvxvvvvxvkiihiyiuiuuuwwqu6uyuriwwrrtrwuisuuussusutiuuuuurrusuiturrrrw000wwwew9969766666752<<56665266900q9qw9963939996wuiykvvvvvvvvvvvvvvvvvvvvvvvvvvvvvvvvvvvvvvvvxvvxvvvxxvvvzzdkdkhkkkccckzzxckkkhhkklzlllkzzzkzzkzzccvcvcccccccccccccccvvvvvvvvvvvvvvvvvvvvvvcvvvccvvvcvcvvcckzzzdpdkpdpppzkkzzzkzzlkkkzzkkzzlkkkpldkzzzccxzzzzzzzzzkzzzzlzzzlzkxzkzkkzkkkkkkjhkzccccczzzzkzzzzzzlkllhkklxkhkppiphddcddddpiipiiiiidduiuiiuuutyrryr0rwrrtuuuuiiiyuyiiuuurrrwywuuuurrrrrrirqqwwqrrrwwwrw6299667655<<<2528822222,,=,,,,=,::>::;;:**:,,11,,,,:<<86556666666667qww99000yuuiutuuuiyiyyiiuiiuturwwwy0e0wr0www0wruuiiiiyiyiiiyyiiiyiipipiyiiyiyiyp",
"vvvvvvvvcccvvccckvkdhhhhhhhzzccxlckkkkhhhhappppiiyiyiyiywwwwwqww00006566699qw0000990090y000000t0w0wwewwrw000wwrrwrr0rrrrryurrrrrrwrwyuwryyyuuuuwrwrrrrww6699654<5555266529669355955589900000t0t0wwyw059900999909u0t0r00097900099966w94122121::,::1<<3081>-=6ttiuiiiiituitiipipppiiidiiypppyiyyyiiidiiiihyyppppppdsidddsddidihidipppdiidippdpdppiiiiiaiaassasaahsaaddipppiiiiiiiiiiiiyiyyyyiiaiiisiiuurrrsppiiiyyyuypipipidpididdpiphhpdhhhkklzzzzfzzzlkzkkhkkkjkkkkjkhhkhkkjkhkjkhhhkkjzckkkfkckcvccvvccklxkkkkkzkklxxzcccxzzccccccccvcvcvvvvvvvvvvvvvvvvvvvvvvvvvvvvvvvvvvkw7whyiu0rw9qtwrtuiu0wqrruuuuwuuuusiirruuurruiiiyrrrrtwwrrw9w6wrq9ww93221232362,23333233369660q9999679q769tyuudcvvvvvvvvvvvvvvvvvvvvvvvvvvvvvvvvvvvvvxvvcxxvvvcvcvccckkkkkzzczxccvcczkkkkkkklzzzxzzzzlzkzzzzccccccckkccccclcccxvvvvvvvvvvvvvvvvvvvvvvvvcvcccvvccvvczzkkckdddhudpppkhkkkzkkzlzzkzzzzzckczdikizzzzxccczzcczzzzzzzzccccckkzzzccczzzzczzzckpdkzkkccvczzxxkzkkxzlzzzzcxzkkfppdddpdhddddsisiuyuyyidpwyiruuruurryyuurrruuiiiuuruuuururrwruurrrrrurrwurrrrrwwrrwwwwwwq06698q866652225665552521::,,:::::1,:::*+:=::11,::1;8112666635359968589900990wwwuuuuiyyiyyyiiiiiiiyyyyyy000w0w0we00wwtuiiiiiyiyiiiiiyiiiyippiiyyiiiui",
"vvvvvccccvcvvvcckckphfhhhkkzzcccccckkhhhhddhaapiyiyiyyyiywwwwww0r009933629qq0q0009990900t000r000w0000wwwwwwwewwwwrrrrwrrrrurrryrrrwrrwuwwruuruuwryywurww399w9345522656669696665<55559900r00er00rww0w0590090990000t0tr0r0009990996906552>,11::=:::12<383:=+=180ustiririiiiiiippppdddiiuyyiiiyyyiiiidihishpappapppdddiddddididididppsddsddpppppppiiaiiiapaassahsasppaiipppiiaiiiiiiiiyiyiyiyiiiiiiiisiururiipipiyyyuuipippiiiiidisppphhhhhlhkkkzzzzzzzzkkzkjkkjkkddkkkkjkhhhkhhkhhhhkhhjkzkkhkkkkkccvvvccczzlkzzlkzlkkzzzzcczzzzccccccxxlvcvvvvvvvvvvvvvvvvvvvvvvvvvvvvvvvvvvvpywtyyrww0qirruuiuuwwweuuuutruuuusiituuuuutiruryrrrwrwerw99werrw9ww3333222222212363,33866667999797qq69769ruuidcvvvvvvvvvvvvvvvvvvvvvvvvvvvvvvvvvvvvvxvvxvvvxcccvvcvckkkzzzzczcccvcczllzklkkkzzzzczcczlzzfxzccccccczzccccccccvvvvvvvvvvvvvvvvvvvvvvvvvvcvccvvcvcvvczzkkkjkdhhpksipzhkkklkzzzkkkzzzzzckckaizpkzzzzcczzzzzzzzzzzzzccccclkzzzzzzzzzzlzzzzzkkhkkzczcvxzzczxkkxzzzzkzzzzkkppipdpihddddiruspyuiiyidpuiiruswt0tryuyurrruuuuuuuruuuuuuyrrrrurrrrrrurryrruywwwwyry7wwwq096669855555255653555521,=,1::::::::;**;*:*;:11,,1,81282556666625959599000070wwyuruyiypyiiyyiiiyiiiiyyy0r0ww0wwrwwwwwrriyuiiyiyyiyiyiyiyiiipiiyiuiyi",
"vvvvvvvccccvvvcczvkphhhhhhkzzccxlklkkhhhhhhpppppiyiyiyyiwwwwwwq0re009692660000000999999000000r00000000wwwwe0wrrwwwrwrrwuuyurrrrrwyrrwuwyrrrruryrurwrywww699w9352252223566969962225589000e0000000w000999900099000u0t00000099009955994>25<111:::=>=:222231:+:==:10turiiiiuiruiipphddspppyuyypyuyuiiiidiiiippaaapppdiidsddshigihidipppdpsddippssipiaiaappppaaaashaapddpiippiiiiiiiiiiiiayiyiiiiiaiiipiuuttiiiiiiiyywyipippiiipdpppdiipphhhhkkkkkzkzzzzzlkklkkkjkhhkhkhkhkkhhkhkhhhkkhhkkjkzkkhkkkllcccvvccczzzzkxzzzkzlzzzlzzzzzzcccccccxvvcvvvvvvvvvvvvvvvvvvvvvvvvvvvvvvvxvvvvckppy0u99riwuuuuuuurwrttiuuruwwriiiuisuuitirrrrrrrywwwww97wwee79w9283221221,22,333,39962360090wq97669990wuuidkvvvvvvvvvvvvvvvvvvvvvvvvvvvvvvvvvvvvvvvvvvvvxcvcvvvcczzkzzzzzzzcccvczzzzlkklkzzzzcccczzzzzzccccvcccczcccccccvvvvvvvvvvvvvvvvvvvvvvvvvvcccczcvvvcvvvzzkkkhkdhdukuiukjklkkkzklzzkzzzfzcjckdizpzzzzxczzkzzzlzkzzzzzccccczxzzzzzzzzzzcccczzckhdfzzakcvzzczcxkzzkxkllkzzzlfpppdpddpdddu00piidiyuisduusruu00uuuuuiu00rruuuuurryurtrrryrruurrrrrruruyrrrrrwwrywwyyww0096333342<2<<453255554<,,,,,:::,::::*;*;::::::,,,1:8,12222656665999998900w009wwwyyiiiyyyiyipyiyyiyiiyairwwwww0ewwww0wwryyuuiyiiiiiiiiyipyuiiiiiyiyyi",
"vvvvvvcvvccvvvccjckphhhhhhkkzccccckckkhhhddddappppiiyyiytwwtqrwrre0099666600000q090000990000000rwe00wwwwwwwewrwwwrwrwuwuurrrrwyrrwwyywuwrrrrwurrrwwyyyww6390932552555666966962222255900000000r0rw0009990000080000u0ur0t000090099682,,8211111::=;:12<211:==::=-=,rrrriiuutiuiidddspiiddpyyiipuuiiiiihiiiiypypppppddsdddsdhhhidhidpddidddssisppsipiiiipappadpahhhspadpapipiiaiiiiiaiiiyiiiiiiaiiiidsdururiiiippiuyyuiipippipiiiipssishhdhhlklklklkkkzkzzkzkkkkkhkjhkjkkkhkhhkhhdhhhhkhkkkkjhhhkkkcccvvcvvczxzzzzzzzzzkzzkkkzzzzxzzccccxcvxcvvvvvvvvvvvvvvvvvvvvvvvvvvvvvvvvvxvvvvvk00y99ru0wttututwqruuuuuerwuyiiyuuuiuuuuirrrryrww9wwwq679963696293221221,<2,232>333526699999w9q6690q90tiipjcvvvvvvvvvvvvvvvvvvvvvvvvvvvvvvvvvvvvvxxvxxvvccvccccczzzzzzzzzxczccczlklkklkkzzzzcccczzzzxzccccccccczccccvcvvvvvvvvvvvvvvvvvvvvvvvvvvvccvczcvvccvvczzckjkkkhdphpuplhjzkkzkzzkzlzzzzzzkkkhikizzzzzcxzzzkzzlzkzzzzccccccczzxzzzzcclcccczzczfafkkddkzzzzzczklzzczzkzkklkckhkhdpipdjkyu0yuipdiyuipyyuuuu0tu0uruyyryrrtuuiyrrruiuuurwrwuuryyuruurwrrywyywwwwywwwwyw0962<<3<<<2<<<52523662<,:,:::::,::::*::+;:::11:,:,=8,126766666656999599990ww9wwwwruiyiyiyiyyiypiiiiiiyiurrwww00w000wwetyyuuyiiyyiyyyiiyyiyyipiiiiyyy",
"vvvvvxcccccvvvvckcjdphhphhkkzczxlkkkkkhhhhphadpppiiiiiiiwywwwwwwe0w0092966999q0909709999000000000eww0rrrw0wwrrwwwurrrwwurrrwywwwywwrwrwuyyrrrwryywwywwww66999622252325662962855252559009e0rr0rr0w0ww999000000000u0t0r00r0000000901:,2211,:::=*===112<<1::+=1=:::rirtuiiyuiriidhhiiypddiyiidiiyidpppdhiiiiiipppppdisishhiihihdiiiidsdidsdippppspsppppppppppppddadddapiappiiiiiiiiiiiiiiiiiiiiiaiiidpuuuuuipipiiyuyusiuppiiiipdidssiiddhhhkklkkklzzkklzkkzzkkkkhhhkkkkjkhhkhkdkdhhhhjkkhkhkhpkkkxzccvcvccczzzzzzzzzzkzlkkkzlzzxzzzzzlcxxvvzccvvvvvvvvvvvvvvvvvvvvvvvvvxvvvvvvxvvvvcy0trwrwqwwrtiiwqwqiuuurrwwryyiiiruurirruriryrywq99w9966q7669q6533122221,2,>,22,223539756799q6qq667966wdishzcvvvvvvvvvvvvvvvvvvvvvvvvvvvvvvvvvvvvvvxvvvxccvvcvvccczxzzzzzzzzzzzzkkkklkzzzzzzcccczzzzzcxcvcccccckcvxvvvvvvvvvvvvvvvvvvvvvvvvvvvvvczzxzzcvcvcvvvczckjkkkhppkiiickkkkkklczzkkzzkkzzjkjdpkpczzzcccczklkkzkclczzzcccvcvcccccccccccccczzzkfhfhkkdahcxzzxlhkkkzcxzzzkkzzzkkhpppppdddu00rusdiyyiiuiusirr0uuryyyiu00uuuuurrrrrruuurrwruurrruwuuwyrrrwrrwrrrwrrwywq0962<<3555535522425625211,:>:,>,:::==:*::1:,11:,:,:5,259962526999665999999wwww00wwwyuyiyyiiiiiyiyiyyiiiuyurrr0w00weewrrr0uuyiiiyiyiuuuyiiyiiipdpyyyi",
"vvvvvxvccvcvvvcckvjdhhhhhhkzzxcxlcckkfhhphpahppppppipiyiwttwwwwwere09996666999909990999990900t0rwwrwrr0eewewerwewwwrrrwrrrywwwywrryruwywywrrrrrryywwwrww966996635555565699295552225990000000r0rtwwww98970000000r0t0u0r000000099961:22,,211,:=====122<11:::@+==::7uiiiiiyirriiddhdiiiyuuyiiipipipiiiidhhhpappppppdppdshshhshsdddidipdddpsipppddddppapappppiyppddddaapppppiaiiaiaiiaiiiiyiiiiaiiiiiisuuuutiiiipiuytysippippipiididpspphdhkklllkkklzlzklzzzzjkkjhkhjhkjkhkhkjjhddhdkkkkkkhhhhhfkxzlccvvvvcczzzzzzkzzzlkzkkkzkzcczzxzcccvxvvcccvvvvvvvvvvvvvvvvvvvvvvvxvvvvvvvvvvccvcy00rrw0uwquiiiww9qruyrrrwwyuiyyurrrrrrysrurrrwyw0w9q666w996666333211222,2,,,22,,<23696555399967990009uhtihlvvvvvvvvvvvvvvvvvvvvvvvvvvvvvvvvvvvvxxvvvxvvvccvvcccccxzzzzzzkzzzzzkxkzzlzxzzzfzcccccczxzzcccccckckcxvvvvxvvvvvvvvvvvvvvvvvvvvvvvvvvzzzczzcvvcccvcczzkjkzkhpphuupckkkkklkkkzzzkzlkfzkkdkpkiczzzzcczzkczzczccczzzcvvvvcccccccccvcvcccczlzzzkkhkhpdkcklzkhkkkzxxzzkzkzkpkkkhphpyiddp090usdppppidiidsrtiuuuuiiyuuuuurrtrrrrriurrrryrurrrrruuuurwrywwwryywwywywwwq965<<26525555222553625122,:,,,,:::::==::1:,11,,:,;5,<866222669999658999999rww990wwwyuiipyyiyypiiiyiyyiiiuur0r0wwww0w00rrruiyyyiyiyuuiiyyiiyyiappiyy",
"vvvvvvvvccvccvcckckphhphhhkkzccclclkkhhhhpddhhhpppipiiiiwwywtwwwwwew9896566999990999998008000w00wwerew0rr00wrwwwwwrrwwrrrrryryyrrwrwrrrwrrywwwyrrrwwwwwy9669963353555535655559525555999000000rerrr0w0980000000rru0rrr0000y009955111121111,,::=>::115211:::=-:++13wiiuiiuutiipdhppiyyuyyupiiipiiiiyiiihppfafpppaadsiddddihiisdiiiiddidiidippsddddpppddapppipyppdddfapipppiiiiiiiiiiyiiiiiiiiyiiiiiipiuutryiipiiyyriiipiupipipidpdpppdddhkkllkkkzzkkzzlkzkjkjkkhkkhkkkkjhhkkkkkhhkjkjzkkhphhhkkzczccvccvcczxzzzzzzzkkkzkkklzzccccczzcclvvvccvvvvvvvvvvvvvvvvvvvvvvvvvvvvvvvvvvvvvvks09ww00wwwttuuywqruuiwrrwqyiyiiirrryirwrrrrrrrr09w999656666635332112222,,,,2<21:<3666552226q699q6qtq7ygwpkzvvvvvvvvvvvvvvvvvvvvvvvvvvvvvvvvvvvvvvxvvvcxvccvvcczzzzzzzzxzllzzlklzzzzzzzcczkzcvccccccccccvccccvccvxvxvvxxvxvvvvvvvvvvvvvvvvvvvvvvzzzzzzcvvcvcvvzzjzkjzjdpshiiickklklkckzkkkzzzkkzkkkjpkpczzxxcclzckkczccccczzccvvvvccccccccccvccccczzxzkkkkkpphkjklkkzzkzxzzzzzkffkkkkpffdisddi000riiiaapidssdsuuruuuuyuuuuuuuurrrwrruiuuuywrururrrwwrurrryrryryrrrrrrwrww963222<22225553222556652331,,<,,,,1::==:::::11,:*:*2>1536522666999395599wwwww999990wwyuiyiiypyiiiiiiyiyiiuurrwwwwwwr0e0rrwuuuyuyiyiiuiuyiyyiiiphpiii",
"vvvvvvccvccvvvcckckiphhhhhkzzccxcckkkkhhhhphhhpphppiiiiiwttwwwwwe00099236699979909999990000000t0wwwwr0000ewwrrwwrrrwrrrurrrrrrwrrrywrwryrrywwywrrrw7ywww6366662235325555955855525556900900r0000000r00889000000rr0t00t000u0009952:8e81111:,:====:::12211::-+::1111wiiiipuuriipdppiiiyyyddpiuyidpiuuiiihhhpppppfppdsdiddhishdpdiiidiipipiisssdddddapppdppppppppaaddaaaipaiaiiiiaiiiiayiiiiiiiiiiiiiiiiuurriiippiiuruispuppiisipidipppddddjhzzzlkzxzzklkllkkkkkkkkhhkkkkkhhkkkhhhhhkkjzkhhpkhkkzzclccvvvccccczxzccczllklkzlkzzcccccclccxvvvccvvvvvvvvvvvvvvvvvvvvvvvvvvxvvvvvvvvvvvvcw9ww0rwwwuwwwt7qqiuyyrrwqryyriuirrrrrrrwwrrryrwww966623366636732222<2<,,,222,,:2352224<<266968666w060d0ydlvvvvvvvvvvvvvvvvvvvvvvvvvvvvvvvvvvvvvxvvxxvvccvcvcvzzzzzzzzzzkkzkklkzzzzzzzzczfzcvcccccccccccccccvvvvvcvxvvvvvvvvvvvvvvvvvvvvvvvvvvczkzzzzcvvvcvvczzkkzzzkhdihuipchhkkkkkclzzzzzzfkzjkdkdkiczzcccczkkkclcccccczzvvvvvvcccccvccvvcvvczcxzzkkkfhdppppdklklzzkxkkkzzzzkkkzlkkfkdddddur09ruiipapdjiusu0ruuruuiuiuiuururrrrwrrruurywrrruryuuuurrwrwwwwrrrurryrwww0962232252236755552556652832,<<<111111,::::::111,:::8,887666655136999599890w9www66790wwiypyiiyiyyyiyaiyiiiiurwrr00ewrrrr0rrriuryiyyyiyyyyyyyypiyhdiii",
"vcvvvvcvcvccvczkkczddddhhhkkccckzjjjjhhhkhhhhkdpddidpiiyurrrr0wrqw099665555999950999559900099000wwewwwweww0wrrrwryrrrryywyrrrrrrrrrwwwwwwwwwywrrrwrrrwww66993223635566246656265626697900q00wr0000r0098800990t0wywrrwrwwwr00098223228222<111:::;:::112228:;*::::1,=8wsgiiiyiihhapsiuuuutrudsppppyiipipaapfpfpdpppdddddddsddddiddiispispippippppppdddddiiidpppppadssasiidsiiipipiiiiiiiiiiiayiiiiipiyipyyyisippiyywuiippppipppppppddphhjkkklllkklxzzlzklxkkjkhkkkkkjkkkkkhhkkkkkhdkczkkakkkkkkkkklcccvvcxcvccczcxcklkzzzzzxzzzzxxzczzcvvvvxlkcvvvvvvvvvvvvvvvvvvvvvvvvvvvvvvvvvvvxvc5wwyw777qwtwuiqurrrtrqr99wrrssqrrww0rrwrw7ryyrwwww643266333442332221222211331,,1223333,122223969tw99999ukhvvvvvvvvvvvvvvvvvvvvvvvvvvvvvvvvvvvvvvxvxvvvvvcvcccccccxzzkzzzkzklklkkllzzzkzzxzcczzccxzzcccccvvvvvvvvvvxvvvcvcvvvvvvvvvvvvvvvvvvvvvccczkzcvcccvvccccckkkkhpyayppckllklkzzklzkzkcfkkkkkkkhkzccczzzxcczzzzzccvlcxvvvvvvvvvvvcvcccccccccccccckhdpidddikzzzzkkxzzkzzzzzkhkzckkkphpapii0iwuisdjsdddiiippuiyiyyiytururrrrrqwwyuuuuurrwuuryyyuuuuuyywwwrywwwurwrrr793232<<2222599558522<56884,,22,111111,,;:1:::12:,<2228882888188<9999599900000eww00800ewrutiuuiiuyiiiyiiyyuyyyyyy0w0wrrrt0r0trruuuuiiiiuyiuru0usyskhp",
"ccvvvvvvcvvvcczkkckddhihhhkkcccczzkkkhhhhhdhhhhpdddiiiiiurrr0rwwwq009952559999590069989000900000ww0wwwwwe0wwwuwurrrrrrwrwyryrrrwyrrrywwwwwywwyrrrqqrwew9666992225553666265655522256999wwwwww0rr0e0e00998r090ttrrwywyrywyr000922222222<11:1::;+::;:11,1221:;::*::=*,2qiyiiyyaphdpssiuuuurssipppaiiypiippppppapdapddiddddssdiddsdiipidsppppppppappdpdpdidpdpppppddadasdiddpiiiipiiiiiyiyiiiiiiiaiipiiiiiyiiipppiiywiisppiipiipipppphhpddhkkflkkkkzzkkzzllkkkhkkzkzkkkkjhhkkjhkhhkhlzkkfkkkkklkkkkkxcccvvvxcccczzzckzzkzzxzzzzzzxzkczzcxvvvczzvvvvvvvvvvvvvvvvvvvvvvvvvvvvvvvxvvvvvvc6wwtwwew7wwuiiqrtwwrr0066qrrurwwq999wrruwwruwyqww9624266663332322<122122,33131233233331222233367qq99999ickvvvvvvvvvvvvvvvvvvvvvvvvvvvvvvvvvvvvvvvvvvvvvvcvvvcccccczzzzzkkzkkkkkkklzkzlzzzzcczkxzzxcccccvvvvvvvxvvvvvlxvcvcvxvvvvvvvvvvvvvvvvvxccczkzcvccccvcccjkhhkkjdiaiipchkkkkklkzzzkxkcakkkkkkfkkzccczxxcccczzzzccvxccvvvvvvvvvvvvccvvccvccccccccckhhpdhddiadkcvzvzzkkfzzzkakkkfkzdhhpppi0y0uutisddddhddiyiipppiayuttwrruuuwwwwytuuurwwuruuytuuuutyywqwwruryrwrrwyq966555442<4255555552256812,,22,81811,,,:::::115122222211<11111125599999000000www00000wwwruiiiuuuiyiiyiyiyyiiyyy0yw00www000r0rrutrtiiiiyiuirrtuuuidhd",
"vvcvvvvccvvcvvckhchpdhdhhhkcccclzkkjhhhhkhhhhkhpsddddiiiirr0rrw00009925655659995996999900000000y0000wwe0wewwwwrwrrrrrrrrrrrrryrywrwyywwwywywwwywrrwrrwwq639962232553622226225525266990qqrwwwerr000rew099000wwtwrryrrywww00009555332222<<::::::::::::>,<221::::*:==,;2yippiiadhhpsssuuuitusiiipapiiapppfapipppaddddipdddsddpdisidiiidppdppppppppippppidiipppippddssssidpdiiiiiiiyiyiiiiiiiiiiiiiiiiiiiyyiipppsiyywuisupppipppspppddhdhhkhhkklkkzzzzzkzzkkjjkhhzzkkkkhdhhhhkhhkkkkkkhkfkkklklkkklzzzcccxvvvccxzzzzzzllzzzzxzzzcczzcczcvvvvvccvvvvvvvvvvvvvvvvvvvvvvvvvvvvvvvvvvvvvvvww0wtww6269wwqwrrrrq0q026wrrrwrrqw9wwrrurwrrwwq7q9622266663443332112,2,,,,13313322212211222332599q999q9ivkvvvvvvvvvvvvvvvvvvvvvvvvvvvvvvvvvvvvvvvvvvvxvccccvvccccczzzzzzzkkllkkkkllkzkzzlzxzkkkkzxvvczvvvvvvvvvvvxvxvvvvvxvvvvvvvvvvvvvvvvvvcvcczzkzzcccccvcczkhjkkckhpdipplkkkklkkkzkxkxkcazzfklkffkzczzzxxcvcvcvzcccvxvvvvvvvvvvvvvvccccvcvccccvcvvckkdpddssipiacvczczkkzkzzlkhhfkkzhhhhhdi00wuirrisdddjkkpyppppyayyuuuuuuurwwywyuywuwruruwuurtuustyyrwwwyrwywwwrrwwq796653<224<<55585225555842,,22218811,::::::11558282111<1,,,1111825599900000wwwe000099000wrtiiiuiyyiiiiyiiiiyiiyrww000ww0tr00rrywrruiiiyuiuyr0ruiuidh",
"vcvvvvvccvccvvckhckpidhhhjkccccckkkkkhhhhdhhkkhhiddddiiisur0rew0009996625569999996899980000000000000wwww0w0ewrrryyyryrrrrrrrrrrwyrwrwwywywwyywywrrqwwrwq9699q3232255664266665252626699wwrw0wr0rrrrrrw0000000wwrrwrrrrywy00w0825958585<<<11::::::::::>,,211111:::,=,=<iipiipphhdastuusuuuuuiyyppppppppahhpiapppppsddsdddiidipdidipipipsdddappaappiiipdidippppddddsassppippiiiipiiiiyyyiyiiiaiiiiipyiipyiypiipiiyyrusipppupiipippppdhdhhkakkkkklzxklkklzkkkjhhkzkkkhhkphhhkhkhkjkjlkhakkkkkkkkzkkzzcccvvcvcccczzzzkllzzzzzzzzzzzzzcckcxvvvvccvvvvvvvvvvvvvvvvvvvvvvvvvvvvvvvvvvvvvvvi65w062<<29w76rurw0rw7066wriierwwwrrrqwuw7rrwwwww76666699646433221,22,,,,213332233322122133321236969996ivzvvvvvvvvvvvvvvvvvvvvvvvvvvvvvvvvvvvvvvvvvvvvcvvcvvccccccxzzzkkzlkkkkkklkzzzlzzkkzzzkkkzzcvczvvvvvvvvvvvvvvxvcvvvvxxvvvvvvvvvvvvvvvvvccczzzzcvccvccczckkjzkkhikippckkklkkzzzkzkzkzdzzklkkkkzzzzzxvcvvvvvccccvvvvvvvvvvvvvvvvvcccccvcvcccvvvcckfddiididpipzczzcxzxzzzfkkfkkfkzkhkkhjsuwtiswruiddddhaapadppppyyuuuuurruuwwuuuuwuuwwwuuuytytuururrwwrrrwuywwyuywww79354<45<<<5858555552212>,,,22811111,:11::12581212222<1,,,111222858900000wwwww00we0900w00wuiiuyiyiiyiiiiyiiiiywwwwr0ew0t0rtwrr0wrispiyiyuurrrriryud",
"cvvvvvcvcvccvvckfckppaddhhkkcxcczkjjhkhhhpfhkkkdssdddiiisirrtrr0000995592529999096699699909900000e0wwww0w0wwwwrwwrywrrrrrryrywryrrrwywywyrrrwwwwrwqwrww0966993222425652266665655656900q00qwwrww0tuwwwwww000wwwuuyyyyryrw0r00855885855<<<11:>:1:>:::1:1<<,,2111,1==2:5iiiaipaddppsuuiuiuuuutuuipypippppadpppppaiadpidddsspipipspppiippsippapppapiiiiiipipapppaddaadipippipyiypipyiyiyyiiiiiiiiiiapiippyiiiippsiyyrisiidppipippsppppahdkhhhkkklkzxzzklzzkkhjkkkkkzkkhhhdkdhhkkkjkzkhhhfklzkzkzzkzkzzzcvxcvccczzzzzklkzzzzzzzzzzklzczzcxvvvvccvvvvvvvvvvvvvvvvvvvvvvvvxvvvvvvxvvvvxfki<26522<236999qwrrrr00q69rrrurrwerrw93wwwwrywwwwrq66669966663232,<<<12,,,,18132336832222223321225533666qckvvvvvvvvvvvvvvvvvvvvvvvvvvvvvvvvvvvvvvvvvxvvvvccvvccccccxlzzzkzzkklkkklkllkzklkzzzzkzkkzccccvvvcvvvvvxvvvxvvcccvvvvvvvvvvvvvvvvvvvvxvcczzzccccccvcczccjhkhdpdjipdvzzkkkkkkzkxkzhchzckcczkkzzzzzzxcvvvvvvxvvvvvvvvvvvvvvvvvvvcccccvvvvcvvcvvvcczhhpddddiihkkcvccccczzkkkkfkkfkkkkkjstuuuuruurudddjdhkhapppaypuuuuuuuuuwtuuuwruwuuuwiwutyttyurrywwwuwyuw7wwuywwq0952<<555<<2555955562>12,,,2,111111111,<22<<55212222211,:11112<2885890000wwtww0erw0e00rw0wruuuiyyiiiyiiiiyiiyyuurr0www00000rryrrrisiiiiiyyr0r0rrryi",
"vccvvvvccvvccvckhcfppdddhkkcccclzkkkkhhhhhphkkhhdddddidsssiuurw000098952525899509669965990990000wwwwwww0e000rwwwwryryruurrrrrrrrwwwwywwwwwyrwywwwwwwwwq0966996225522552266666565666900www0000rrruuwwwtru00000wttwwwwwwww0r0955556666544<>:1:>1::1::::1::,22821,,==217ppipappdpppsssuuuuuuiuuiippppappppphapppipiddpssddipppsppppidpsippsppppppppiiipiipippapdddasppppiiippipyppiiyyiiiiiiiiiiiiipiyiiyyippippiiyrissidpppipspdppspadkklkkkfkklllzzkkzkkajhkhkzckjkhhddhkjkkkzkzkkfhkklkzkkzzlzzkkzzxvvvcvvcczzfzzzkzzzzzzzzzzkzzczzcxvvvvvvvvvvvvvvvvvvvvvvvvvvvvvvvvvvxvvvclfdpyyr,26663233337q00wqqrq0066rrrrrrwwrr9337rw7yuwrwww7766966666632822,1<211,,,111,1<338322212332222<2<222269kcvvvvvvvvvvvvvvvvvvvvvvvvvvvvvvvvvvvvvvvvvvvvvvcvcvcccccczzzklxkkklkkklklzkllzzkzzzzzzzkkxcccvvvvvcvvvvvvcvvxcvvcvccvvvvvvvvvvvvvvvvvvcvczzcvcvccvcczckhjkkkddkppdckcklkllzzlzklkcfzckcczkkkzzzzvvvvvvvvvvvvvvvvvvvvvvvvvvvvvcvcvvvcvvvccccvvcczkhhdppdiipphzcccxcczzfkzkkzkkhhhkjkdriqwrruurwujkkkkkkapiipppiyyiyyuiyuyutyuwwiwwwwwiuuuyuuuyrwryrruwrwwwwywywww95255665<<<2<9585622<2,,222,211111111><8852251222221211:,1,18,12824690wwwwwwwwwwwww09w0000wrtyiyiiyiiiyyyyiiiuyrrrrwwt0t0wwwr0rtissiiiyius0r0rruyr",
"cvvvvccvccccvvckfckppppdhhkkccclzkkkkdhhkhphhjhddgddsddissitrrww009995525558959999885589990000trw0weew0900ewwwwwyrwwrruurwyyrrrywwyywyyrwrrwwwywrqwwwww09636932<552255556665533566690000wq00rrrrswwwwyww89999000wyywywww0005599595888655211>11:::::11,:::28521>>=,229spppahdhpppssutuuuuruuiippppphhapppppphppppsddidsdipidpppppiidppppspppppapppipipiippppppadpspiiiiiiiiiiipyiyiiiiiiiiaiiaiiipippiiyiiiippiiwrisipdipiippppppsshhkkkkkkkkkkllzkklzkfkhkhkkzzkkhkhkjkkdjkzzkkkhfkkkkkkkzzzzkkkkkzcxvvvcccczkzzzkzzzxzzkzzzkzzzczzcvvvvcvvcvvvvvvvvvvvvvvvvvvvvvvvvvvvlczhdiuuwiwr<9q799888226w60qwwww0629rrwutrerrr9999wwwuiwwwwwq6266666666622212221211,,1111,,<<22<21<2<1<22322<222232gcvvvvvvvvvvvvvvvvvvvvvvvvvvvvvvvvvvvvvvxvvvvvvcccvvvczzzzzzzzlkklkkkkkflkklkkzzzkzzxzczkzzxccccvccvvcvvvvvvcvcccvcvvcvvvvvvvvvvvvvvxxvvvzzkzvcccvvcccckkkkkkkpkpppckckkkkkzlkzkzkcfcckzczkkkkzzzvxvvxvvvvvvvvvvvvvvvvvvvvvvvvvcvcvcvcvvcvvcvvcxccfhppipyupppkczzzccczkczkklkhhhhhkkdtsrw0wustwudjkkkhhhpppaayipiiiiiyiiuwytutwwwwwyywyttuusytyrrrruuwywwwwwww0ww75<565884424455996522>:=<2,222111111112255258222221111::11111,<22224800wwwwtwwewwrw090e0000wriyiiiiyyiiyiyiyyiuuurrrwr0w00trrtyyiiiiiyiyuuuu000rri",
"vcvvvvvvcvvcccchkckpppddhkkckcckkkkkhkhhhphhhkhpdddddddssssuuu0w000995552555595900998559000000r0ww0w0000w00wwwrwwwwurrrrryrwrrurywwwwrrwrwwwyywwwwwwqww06666932<62222565365366559666000000wwrrtiuutuuuww99999wrry0wwwwww90955998999999858222111::1:11,:;:,5821,1,:2<6iippahhhpapisuuuuru0rruippiyppppppppppapphpdiididdpspspghppipipppddppppppppiiipipiiyppapppippiiidpipyiiyiiyiiyyiiiaiiiiiiiippiipiyippippsuwrissidpiippissdsddddkhlhkkflllllzlkkkzkkghhkkzzkhjkkkjkkjjzzzzhkhklkkkkzkzzzzzzlkzzxvxcvvccckkfzklzzzzzzkzzzkzzzclzcvvxvcvvcvvvvvvvvvvvvvvvvvvvvvvvvvvlfituwwuiiiri<q656999976566wrrrrw9229trruuw97er9wr9rrriirwwwq7622666237962811111218111111122<11112,,1<1,22932222222>icvvvvvvvvvvvvvvvvvvvvvvvvvvvvvvvvvvvvvvvvvvxvvcvccvccxxzzkzzzklzzklkljhkkkkkkzzzzxxxzxzzzzzczcccccvvvvxvvvcvcvvccccvvvvvvvvvvvvvvvvxvvvczkzzvvcccvccczjhkjkkdpkippzkklklkklklxkxkczcckcclkfakzzcvvvvvvvvvvvvvvvvvvvvvvvvvvvvvvvcvcvcvvccccccccvvckhahpdpippidzzkzcczzlczkkzzkhhhjzkdtduurrusutuispkhkhdppapayipiipiiisiuuwuyyiwuuwwwiyyyuuuuyrrwruurrwwywwwwy7ww63>3546866889259962552,:,,,211811112221<456852112182211:,,111211588659erwwwwwwwewru09000w00wryiyiyiiiiyyyiiiitiyrrrrw00ww0wrrrwriiiiiiuyisuurr0yri",
"cvcvcvcccvccvvckkkhppapddhkkckclczkkkhadpppphhhpddpddappiiiiur00009555258829999999968566890000r0e0wwww000w0wwwewwyywuurwry0yrrrwywwwwyyywwwwwwrw0000qw0q6669933,32122122355665565669790w0wwwwuuuuwrurrw0000000r000r0t0000002899900999596811111::11111:::::188666,<<26wpfkdhkaappsipdiyuyuyuyiyyipiapppppiiaahpppidddpppippspspppipiiisppipdiddsdiiiipiddddddididiyissiipiiyiipyiyiyiiyiiiiiiiiiiyyipyiyuipisiuuuyiissssiiipppippppddhkkkkkkzccczzzkkkkkkhhhklkkkkkkkkkkzzlzzcckkjkklzzlzzkzkzzkzkzzccvvccccczzklzzxzcczzlzzzzkzzvcccccvvcvvvvxvvvvvvvvvvvvvvvvvvvvllaayyiriyiiyyiwu266969q9969960qwrwwww669rrrwrwwwrrwrrw0w9wrrwq96766668322672=1113111,11,,,111322,,<<22,,2343532<595252;ivvvvvvvvvvvvvvvvvvvvvvvvvvvvvvvvvvvvvvvvvvvvvcccvccvczzzkklzzkkkklkkkzkkjhkkklkkzlzzzlzzzzzzzcccvcccvxvcvcccvccvcvvvvvvvvvvvvvvvcvcvccxczzcvzcccccccccckkfkkkiddidcjjkkkzlzzzczzkkfzcxzzkkkkzzzcvcxvvvvvvvvvvvvvvvvvvvvvvvvvvvcvvvccvvxxvvvvvvcxczzfhdsiissiiddhkzzllllkklfhkhhddkkhsuuutuituussppkkhkdppdddudiuuiiiisiwtuuutyuwwywwwrytuuuuirrrrrrrwwrrrwryyq099963355289564988513332,::<21,11111111<2<>485<21<,111211:11,1112225889000wwwww0yrww7wr00we00wwwwriiiuiaiayiiiiuuutuuurut000t0ttrryyrtrry0tiirw00000",
"ccvvvcvvvvvcvvckklhipppdhhkckcclkzkkkfdakhpdkkapdddappppdiiurrw0009955522228558995899668000000wt0w0wwe0900w0ewwwwwwwuwurrrrrrrrrwwywywyywwwqwqwwww0r0rw0666666<,2332322255366353366999wqwwwwwuwwwuywrrrww000000r00t0w00000858990099899862821111::111:1::;:128889292524yidkhhppppiiiiiuyiyuyppiyipippppppaiadpappiisdpssipppspppppippppspppppdiiippppipipddiipidiiiidppippyiyyiiyiyiiiiiiiiiiipipyppiiyyuiipisuuwyipiiaisipipsppsssppddhkkkzzcccxkllkkklhhjhkkkkkckfkfkkzzzzzcckkhkkkkkkzzlzlzkkzkzzccvvccccczkzkzzzzcczzzkzzzzcccvcccccccvvvvcvvvvvvvvvvvvvvvvvvcfaaiyiiiiyiyuyiiui36667999669760rrq9966369wrrrruww7w7ruwww97eewq96663363836662<11111111,,,,=1112212<<<,3,,<<226222462<5<0cvvvvvvvvvvvvvvvvvvvvvvvvvvvvvvvvvvvvvxxvvvvxlvccccvvczlzkkzzzlkxkzkkkjkkkkjkkzkzzkzklzzzzzxcczccccvcccccvcvccvccccccvvvvvvvvvvvvvcvvccvvzzcvcccccccccczkkkhfkdkkidczklkkkkzzzzzzzzzcvczzzhakzzzcccvvvvvvvvvvvvvvvvvvvvvvvvvvvcvvccvvvvvvxvvvxvczzczkfhsiiidpiipdkkkkkkkkhhhhhhhhhkkstsuuiusisuisyypkaddphkddudiiiidppsiuwuuuuuwwuwywwruuuupiiurrrrruww7wwwrrwwq9996656225696546881211:,,2<2<<21,::1112224<984111,112111:11,1221225565600errwwwwwyw0wywwwww000wy0iiyiuyyyiiyiiiuuuuurru0t0r00rrrriiirrrrrtrurr000tr",
"vcvcvcccvcccvzzhhkaiphdhhhkkklkczklkkhadhpphhhppdddppddpddsu000w00956225225899999695699900rw0rw00000ww09w00wwwwruuwwrrrwy0wrruyuywwywwwwwwqwwwwwr00wrqww9669932,1232322365666534669999qwwwwyuuwurrwuryywww000rr00000000000959999996999952211=1:1:111111:*;,1245w3752><ypkdhdppppdidspyiiiiidpiipiipapppdpppppppaiiidsppiipsiipppiipiippppppdippipppiiiiisididipppiiddiiiyiyyyiyiyiiiiiiiiiiiiiiiiiipiuuuiisuuuuuiissiaaiiipippipsssddhjkkkzzzczzzzzkkkkhhhhkjkkkkkkkkkklzzklxzzkkfkkzzkkzzkkzzllzzccvvccvcczzlzkzzzxzxzzzzzzzlcccccccccvccvvvvvvvvvvvvvvvvvvvvlfiiyyyyiiuuiyiyiyurd6626999966q666qr9699669rwrqw0uwwwwwrprr9697wwwq63<<<<267q963311111111,,=,1188,<22221,21<<2<4526224<<5<jvvvvvvvvvvvvvvvvvvvvvvvvvvvvvvvvvvvvvvvxxvvvvvccvvcccczkzkzfzzzkzzkkzkkhkhkjkkzklzzkkkzzzzzzxczcccvcvcccccccccvcvcccvcvvvvvvvvvvvccvvcccckzzcczlccvcczczkkfkkkdkkddkkkkkklzzzzczzzzzzccczkkkzzzxvvxvvvvvvvvvvvvvvvvvvvvvvvvvvvcvvcvvvcxvvvxvvvcczcccczkdiiidisyipphkllkkkklkkhjhhkhjsriuuuuiuiusiuydppdddhhhppiiyiippisutytuuuuwywywwyryttiiiiuurrruwuw77wwrrwq99666664225568958088222:<282<<221,,,,<1252258621111111111:111122<2265666660ewwwwwwwywrywwwew000000yyyuiyyyiyiuuuruuuuurt00ur0t000riiir0uuu0rrrrt0u0t",
"cvcvvvvccvccvvzjhjhppdphhhkcckcczkzkfkakkkhhhhkpddpdpdapidiu000000996552258999999689990090wwrww000www009ewwewwwwwwwyrrrrrywwryurrywywwwwwwwwqqwwqr0w0rw09666932,11132322356565<3399990qwwyuwwuuyuruwyywwwr000000000r00000088999958699999211:1=1=:1111::==::,:>6w772<<4ikhhhhdappdidddpiiiyyipiiiipppppppdappppppiiidhppsppippiiiipisippppppipsipipippippiddidppiiiippiiiiyyiyiiyyiiiaiiiayiiiiiiiapiiuiwiiisuuuwiiaiisisipippisppsddhkhhkkzzzcxzzkklkkklkhhhjkhkkkkkkkkzzzklzzzzkllkkllkkkzzzzzzzccccvvvccxzzkklzzzzzzzzkzzzzzxcccccvcvvvvvvvvxxvvvvvvvvvvvvvzayyuyyayyiuuuiyiyiiei6666666636665299629q960rrwrq6wwrurruurwq7699982<<,;,<26qq663211111111,,,,1111,112322122322225255<42<<2vvvvvvvvvvvvvvvvvvvvvvvvvvvvvvvvvvvvvvvvvvvvvvlvvcccccczkzzzzzzzzkzzzkzhkhkhkjkklkkzklzzzzzzxzzzxccccccccccccccccccvvcvvvvvvvvvvvvvvcvcccczkzcczccvvcczzkkkkkklkzkskckkkllklzzzlzzzzkzccczzkkcczccvvxvvvvvvvvvvvvvvvvvvvvvvvvvvvvcvvccvxvxvvvvvcccccccckksiidddpisphkllkllkkllkzjdddhs0utrrrrrwwtiyyiiiipdhkfhpppiiiidpiiuutiiuiuuwwtyweryyuiipsiyyutuuywwwryyqw0966663625266996909882<<<25882,2<<<21<282245555181111111:1111121<224255666690wrywywwrwwtwwrwtr0w09yrryiyyyiiiuiuuuutuuuuu000r0r0rrisit00uttwrryuu000",
"cvcvcvcccvccccchhkppdhpdhhkzkzckzkzlkpfkhkhhjdddadapppadidiuuy0099966525222569669968969900r00000w00www000w0wwwewywwwrrrrurrryyryrwywww7wwwwwwwwww0w0wwwq6666632<==3322224363633<6699000wwywywuutuuwyytwrr0000000r0000t000066009995669976111::::::11:111::::>:,8wwt52<5iddkppppppipppppiiiiiiiiiiippapppaddppyappppsddpddppssipippspipiiiippiipipiipiidipiippppipippipipipyyipiiyiyiaiaiiiiiiiiiippipiiuriiiuiuuwiiipiiaisipisipppppdhhhkfkllkzzzkllkkkkkkhdhkkkkkkkkkklzlkkklzzzlkkllkklkzkkzzzzzzcccccvvvcczzlkzzzxzzzzzcccczzzcvcvcvvvvvvvvvvxvvvvvvvvvvhpiiiyuiypiiiiiyyiiyiyiwu3999266666965200666069rtrrrw86wuurrrrrw993322<;==;,<2<36683311111111,1111,118,2222822,2883222252<53<<0vvvvvvvvvvvvvvvvvvvvvvvvvvvvvvvvvvvvvvvxxvvvvvvcccccckczzkzkzkzkzkzkkzkkkkkjhkkhlkklkzzzkzzcccczzzzzccccccccccxccvvcccvxvvvvvvvvvcvvcvcccczcccckzccvcccczlkkkzkzchdhkkkzkzzlzzlczzczzzvvczzcccccccvvvvvvvvvvvvvvvvvvvvvvvvvvvvvcvccvvcvvvvxvvxvvcvvcccczkddppppdpsipakkkkkkkkaakkfdhdi0rrrrrrwwwuuyipyiupddkjhhhadddkhkiiuuuuuuutywuwwywrryuiidiiusiiiyyrwwyirwrqqq99665855569990000e812<<88621222828426545556411111,1111121,,212<22626065560wrwywrrrywrwwwrrtww00wrrriyyyiiuiuurruuuuuur00w0y000uiiytw0rrryryurr0y0",
"ccvcvccvcvvcvclkdkdipdpahhkkckclzkkkkkkfhhhkhkkdddppppdpsddsiy0099996552228895865695989600rt0tw0www0ww000w0ww0wwwwyyrrrruyrrrwwwwywwwwww9w9wq7wqq0000wq7666633,=222222223366655566990wwwywtyuyuuuuyrrryrwww000000000000000850999556689621111:::::111111:::,,<49ywt6556pphpappppapiiuyipyiippddippppppppdadpppppaidpdddpppppsiipipppppppiiiippiiiipiiiiiiiiiiipiiipipipiipiiyypiiyyiiiiiiiiiyiiiaiipiiiuriiiiiuuwyiaiissispipipppsspdahdhkkklllzzkkkkkkkkkjhkhhkkzlkkklkzlkkkkzzkkllkklzkkkkzkzzlzzzcvvvvcccczkkkzzlkzzzzcccccczzcccvvvvvvxvvvvvxvvvvvvvlzgiyyuyppiiyiyiyyiyyyiiyirr6999236666665269699qq90rrrrrwwyywruuyw9975<>><<;=,,<<2234381,11,,111,1111,11112,21228,233333224226535zvvvvvvvvvvvvvvvvvvvvvvvvvvvvvvvvvvvvvvvvvvvvvxvccccckkkkzlzzzzzkkkkkkkhkjkkkkhhhhkkkzzzkzzzccccczzzzccvccccccccvcccvvvvxvxvvvvvvccccvvccckczkcczzcccccccxzzzzzckzksjkkkzklkkkkkcczczzzccczccccvccvcxvvvvvvvvvvvvvvvvvvvvvvvvvvvvvvvccvcvxvvvvvvvvvcczcczjkdapppdsiiipdhkkkkkkkhhkkkkji0rr0rrrrq0wupippiuusddkhkkkjkkdhkituutuuuuwwywuturrusippppiiiiiyyrrwqryrrrrwq99665555468999990r6:82128621>2566588862685281111,,11211222,21222526555686906wwrwrwwwwewrrrurw000ww0uyyyyuuuuuuuuuuuusuu0yr0yutryytr0000tiruuirr0y",
"vccvvcvccccccclhpkhiadphhhkzzzclkllkkkkphhkhdkhkddhpppphdddssiw099966552288990006666868800r00ww0we0wwe000000www0rwwwrrryyrww0rwwywwwwwwwq999w99www7wwwqw9666631,3==32222<3666653660qwwwtyuyyutruutywrrrw0w000009000000980088995985999964111::::::111181::,,,<280wq6657pahddppppppiiuuipidisdddpdypappppdhddappppddsddpdppppppsisipsiiiiipiiiiiippiiiiiippipiiiiiiddippsyyiiyyiyiyiiiiiiiayiiiiiiiiipsturiiiiuuuuiiasiiapiipiipppppdpphpdhkkllkllkllkklklkkdjkkkhkkklklzkkkkzlklkkkkzzllkkkkzzzzxzzcccvvvvcvczlzkzlzkkzzzxzccccczcccvcvvvvxvxvvvcvvvcvckpuuiiiiiypiiyyyyiiyyiyiyiirt6w9999996666<<<26qqrrq0rrrr0wuuuwrww732222<>>2,<,,=,,22333381,,,,18111=,=,,11,1112222122236552553526ivvvvvvvvvvvvvvvvvvvvvvvvvvvvvvvvvvvvvvvvxvvvvvvcccccckckkzzzzzkkkkkkjkhkkkkkkkhklkkkkkzzzzlccccczzzzzzcvcvcvcccvvccvcvvcxvvvvvvvvcccccvcxckczkzccccccccczzzzzzzzzzjhkkkklklkzzzzcxccczzvcczcvvvccvvvvvvvvvvvvvvvvvvvvvvvvvvvvvvvvcvvvvvvxvxvvvvvcvvczccczzzkhdppdssiiippkkkkzkkkhhkkkgu0000rrrtrwtuyppyprusddhkldkkjddddtuuyuuuyuuwwutyuruuuupidpiiiiiiywwwywrrrqq999666588655669999006>821<282<5666665596566228111111111<<2222822225655556669990wwyywwywrrrrrtrt00w00yrwyyyuruutiururutiurrryr0rrryyur0000rtuuturyrr",
"cvvvcvvccccccvlhdkappppphhkzkkclzlkkkkhkhhkkkkkkhhppppapdsissiu069699925<<590000966999900rrw0t0rw00000000000000wwywyrrryyy0wwwywwyww9wwwwww9ww9qwwqqwwwq9666632=22222232446676652670qwwwtwytuuuyuutwrrrytwtww00000000009r052992999696852331::::::111111:11,,<4460q0655yppdpppppdddiuyidiisidddsdpapaappadddpppipspppssspphpsppppppppppiipppiiiiiyyiiididddiiiiiiiidpippiiyyyiiiyiyyiiiiiiiiiiiiaaiiissuussssityrissiisiiisiispppdddhhppakkkkklllkkkkkkkkkkkhhkkkklkzzkzzlkkkzzzkzlzzzlklkkzzzzczccccccvvcccczklkklzkkkzzzzcvccvckcvcvvvvvvxvvvvvcvvckhyyiiwuriiiyyiiiiiyyiiyiyiyiri39ww99996665<6420r090w0wuw00ryrwwww64<:><24<2,:=,,,<<<3342218,,,,111=,11==,11,11121,,882,267556563<qhvcvvvvvvvvvvvvvvvvvvvvvvvvvvvvvvvvvvvvvvvxvvvvxvccckcckckkzzzzkkkkkkkhkhhkkjkkkkkkkkllzzzzzccccczzzzzxccccccvvcccvcccvcvcxxvvvvvvccccvvcckkclklccccccccxzzzzkzkzkzkhzzkzzkzzkkklcccczzcvcczccvvvccvvxvvvvvvvvvvvvvvvvvvvvvvvvvvvvvccvccvvvxvvvvvcvcczccczcczkkpssssdpppyahhkkzkkjkppdhi08990wtiuyuuyyyyirrudjkklccczkhkdwuutwuutuuwwwiuutruuuuipiiiiiyyywwywrrryrrq69699989855669990006<82<<28129665288565562445211128111,228588222826665655690077wywwwr0rtrrr0rtrr0000r0y00wwuituuurruurruuirr00triiy00tr00riyrurrru",
"cvvcvcvvcvcvccchpkfipfhppkkzzzzkzzkkkckhdhkzkkhhddddddaddsddiyu069996565256999qq9696999090wwwwwwwewwwwwe00000000wewwwrrwrrwryrwwwwwwwqqq0wwww0w0w000wwwq366766<,21118=112228699696669qwwyruwuuutr00yr0r00r0rt0t00099999wtwt5299959998555811,===::::1<<12,,:18<<883669quddpppppppippiyipidpdddddsppddaapaapppdaapsippdddipppppiiiuiiiaassiayiiyiiiiiiiiapypypiyiiiiipisppiiiyiipiypyiyippiiiiiiiiiiiipippiiidiiyiipipiiipppipsddddadahhddkkkllxxzlkkkkkkkkllkkklkkkkkzzkkzzkcczzzklkllkllkkklcccczzzzxvvxcvczzzzkkzklkzzzzcvcccccckkccvvvcvvvcccvcgdppyyiiiiyiiiyiyiiiyyiyiyiiyiyyii9eqw69366652219ww0689r0ru0999288822<:1:1:1111,::,,,,,122222<1,,=,,,:111::1::w,,,:>,22232333252663359dvvvvvvvvvvvvvvvvvvvvvvvvvvvvvvvvvvvxvvvxvvvvxvvxcccccczzzzkzzkkkkkkkjkkkhkkkkkkhjjkzkkjkclklzkcczkzzzzxzvcvcvcvvcccccccvxxccvvvvvvvvvxvvllkkzkzcccvcccvcxzlkzzlkkkklzkkkzkkzzzzcczcccvvcvcvvcvvvvvvvvvvvvvvvvvvvvvvvvvvvvvvvvvxvvxvxvvvvcxvvvvvvvvvvvxxxxxcvvckppppppisiydkkzzkhkkppppuw790wwuuuuuuttuiiiiiiipjcvvvvczdpyywwwwtwwtwttittuyyyyiiippiippyryywrruurq0969666669966896900u0566245552266559584233322<,11121222<42<<22655288865855996699990rrrwrrrryy00rrrw000w0rrt0trtryruur00iur0uuuiityr0rrt00000tuuuuuur",
"vccvvccccvvccvzjikhiphpppfkzcczzkkkhkzhhdhpkhkkkkdddppppdddddpr66996655325667900ww99679990w00ww000w90w0w0wew0000rwwwerwwrwwrwywwwwrwwwqw0wqwqwww00009wq93669931,111281111222669666669qwwwwrruuuuyrryrryy00r0000000009000qww6296999999558181,,,:::1:1<<12,,:18,,896669ypgdddppppfphpiiiiiiisdddddpppadapppppapppadppsdaddippppiiiriiiiiiiiiiyyiyyiiiiiiyppiiiipipiippiiiiiyiiiiyiiyiipipiaiiiiaiiiiiiiiiipiipduyyiipiippiipipdiidddaahkhhkkkklzxzkkklkkkkkkklklkkzkkkzzzkkkkzzkzzkkllklkkkkklcccczzzxvvvxccczzzzzzkzkkkzzxvvcvccckccccvvvvvcvvvckstuyyyiiiyiyiyiiiyiyiiiiiyyiiyyiyyi7w7q3763666351295680wirr00889<2<221<,:1:11811,:=::,::112<221,,<11111:::::1>:3,2<,,<2<222366665663339svvvvvvvvvvvvvvvvvvvvvvvvvvvvvvvvvvvvvvvvvvvvvxxvcccccczzzzzkzkkkkfhkkkkhkhjkjkkkkkkkkkkkkkckkzkckzzkzzkzccvcvccccccvcvccvxvxxvvvvvvvvxvxxckllkzccvccvccvzzkkklzkzlkkkkkxzllzzzccxcccvccvcvcvvvvvvvvvvvvvvvvvvvvvvvvvvvvvvvvvvvvvvvvxxvvxvxxvvvvvvvvvxvvxvccvvckkppipddsiipdkkkkkddpppiiywwwwywuurtsuuyidiiiippkcxvvvczkdpiiiiuywyuywwiutiuiiiiipiiipppprwwwwyuwruq999999666899996600r06896685525665566843396932111222822222424562565448555566866900rrtrrr0rwryyyrrrrw0ww000u0rrrrytuurryrryruuuurrrw000t0w000wwtuurrr",
"cvvccvvcvcvccvkhpkapphphihkczxxzczkkzzkkhfkkkkczkdkddadpdsspkdu66666622555669900ww09999900w0w00w0w990e000w00000wwwwwwwwwrwywyywwqwwwrqrwqww0w0wq00009ww96666662111,2111822825669556600wtwrrruyuurrryrrrrutt0000r0q0009wwwqt6296099599685811,,:,::::1:<<<11:12<<836669iddfpdpphphppippiiiiiidddiiippdppppppppppaipippdddidpppppiiiiiiiiiiiiiiiyyipiiaiiiipipiippppppppiiyiiyipppyyyiyipiiiiiiiiiiiiiipipipipppiuipipipipppippddddsaaahhhakhkkzzzzzlkkkhlkkkklkkkkkkkkzkkkkkkzzzkzlkklklkkkklkxzzzzzzzxvxvvvczzzzkzzkczzzzccczccccccccvvvcvvcvvcdywwwyiiyiiiiiyiyiiiiyiiyyiyyiyyyiyyi67693q6366666669990wtt0095525:<2112<,1111811:,:==,==,122<1211112311,::**:<111122,<,2,<22257664563360dvvvvvvvvvvvvvvvvvvvvvvvvvvvvvvvvvvvvvxvvvvvvvxvvvccvcccczzzkzzkkkhkkkkkkkkkkkkkkhkkkjkkjkkkzkkcklklkkkzzccccccccccvccvcvvxxxvvvvvvvvvvxvclkkzzcvccvvcvcvzzlkklkzzkzkkkzzzzkkxzcccccccccvccccvcvvvxvvvvvvvvvvvvvvvvvvvvvvvvvvvvvvvvvxxvvxccxxvvvvvvvvvvvvvccccczzkpiidjsipppddkkkkdpappyyutwwwwrttisdpiddpiyiihhcvlvvvccchpiytyyywiuuuiiiyiiiiiipiipiphirwwwwwwywu096909696900w006989r090000998556566665883338332<22898216665255625968>4555566666900rrrrrwwwuryyywrurwwww0r000r0tyrwyr0ryy0uruuuutrrtr0000rr0000w0trrt",
"cvcvvcvccvcvccchpkpipppfdhkkzzzkzkkzkkkkphkkxkhhddddppdpssipddu9666654<2255699009999999900w090099909w00000w0000wrwwwwrweyywwwywwwwwrrwww0w0www00w000ww999369962111=11,112889666662660wwwywruutrwrrruurrru00r00e00ww0900qwww65960899999551811,,,11:,:<:,,11:,2<>969760ihdpppkphhhpiippyiiidissiiiypiappaippypppiiippsdspsippppppipiiiiiiaiiiiiiiiiiiyiiiipiipiipippsppiiypiiiyiiiypipiiiiiiiiiiipiiiaipiiiiippiyyiiipipiiipiiisddhsasddiphkkklzzlzzkkkkklkkkkkklkklfkzkkkkkkkzzzzkkkkkkkkklklzzxzzzzcvvvcccczzkzzklckzzzzvvczzzccvccvvvccvvvcjiuuytwiiiiiiyyiiiyiyiiiyiiiyiyiayiyiii423936666663369000009985<<<12<221<2<,1118111:,:==:,=,22222221,1211,:,=*::>261,222<2,,2222354<2532629dvvvvvvvvvvvvvvvvvvvvvvvvvvvvvvvvvvvvvvvvxvvvvvvxvcvccccczzlzzzkkkhkhhkjhkhkkhhdhhhhhhkkjlzkkckzlkkkzzzkzzlcccccccccccccvxvvvxvvvvxvvxvvvvkkkkzzcvccccccczzkkzzkklzklzzzzzzzzzzcccccccccccvcvvcvvvvvvvvvvvvvvvvvvvvvvvvvvvvvvvvvvvvxvvxvvxvvvvvvvvvvvvvvvvvcccccckpppddssiippphkzkkppppiytwwqwwywuisddddppiiipkkkvvvvvvvvkhpiyuiywuiwtuisuiyuiiiiiipsppurywywywwwr06699990090www00969w09rw008998866666566663369662539966289666226266655858886656669000r0wwwuuiyyywrruttww0t0tr0twwrwwy0ry0uruuuutuuuur00000r0t0000wwrr",
"cvvcvcvccvvcvvkhikaipdpdhhhkkcxxzkkkzkkkhhhzckkkaddsdiddssiippir965652255<2690w9667690000ww0000909990w99900w00wwrwewwrwwwwwywyw7wwwrqrwqw0wwwww0w00w9w90666696221,,111112899236629590wrwrrruuurrrruurrrrtt0000r00wq0000wwwq5<660696956551111,,,,:11::1,>1<,<2<496966wpppppppfhhphiiipiiippdddiiipypapapppppipiiiiisddidididippipsaiisiiiiaiiiiiiiiiiyiiiipypiipisspsspiiiyiiiiyiyiipipiiiiiaiipiipipipidpipipiyyiipipiippiippdddashsdpipkhhkkzkzzzkkkkkkkkklkkkkkkkklkfkhkkzkzzkkkkklfhkklzzzzzzzzzzccvxcclzzzkzckckzzclccczzzxcvccccvvvckkdiuruiwwyuyuuiyyiiiyiiyiiiiyiiyiiyiyiuuu22<526666652<25990952<22<<121228<122<18181111,===,,=,2332<3<,,=,,:::1==:1:292,2322,2,22225522122225wkvvvvvvvvvvvvvvvvvvvvvvvvvvvvvvvvvvvvvvvvxvvvxvvxcvvvcccczkkkklzfkkdkhhhhhhhhhhhfhhhhkhkhkkkckclzkzzkzzzzzccccvcccvvccvcvvxvvvvvvvvvvvxvxvkkkklccvcccvvcczzzkkzzzkkzkzlzzzzxzzzxzvvvcccccccvvvvvvxvvvvvvvvvvvvvvvvvvvvvvvvvvvvvvvvvvvxvxxvxxvvvvvvvvvvvvvcccccccckkkpiipdssiiipdkkhhpppiyrqwwyurwuiidhkhpppipdkkhvccvvvvvcchpiiyyuuituiiiiiyyiiiyipdpppyyywwwrrwwrr0097qww00rtutrw0990090w09099996699956666369qq9669729926666625555265852566666666690wrwurwuuuiiyuuturrr0t000r00rrwwwwyyruuuuuuuuusuu0t00000w00000e0rr",
"cvvccvvcvvvvcvchikpipdpdhhkkccxxvcccchhchiiiphjzkhkdsdddusdpiiss066662<542269009999999990ww090w09990000990000ewwrwwwwwwwwwwwwwwwqwwwrwrw0wqw00w0www0qwwwqq69763121,111122236625593990wwrrrrurrrryrrrryry0uu00000w0w00090qww2<660966652528111,,,1:::::,,:21<28<299660ypppphphhpfphdidppiiididddpipppppppippiiiaaiidddsdddididpiiiiiiiiiiiyiiyiiyiiiiyiiyiiipiipiiippppppippyiiipyiyiyiyyiiiiiipiipipiippiiiipiiyiipipipiipipiiiidahsaaahhhkhklzzlllzlkkklkkkklkkkkkkkkkzkkfkkzkklklkkkkkkzkzzzzzzzzzxcvvcccczzkkzlkccccczvcczzzzzccccvvvvkpu0riuuiwwwuiiuiiiiyiyiiyiyyyiiiyyiiyiyytiqw<526666652<5666595255952828<<1<122111818111,::,,,::<<21<<1,,,===::,::1,:,29383312<,22235663232256wzvvvvvvvvvvvvvvvvvvvvvvvvvvvvxvvvvvvvvvxvvvvvvxvvvccccccckkkkzkkkdkdkddddhhhpphpphhhhhhhkkkkkcczzzkzzzzzzccvccvcvccccvvcvxvvxvvvvvvvxxvvxvcfkzlccccvvccvcxzklzkzzzzklzkczzzcxzxccccccccccvccvvvvvvvvvvvvvvvvvvvvvvvvvvvvvvvvvvvvvvvxvvvvvvvvvvvvvvvvvvvvvvvcvcccczzkpiipdjdsiipppkdfpppyyq0ruiiuuuuidkkkkhhphkkhhlklcvvvvvckpiiiyiiiyuiiipiiyiiiiipppppyrrrwyrurytuutwqrurwrwuuturr000660009000999669999993669999w999999966666265624259555565586565690wwurruuuiiutuuuurrwu00000r0ww0w0wyyiuu0rutiuustuu00000w0rw0000rr",
"cvcvvvccvccccczhiaaippddhhkkcckfkhdhhipdq557w0qwiiiidsgdssdipiiuq66665<522257w00999999990ww090w09990ww99900e00ewrwwwrrwwywwwwwwwwwwwwrww0qwqr0qwwwqw0w999969q631211111,12222662256690wrrruuuurrr0rrrrrtrtuu0r090000w999999q52656265555258111,,,11:1:,,<<<2<555200520ipppphhphpppdddiphpipiddsiiiiippppppaiaipiiiipdsdddddidiiiiiuiiiiiiiiiiiiiiiaiiiiiiipiiiypipipippipiiiypipyiiiiiiipiiiiipiaiipippppppiippiyiiiiipiipppiiiiddshahhhhhkjhlzzzllllkkklhkkkkklkkzkkklzfkkkkzzfklkkhkkkkzlkzzzzzkzzzzvvcxcclzzzzkzzzccccczccczzzzcccccckjiuw0uuuttw0wisiiyiiyyiiiyiyiyiiyyiyyyiyiiyiiu2236653553<6666559558821111<<21228111111111,==,,,,=1<<,,<,,,===:::::,,,1,1223632,1112226667332237ivvvvvvvvvvvvvvvvvvvvvvvvvvvvvvvvvvvvvvvvvvvvvxvxvcvvcvccczkkkkkfddddddddkahhhphphhhhhkhhhkkklklkczzzkkcczccccvccccvvvvvvcvvvvvvvvxvvvvvvvvkhkzzcccccccvcczzlkzkzflzzzzzzccccczccccvcvccccvcvvvvvvxvvvvxvvvvvvvvvvvvvvvvvvvvvvvvvvvvvvvvvvxvvxvvvvvvvvvvvvvvvvcccczzzjhppddsdppppippppppuwwwqtisiuuiddjhkkjhhhkkkphkkcvvvvvxzkkpppppiiiipippiiiiiiipppiiiyrywrururuuuurrrurrrrwuuuruw09970000ww0090969900066666699q09999998696555655225685266669666566990wrwwrwryiiuuuuuurt0u00tt0ywwww7ywururutuuuuiuut00t0000t0w000r0",
"cvvccvvcvvvccczkihpiphpdhkkkzkpit07qw55wq77wwq67790yuisdssdpppiuq65662<55<259q0979909000000099009900000900w00000wwewewrwwwwwyww00qqwwwqw0r00r0w0w9900099qq976631321111,28282626522800wrwrrrrurrruyrrrrru00tue0990w00099937w629256655222228811,11:::1,,,,12259<50054wppphkphhhhhpsddiphhyisiidpiiaipppapppaiiiaiiiipiiiiiddiiiiyiiisppaiiiiiipiiiiiiiiiappiiipiiiiiipiiiypipyiyiyiipyiypiiiiiipiipipiipippipipiyyiippippidididiiihssasdddkhjlzzzkllkkkhhhkkkllkklzzkzzzzfjkkkzzzfkklkklzzklzzzzzlzkzxvvvccvzzzzzlkzcccccczzccczzzclcczayyyuiurrrrt00tiitwyiiypypyiyiyiyyyiyiiiyiyiwiuy<2367522763226652<>252<,11:2822111111111=18,,=:,,:,<<<,,,<*1,=::,:*11::2,:22332,2222113666688225whvvvvvvvvvvvvvvvvvvvvvvvvvvvvvvvvvvvvvxvvvvvvvvvxvvvcccccczzkkffhakdddkkdkhhpphphhhkhhhhhhhfkkkckklkkkzlzkcccccvvccvcvccvvvvxvvvvvvvvvvxxvchppkzzccvcvcccvxxkkklzkkkzkzzzxcccczzccccccvcvcvvvvvvvvvvvvvvvvvvvvvvvvvvvvvvvvvvvvvvvvvvvvvvvvvxvxvvvvvvvvvvvvvvvvvccczzzcckppsssippiiiippdpuyr000tiiuidkkkphkjjhppddkddkzvvvvvcclccccdpiiiddpipdpiyiaipiiiipiywwruuuruuruuurwrrrwwwuuuiuw099yw00ww099w96600000096969900999959999966252252556956666996666690wrrwwwwryyuurruuuuuu00000uwwwwywwwr0u0uiursusiu00t00t000w000000",
"vxxvxvcvvcvccvckpdduusdppklkcvg8009900007qwwqw0werr099rtsut000952566654255569w999000000000999900009990069099090000wwewwwwwewwwwwwwqwrrw0qq0000q0wqq79wqw6639633<2,,2222,22<2565525690wwqrqrrruuuuruuurur0r00r00900000009600655552656632232<,111,,1:,:,12<,<288850wwwpdpkhhhhhhphjdppphhpiippddddiipppppiiiiiiiipiispdidipiiipiiiiiiiiiiiiiiiipiiiipipipyyiiiiipiipiipyiipiiyiyiyyyiiyiiiyyiiiiiipipipipiiiipiiypdiipipipiiipdiipdhhdpiidhkkkzcczkzlkkkkklkkllkkkkhjklklkkzzzzzkkkkhklkkzzxxzzzzzkzzcxvvvvczfzzzzkzzccccccckkjkkcckjipyiyrrrwurruwwtuuiiuiyyiiiyiiyiiiyiiyiyiyyiyyyii3<5356q56q222888,,,11888118121<122282221::11*,=<::,:::,:*;1,::*:::*:::::>,,,23<,,22226666662328875kvvvvvvvvvvvvvvvvvvvvvvvvvvvvvvvvvvxvvvvxvvvxvvxvvccvcccczhhhkhhhpddjkkkddpfhphhhhdhjkdkdkkjkkkzkkkzzkkcczcccccvvvcccvcvvccvxvxvvvvccvvvcvckkfkzcccvvcccczcczzzkklkkzzccccccccccccvccccccccvcvvvvvvvvvxlvvvvvvvvvvvvvvvvvvvvvvvvvvxvvvvvvvvvvvvvvvvvvvvvvvvvvvvxcxzzcvvvkppipddsssiiidduu0wr090uusuiddphhkhhkphhhpdhkkcccvvvvckkkkkhiiippippiidiiiiipiiiiiyyuuiyyusurrrrwwr000tuyytuiuy0990000w000009996999996399699899995699966982<2588281608598669996990wruuyyyytiutuuuuur00u000t0000r0rr0uuuiitrtir00ruww0w0w0w00000",
"vvvvvxvvcccvcvvjpdddddkdhhklkdr8099990009wwwwqqw000rr000995555522666652252569909600000999996999909990000990000000wwwwwww0wwwrewwwwwwqw07079900wwq7wwwwq99996q6532<,222,2,,<2665252560wrrwrrruuuuyu0uurrrrr0r0r000000000999905>562526665622,,:1,,,:,:1222822898896wwyidppshhdpphphdpphhppiippdpiipyypppppppippiipipidididpipippiiiiiiiaiiiiiipippppiiiipipiippipiiiippppipipiipyyiiiyiiiiiiiyiiiaipipipiiiiiiiiypiipipiippiidspidddhdpphdhkkkcczzklklklklkllkkkkkkkklkkklzzzzzkkkkklkklzzzzzxzzzxzzzvvvvvcczkzzzkzzzlvccccckkczzkcjdiyyiduurrw000ywuuiuuuyiyayiyiiyiyiiypiyiyiiyiyiwt><2756q7qq<22281,,11:881111122211228<88,::=:=,===,:=:=,<==1,:;*::::,=:*:111,332,<21256655666339355hccvvvvvvvvvvvvvvvvvvvvvvvvvvvvvvxvvvvvvvvxvvxvxvxvcccccclkkkhkhhhdkdkkdddhpphhpphhddkkdkdhkjkkkzzkkzlkzclcccccccccvcvccvvxvcvxvvxcvvcccvvckkfkccvcccccczcczzzzkkkkkzzcccccccccccccccccccccvvvvvvvvvvvxxvvvvvvvvvvvvvvvvvvvvvvvvvvvvvvvvvxvvvvvvvvvvvvvvvvvvvvvvccclccvvzdppppdssuiuissuw00r00rruuidddhhhkhkhphphfkdhjkzccvvvvvcckkhppipipppipipdipiidpppiypyppippuurrrrywrr0ewrrruuuury79000we0r0e0996699w996666999999992699895591122822866968966599566990wutiyiiwurruuuuruuu0t000t0000rrrrrururirrt00t0ue0w00w0r00000",
"xvvxvxvxvccccvckipappddpddkvky0r0099900099qwwwww000rr00999999999566672422255990966690096999795990969900000000099000wwwwwewwwwwwwrrwrrw0096790rww79qwww97669696652,,2221,:,,2362252290wrywwrrrrrr0urruuruer0rer0000000990099w9<<6226666662<,>,,1,,:,12222228882896qwwidpphspdphhhhhhpphppipipdpiyyyypidpipiipipppdiddppsippipiipiipiiiiiiiiiappspiippppiiipppipiiypiiipiipyyiiiyiiyiiyiiiiyiyiiiiippipiipiiipiyipipipiipiiiiddiisddhdadhkhkkzccczlklkklkklllkklkkjkjkkkkzkzzzlzzklkkkzlkzzzzzzzzzkzccvvvxvczzzzzzzzcccccczzccckckdpiuyippuurrww00uuuutuutyiyyiyiiypyiyypyyyyiyiiyyiwi>63936q793,2121,,1,,1881:1:1212<<<28121,:====<==::=*:=:<=11=:=*;:,::=*::,11,232,222256622966339365hcvvvvvvvvvvvvvvvvvvvvvvvvvvvvxvvvvvvvvvvvvvvxvvxvcccxcckkkkkjhkhhkdkkkkddhpappfhhhhdddkkkhjhkkzkzkkzzzczzcccccvvvcccccccvxxvxvvvvvccvvcvcvckkkzccvcvvcccczzkkkkklkkzzcccccccccccccccccccccvvcvvvcvvvvvvvvvvvvvvvvvvvvvvvvvvvvvvvvvxvvvvvvvvxvvvvvvvvvvvvvvvvvvvvvcvccvvczkdipdssspiyiurwr0rrruu0uiddjhhhkphhhhhhhddkddkzcvvcvvvckpfkppiipdpppisdiiddipiiipppyiippsurrruwwr000wrwwwuuuyr0w000w0r00009909999979666999899999989996952112228568969098666566660wuiiyuiwwuuuuituuyuuu0u0000rr0r0ruurutitr00t0t00w00000000090",
"cvvxvvvxvcvvccckpahppddpjkcch00ur09000000wwwwuwwrrw0000099588999556663<<5556900006690006999999900990600000000009w0wwwewwwwwwwwwwrrwrqw0076900www9w7qwwq799999q672,,<2,,2,,,<334455260qwtrwrrruuuuuuuruu0rrrrr0000000000009000222666666662,,>:,:1,,12296522281<187wwtpiiphipppahhhhkphfhppiipppiwyypyippipiiiiyiiidpiipipppipppiipiiaiiiiiiiiipipppippipiiiiyiiyiiiippiippppypyiiiiiiayiiiiiiiiiipisiippipiippiiipipiipippiisdppdpdhhadhkhkkzccxkkkklzkkzkkkkkkklkhkkkllkzzzzzkzzzkklzklzzzzzzzzzkzcxvxvccczzzzzfccccvcvccccccckdyuyipyuyiuuuuuuuiuuuytutiyiiiiiyiypiiiyiyiiyiyyiyiir376q766352:321,,=1,=:2811111221,::,2,81,::==<=<<=,=*<==,,11,1:;*:::*::::,,,,:<,:122326522566338352hccvvvvvvvvvvvvvvvvvvvvvvvvvvvvvvvvvvvvvvvxxvvxvvxvcccccllckkhkhkkdkddddddpppppppphhkddddkhhkhkkxkkkzkkzzzcccccccvcvcccvccvcxvvxvvcvvcvvvccczkzcccccccccccxzxkkkkkkzzcxcccccvccvcccccccccxcvcvvvvvvlcvvvvvvvvvvvvvvvvvvvvvvvvvvvvvvvvvvvvvxxvvvvvvvvvvvvvvvvvvvvvvcvccccckckppdddsdiuur000wtrriurridddhdphhphkkhhhkddddhhkvcvvvvcchfkkhippdpdiddiiddidipippiiiiiyiuurrrurwrrrwwrrruuuuyrwyww0000wr00000000q9936369995999999996899252565258909900099969966660wiuirruuuutuuuyuuuuuiurure0rrrrruurrriir000u00r00e0000e0000",
"xxvvxvvvvcvccvvkphhppdkjdjddu00000900900000rrrrwwrw09999982689586636632<25669qw900900w0997999997000060000000000900e00wewwwwwwwewerrqyrw7907qwwwqqw007q999399999q31,<21112111222<625660wwrrrrrturrrrrurrrrr0ewe00000090000000006:5666666232,,:,,,,1126652925221290wwwiipphhihpphhhkhphhhpppiphpiiiiiidisipyiyiyyipiipiiippiiiiiiiiiiiiiiiiiipippppdpipipppiiyyiiiiypipippiiyipiyyiiiiiiiiyiiyiiiiipiipiippiipiyippipiipiiiipdsdsdadadaddhhkkzxcczkklklzkllkkkkkkfkjkklkklklllklzklkkllkkkzzzlzzzzzzzxvcvvxzzkzzzzccccvcccccckkddiwypipyyuuiiusuisuuutuuuiiyyiyyiiiiyyypypiyiyiyiyyiy35276967263;<11::,,,=18881111221<::<2,,,::=:===1===,,<==,,<<1::+::::*::=::,,,:,,>222266522556238232hzxvvvvvvvvvvvvvvvvvvvvvvvvvxvvvvvvvxvvvvvvxvxvvvvvczzzzkkkjkhhkhhkhhdkddppphhdpppdhdhddkdhhhjkkkkklzkzzlcccccccvccccccvccvxvcvcvvvvcvvcvvcczzcvvvcccccccczzkkkfkkkkzlcccccvcccvccccccccclcvcvvvvvvvxvvvvxvvvvvvvvvvvvvvvvvvvvvvvvxxvvvvvvvvxvvvvvvvvvvvvvvvvvvvvvvvvvcvckcckdppdkdiyu0000wtrruurtisdsddddaphhhhhhdkdddhdkkcvvvccckkkkhhppddsspdipspipiiiyiiiyyiyiiuuuuuwwww00wwyuuyytrwwwtw0000rr000we000qqq66696959559999958996566665556009e999e60969666660wsttruiuruurruuuuuiiiut0uur000uuirrtitr0t00u0wwe0w00000090",
"vvvxvvxvvcvvccvdpdhy00rr0ur000r000990999900rrrtr0wrr09999999990966556622<2257900r000w0099999999900e0000900000000w0wwwwwwwwwwwwwwrwqryqwq0qwqwwwwwq00q97q6999999932,,21228,11222<522560000rrrutuururuurrrrwr00000w00000000q00qt0:52666652332,,,1,11235555882211220qwuppipisishhhkphkphhhhpiiphididppidipipyiiiiipyiiiiiiiipipiiiiiiiiiiiiaiipippiiipspiiiiipipypiiippipypiiiyypiiiiiiayiyyiiyiiiapipsippipiippiipiiippipdpiiiddpddddddppphkkzzzzzklkkkkzzlklkkhkkhkkkkkzllklkkkkkzkkkkkklzklkzzzzkzcccvvxzzkzzzzzcccvcccccckjdpuupyyiypiiuiyiiiiyiuuuuiiiyiyiiiiyypiiiyiyyiyiyyyiiyt>6<qq69w696::11:==,,=:21111128221<<<<:,,::::*=<2<=,=,<==,=11,*:;;=,:;*:=::,,,:2<,221<25522562539256kklvvvvvvvvvvvvvvvvvvvvvvvvvvvvvvxvvvvvvvvvvvxvxxvvczzzklkjhhhhhhkhkhkdkdddppppdahddhpdddkhhhhkkkkkzlkkzzzccccvcvvccccccvccxxvvvvvvcvcvcvccczzccvcvcvvcczzzkkkkkkkklkzcxcccccvvcccccccccczcvvvvvvvvvlvvvvxvvvvvvvvvvvvvvvvvvvvvvvvvvvvvvvvvxvvvvvvvvvvvvvvvvvvvvvvvvvvvvcccckddiiddsiur0y90r0riiriiddsdkhdpphfhhhhakhdddkhhzcccckkzkkkkhhidissdsdidipiiiiiiipppiiiuuwwuryw0wwwwtuutrrwwwwww0w0000r00www00eqq69663989999959999995850699655699ww989066669668666wippurrrrurrriyuyuuuiiuuuruiu0rurrriiuutr0000www000e000990",
"vvvxvxcvvcvccvckpjdu5<2229990wru009099990000rtrwww00w096652255966666665242266000www000999676959990ww0000009990000wewwwwrwewwwweweqrwrwwqq99qqwwwwww0wq999999699q82,<12222221222<225590w00ewrrurururuuru0wrr0000r0w0000000ww0wre9225699329321,,,122862<2521221112570tppihidhhhhhkkkhhphhpppppiiiiipppipiipiyiiyipiiiyiipppiipaiiipiiiaiiipsiipiippiipipippipiypippipipiiyiiyiiypyiiiiyiiiaiiiiiaiipippiipiiipiiiiidpiiiiiiidddsddppddpdpppkkzfzzfkkkkkzlkklkkhkklkhkklklkkklkkkzkzkkllkkzklklzzzzzccccvxxzzzzxzzzcccccccckkkpiyyyppyyyippsiiiuyyuutuuyiyiiyyiyiiyiyiiiyyiyyiyyiyiipy,739w6ww233>;12,::::=:181,1,221<<<2<,:,1::::*=<,<,,=,,:,<1,,,+:::*:,::==::1,,>21,22><<5255562639270cccvvvvvvvvvvvvvvvvvvvvvvvvvvvxvvvvvvvvvxvxxvvvxvvvczkkkkhhhhhhhkphpahpkddpaddkphpppphdkddhhhhhkkkklzzlzzzccccccvccccccccccvcxcvvvvccvvvvvczzzcvcvcccczzzkzzkfhffkckzzcccccccvvcvcccxzccczcvvcvvvvvvvvvvvvvxvvvvvvvvvvvvvvvvvvvvvvvxvvvvvvvvvvvvvvxvvvvvvvvvvvvvvvvvvvvvcccckkkpiiidpuur0990rwtitsipddkkddpdppphphadkdddkdhhklkzckxkkkkhdphdddddidipiiiiiiipiiiiiuiruuuuwwwwwwrryuurrwww0rwwwwww00ww0wwww07q966666559999999999865969009669e99w9669666699886650uisiwwrrruruyyiuiuuisiuruuyyuruurruutitr0000ww0wr000r0900",
"xxvvcvvcvcvccvchijku95289000r00qr00009999900wrtwur0900099969999966539755255600wqwww009799796959969ww00000099600000wwwrwwrw0wwww0rrwrrwqqw997wqwwwqwwrw9939999699922,12121112222,255600qw000rrruru0rruuuuerrw0000ww00000ww00q09ww<5679999q821,,1122965226211221>1250ihhiddishhhhjpkkhhhhhddiiiippiyiyiiyyiiyipyyipyiiiiidppiipppiasspsiippipiiiiiiipipiiiiyyiyyiipsippyiiyiyyyiyyaiiiiiiiyyyiiiyipipiipiippippiipipipippipiidddsdpppdapppdhkzzzzzkkkklzkllkkkkkkkkkkkkkkllkkkfkkkklkzzkkzkkkkzzzxzccccccxzzzzzzzzczzzzczzjkkdiupduyiipiiuiiuiiipiiiuiyiyiyiyiiiyaypyyiipypiyiiyiy7pw799669eq;;<:,811:=:::=:11,,221<:,<1::111::1:+=,,==,,===,<1,==>1::*:::,::=:::=:<<,21<<<<22266566829qcccvvvvvvvvvvvvvvvvvvvvvvvvxvvvvvvvxvvvvvvvvvxxvvxcckkkahhhhhhkhpkppppppppdddddapkppahddkdhhjjhkkkkkzkzzzzccccvccccccccccvxxvvvvvvcvcvcvcccczzvcczcvczkkkkzzkkhkkkkkklccccccvvcvccccxcccczcvcvvvvvxvxvvvxvxvxvvvvvvvvvvvvvvvvvvvvvvvvvvvvvvvvxvvvvvvvvvvvvvvvvvvvvvvvcccvcvczczhdyisduuuu0500risusiiiddddphppppphpaddddhddaapkcccklkkfhpdphddddsdidsipipppryyppiyuuuwuuuwwtuuwwyyurrrwwrrrwtw00wr000w00w0ww9996666295996896699569966900699rw9e0699096099986666wwrrrruururuyuuuiiuussu0u0yyiuuruurrr000000r0000000e00090",
"vccvvvcvccczcvvkhhi7353680trwwrr009999860900uuru0r000008669666666666793624569qw99779999999900909999990ww0000000900wwwwwwewwwweww00000000000tt0t0q0000r0059909990q1<1223232269832229590000wwyuuuiuu0uuurwuwwwww009ww769wq97qwr0ww623996399652<<12228222228212332226yihppfdpphhhkhhjkhkhhppaiiipiiyyryyiyryyyyiiyiiyiiiiipippppiiyiiiipiiiyiiipipipppipiipypiyiyyiypipiiyypyiipiyiiiiyiiiiiaiiiiaiiiipipiiiipipipipiiipippiiisssdaaddddfkahdhkkkkckhhlzzlzklkkkkkkkkklkzzlkkzkkzzzlklkzzlkzlkzzzzzzxzzcvvczzzzzxxxzkzzzxzklkpiyppyuiiiiiipyiyiiyiiuiuyiypiyiiiyyiiruutuuiiriuiyiyiytq299723662<;<,88:::::;*,111111:::=::1:1::=*+:*::::::*::81::88:1:::::::::::::::=81,,18=128,156926562yckcvvvvvvvvvvvvvvvvvvvvvvvvxvvvvvvvvvvxvvvvvvvcvcclkkhhkhkhhdhhhhddppddddaaddaddpippppsddddkkhhkhkkkkzzzzzccccccvccccccccvcvvvcvvcvvvvvccvzzccccccxcccczkdkkkhhhhkkkkcccccvcccvvcccccccclzccvccvvcvvvvvvvxvvvvvvvvvvvvvvvvvvvvvvvvvvvvvvxvvvvxvvvxvvvvvvvvvvvvvvvvvvvvvvclclzzzkhpppppiu00669wtsitppppappahhpadphhpkkhdhhpiphkhhkckllkhpphphkkdpddppiiiiiyisuuusirururruwwwrwwwyurrrtwr000rr000000wq00www0q7q9q9636666969969899999899999990900rw060660006968990wrurrwwwrrrrruriirriiiiyyyiyuuuuurrrrerwwwrw0000wwt99090",
"vvvccvvccvvccvkh9ww2<22990wwrwwrr0099996000tuuturt0r0080996996663636665322557wwqw999909999970000w009999090000009000wwwwrrwwwwwwwt0rrrt00t0000r0rww00000099009900q2,2<2322122833259589009wwtttuww0urururwwuwyww0ywwq66997wwwtr00w936696699662<112221222883223332260udddaadhahhkkkhkhkhhhaiiipaaipiiyipdsipyyiiyiyiyiiiappippppiiuiiiiiiiipiipppipiiiiiiyiiiyiiiiiiiyppiiyiyiyyipiiiiiiiiiiiiiiiiiiipipiippiippiipippippdiisissddadddidkaddjhkkkkckkkkzkkzklzllklkkkklzkkklzzllzkklkkzzzzkzkkzzzzzzzzzcvvczzzzzzcczckzzxzkkaiyiyyippyiiiyppypiypyyuiiyyiypiyyiiipyuuiriiutuuiyuyyuwiq<999657q3<,,,::::::::::118,11,1:::1111:1+;+*;::=*:::1118822:;::::=:::::::1::1=,1,,11,182,195526355yvkcvvvvvvvvvvvvvvvvvvvvvvvvvvvvxvvvxvvvvvvvxcxvvcckhhhhhhhhhhhhhdpddppddpadddhdppppippddddkddkhhkkkkzzzzkkccccccczcccccccvcccvvcvvcvvccvvvzzzxccccxcvczzkfhhhhhhkhkkkcccccvcvcvcccccvccccccccccvvvxvvxvvvxvvvvvvvvvvvvvvvvvvvvvvvvvvvvvvvvvvvvvvvvvvvvvvvvvvvvvvvvvvvvvvclccczkhhkpyypiu0099qwriiiappppppphhdpdpadphhhdhdppppfhphckkkkkkkhdjkjhhhhpppippiiiiuuuiitrrwuyrywwwwwwyiy0trrr0e0000000w000000wwwwqqww9636666699699699999099966999999009506690666668900w0rrtrrruurrriutiruiiiiyiiuyuurtrrrr00000www00ewwwww909",
"cvvvcvvcccvvvvhr,562266999wwewwr00099996t00utuuurr0099986569666655666363252459q99999096999900000ww000900000we0w090wwwewrwwrwwwww0r0tr0r000000rr0tww0r0999999000yq2<2,2322,,2393199999000qwwuwyty0uruurwuywywwyy0qwq677qwwwwtr000w669939967632<22222228381288321290tphdpphhhhhhjkhkhkkhhhiaphhhppippdddsiiyiyiiiyiiiiipppippipiiiiiiiiiipippiipiiyiiiyiiyyyiiiiipypiiipyiyiyiipiiiiyiiiaiiiiiipiiiipipipiiiipipiippipdiipsisssddddsddafkdhdjkcckckkhkzkkzlklkkklkklkkzzzzkzzkkzklkkzlkzzllkzzzzzzzzzzcvvczzzzzzccczzkzckdaiiyyiiiyyyiiyiyyiiypyiiiyyiyiyiiiyiiiyiuuuuruiiuuyyyuuuwiq<89w77qw752,,::1::::<:,1811,,111:1211:::++:-::::*:::121188:=:1:;+::1+::::1111===,11,,1112855>55365yczzcvvvvvvvvvvvvvvvvvvvvvvvvvvvvvvvvvvvvxvvxcxvcccdhdddhddhdphddpiddpadddpapaadpppipppddddddhhhkhkkkzzzzzlczzcccccccxcccccccvvvccvvvvvvcvczzzzcccckzxlzzkkhhhhhdhhkjkccvvvccccvcvccccccccccccccccvxvvvvvvvvvvvvvvvvvvvvvvvvvvvvvvvvvvvvvvvvxvvvxvvvvvvvvvvvvvvvvvvvvvvvvcccczzkkllaippi000000wuuishpapippphhhppdhppadddhdphppfpppfkkkxvvkkhkkzkkhadpipipiyrusutuutuuwuuwrwruywyiuttwrwr000r0000r000000qw00wwwqw652226999966669999990999799969900990660069696260w00rrtrrurrruuuuirruiuiyipyiiurrrrr0000000www000www09900",
"vccvvcvvccvvvziq<663696q99wwwwwwr0000999u00rt00u0t009999998696966666997625525799qw90090699999909900099ww00wwwwwe00wrwwwrwwwewwewr00tu00000000000wwww00999999000005<2<26222228332599990009wwtuuuuuu0ruuuuwrwwwwwywww75qqw0wwwrw0wr9399639667622<22222222812383212559uddhhhhhhkhhkkhkhjkjhhhhkhapidipddddppiiiipiiiiiiipppppipipiiiiiiiiiiiipiiiiypipyiiiiiiiyiiiiipyiiiiyiyyiiipiiiiiiiiiiiiipiispiipipipiipipipiiipiidipsissppdpddkddkkhddhkkkkckkklzzkkkkklzkkzkkklkkklklzzkzzzkkkzzzkkzkzzzzzzzzzzvvvczxzzzzccczkzczdiiiiiiyiiyppyipiiyiiyiiyiiiiyyiipyipyyypytiiuitiruuuuuuurwtq,360w9qwq732<1111:,:::,811,:::1:1121:::::;:+:11::1::18::11::11:>1::>:11:131111,1111111122255265665yczccvvvvvvvvvvvvvvvvvvvvvvvvxvvvvxvvvxvvvvvvvvvcklddpddhdappahaappappdddddpppapppiiipissdsddddddhkkkzzzzkzzzzzzccccczcccvcvccccvvcvvcccvvczzzzxcccklzkkkfkhfkhhhhhjkkccvcvcvcvvvcczcccccccccccvvvcvxvvvxxvxvxvvvvvvxvvvvvvvvvvvvvvvvvvvxvvvvvvvvvvvvvvvvvvvvvvvvvvvvvvvvvvkzzzcckkfappirrrwqrwruishhppppppphppappaddddhhapfpppppppkzxvvczkhklkkkkhdppipiiiutsuuuuirwwwwuuwurrwuutyrwt0r000009000000900wwq09q9w79225666969699669999999999990090000999000w0066660000wwrrurrruriuurriiuuuipiidiuruur00000000wwe000000w009w",
"vcvcccvcccccchuw<962566799ewr0wwr00000000000u0u0ww009997989696596976q7965622599700909066959590009999990w00wwwwwwewwwwwrrwwwwwe0w00twu0000u00r00ruwww0099000000009622<55532228822599990w060wuuuuuu0uuuur0wywwwwywwww639ww0wwwtwwtr9666669996622322221222221238322<<6wpppkkdhhhkhhhhkjkhhhhkahhhdispisdddpppipiiiiiyiyipipppiipiiiiiiaiiiiiiipiiyyiypiiipipyyiyyiiiyipipiiiyiipipiaiiiiiiiiiiiiaiaiiiiipippiipippiiiiddpidsisiippphhddkzkkddkkzkkkxkkzzzkkkklklzklzkkklklkkzkkkzzklkkkzkzzkzzzzzzzzzzzcvccccczzzccczzcvki0iiyyiiiyiyiuypiiipyiyiyiyiypyipyiyiiiiiytuitiiuuuuruurruwuq,35w999q753331,::<<:::1811:::::,1211::=====:+::::::::1:::::121::1111:111131112,1221111822225865365wczzzcvvvvvvvvvvvvvvvxvvvvvvxvvvvvvvvvvvvvvvvvvvcckdppddddhpppahhdpappaddddppppppppppdiddddidddhhhhkflzzzkzzzzzzvzzzzxzccccccvcccvvcvvvvccczzzxzzzkhkllkkkfhhhkhhhhkkkcvccvcvvccccccccccccxcccccvcvvxvvxvvcvvvxxvvvvvxxvccvvvvxvvvxvvvvxvvvvvxvvvvvvvvvvvvvvvvvvvvvvvvvvvvvvckkcckkkapiyur00wrrwyushhppppppapppppppappphhddappapippkkcvvcczklkkhkkkdpiipiiyuusuutuiyywyyuwruwwryytrwww0ww00099990000090wwwwq9wq9963556636966969899969909000000000w099000r006666999900wrrrrruiitrutiiyiiipiipyyiirrr000000w0w0900009w0900",
"cvcvvvcvcvcvcdiw276<3667990wrwyw0r000009990yutuu0000990099966998366qqqq6555369qw0000090995999000000995599000wwew0erwwwwwwerwwwww0r0r0tt0000000e0rrwwwq990000000096662564822233212695900000rrywwwru0rruurwywyywwwwwq6690w090twwwut9669669996632261111222822233321<26wyppdhhhhkdhkkkhkkhhhppsaahdipiipddsiiyiiiiiiiiyiiipppiipiipiyiiypiippipppppiyiyyiyyiipiyyiiypyiyiiiiiiyiipipiiyiipiiiiiiiiiiiispsipiiipipiippdiiipdiisiipippdhkkkczkjddkkzkcxkkzclkkklkkkzkzzlzlkkkklzzlzklzhkkklkklkllkzzzzzkzzcvvccccxzzcccccccki0iiiiyyiiypyppyyiiyiypypyyiyiiyyiiiuiiyiiiuriruuuuuurrrrruu9>227676333<<32,;;<1,::,111::=:::1211:======+:*:==1::1181::11::::1111:11:1111:1,,1121:1288228053254yczzzcvvvvvvvvvvvvvvvvvvvvvvvvvxvvvvxvvvxvvvxvvvckhdppddadppppphhapppipapapyapppippppipididdpdddhfhkkzkkzzkzzzzzzzzzzzzccccccccvcccvccvcvcvzllkzzzkhllkklkkkkkkhhhhhkkcccclccccvvccccccccczcccvcvcvvxvvvvvvxxvvvvvxxvvvvvcvvxvvxxxvvvvvvvvvvvvvvvxvvvvvvvvvvvvvvvvvvvvvvvvvvvzklczzkdpiy0000wr0wwusppappppappappppappppadddppippppppkccccvvlcckahkldippipiisuuiuururwwwwruwywwyurwuuw00r009909009990900qww0ww9qwq963636666696669996669900000000000000w00w090009652690wruuuurutiuuuiiiyiippiiiyuiur000000wwwww00we0000900",
"vvcvcvvcvccvkdie29626967000wrrwwu00r009988900uuuwww0000w99995999367qqq7625556wwq00090007998990000009559669900000wwerrwrrwrwwwwrew0ww00000u0t0r00qwwwww060000090r9676566<321123212629999990wrywwwru0uuuruywwwwww00w96560wqwqywwrtr9369669q99653332212122832123333129wuipkkdhhdhkhkhkkkddppspahhapipipdddsiyyiipyiyyyiiiiiiiiipippiiiiiiiiippipiiyiyipiyiyyiiiiyiyypyiiiiippiiiypiiiiiiiiiiiiiiiiiiipipiipiipiippiippiipidsiiiipdphhkkkczkdddkkkkcczkzxkkkkkkkkzzzzzkkklklzklzlklkkkklzkkzkzzzzxzzkkzccvcccczkkzzccczczgi0iyyiayiiyiypiipyyiiyiiyipyiyypyiiyiyiiyiuutrrrurruurrrrruw9:237664<32<128<:::<<,::1::;:::::,111,1===+1++=::=:::1811::11:::111:11:::11:::,1,,122:1128225064255wzzzzcvvvvvvvvvvvvvvvvvvvvvvvvvvvvxvvvvvvvvvvvvxcfappppphappppahhpppypipappppyaiiipiippididppddhhkhzffzlkkzzzzzzzzzzzzzcccccccvcvcvvvvccvccklzzlkkkhklkkkkfhhkkhhhhkhkzlcvccvcvcvvcccvccczzcccccvvcvvxvvvvcvxxvvvvxvxvxvvcvvvvcccvvvvxvvvvvvvvvvvvvvvvvvvvvvvvvvvvvvvvvvvvvvvczzzzczkddi000000wwuiiiappddddppppappppppapppdpppppppphhhkcccvvclkakkkhddsppiiiuuiuurrrwwwwruryw0yuuwuu0000r09999990960900qwwqqq9q9q69666536666666699999900009000000090ww00w09ww0966226900ruuuuiiiuriiiiiiipppiiiirrrr000e0w00e00rw00000090",
"vcvcvcvvzvvvkiwq1962675300wwwru0uur0y09988900t0uwrwwww0099695899357ewq96252260w90090000996689900999999999900we000wrrwewwwwwwww0000t00t00u000r0r0wq0w0099900090009690666<2222282225925999590rtyyy0uuurur0wyy0yww0ww935700wwwwwwrrr9569666997323368222222232122233129wuypkdkkdkkkkjkkhkdpaadddsadppipsdddiiyyiyyiiiiuyippiippppiiiiiiipiiiddpiiiyyiiiypippyiyiiiipiiiyiiiipyyiipiyaiiiipiiaiiiiiiiipipiipipiiipiipiiiididiiisippiddhdkzczkjkddkkzcczzzzkkkkkkklzzkzzlkkkkkzkkzkzzkhhkkzklzlklzzzzzfzkccvcccxzzkzzccczzksit7yyiiiyiiuuyyiyiiiypyiiiyiyiiyiiiiiyiyiiuuuirrrrrrrrrrrrww6*23756522311288<,:>,<::1:::*::*:,11,:1=*+=+1+:::=:::11::::::1::311:11:::111::=,,:183,,:,1222562252wkzzccvvvvvvvvvvvvvvvxxvvvvvvxvvvvvvvvxvvvxvvvvlkfiipppapiippppdpppppiipppyppppipppiiipddddpppadhhhkzzfkkzzkzzzzxzzxzzzxccccccccccccvcvccvczkklkkkkhhlkhhkhhkkfhhddppkzccccccccvvccvccccxzzccvcccvvxvvvvvvvxxvvxxvvvvvvcvvvvxcxxxxxvvvvvvvvvxvvxvvvvvvvvvvvvvvvvvvvvvvvvvvvvvvczkzzczhdduurq00rtuuiyyphhhddppipppppppddpppapppppppdhhphkcxxvllhkkkhhdddhpppstruuurrywwwwwrywwwrytuutw0000099959909900909099w997766696355636666899969990000990ew00000wwwwuw0w09696828690wrrurrtiruiiiipiiyipddiur0rt0r00000000000e0000900",
"ccvcvcvcjvccpwww36966066990wrrururr0077095990000tw0w09997669989669qw99769325www700000999988909009996669666000wwwe0wwwwrree00errrtw0w0r0000r00rt0rw00000099900099999666522221222196999966699wtytwwruuuuuritwwq0009w66663wwwrrrwwqr9266666q69632566423222683222233669wupkddkkhkdkjkkkhhhddhhaaddapiipiipdiiyiiippiyipppiiuiiiippppyiiiaiaiippiyppiiiiyiipyiyrrirriuutiuiiiippyiiiiiiaiiippaiiiiiiiiipiipppipiiipiidpipdiipiiidpddasdhhkkzkhddpdkkjzzzzzlkkkkklllllkkkklkklklllzzzlhkkkzzzkllkzzkzzczzccvvcccczzzxcccckdutr9uiiyiiiypiyiyiiypypyipyyiyiiyiyyyyiyiyiruurirruurruuriwuwq,6235391132:2122,:==2=:===*=11++121,:::=&%&===*&-::==::1:=11=::::111:11::1:::=:1112,,,,<<2<255<,35wxckkcvvvvvvvvvvvvvvvvvvvvvvvxvxvxvvvvvvvvvxxckhpppiiiipppppspppsppippppsiisiiiiiiiiiipippppiidddddhjkkjdkzzzzzzzzxzzzzxzcccczccvcccccvcccckkzllkkkkhkkkkhhhddkhddhpakkzzzvvcvcccvccccvcczzcczcccccccvvcvccxvccvcvvvvvvvvvvvvvvvccvvvcvvvvvvvvvvvxvvvvvvvvvvvvvvvvvvvvvvvvvvvvvvckhzckprrwq00wrrrisiiiappppppiapappiphdpppgppppppddipidhkkckcvvvvkhphfhhdppyiussiyrw767wyrw00r0rrwuyrw00w00999995997q7qw77600997666663355355566968999900w0990wewwww000wrwwrr00099652550wrrurtiituiiiiiiiiidissirrrrtwww000wr0eww00000600",
"vvvvvccvjvcch7w922656070900rruurt0rr0759079000utw00w099966668859q7qqqq666337weww00000009098999900996666666600ww0000wwewwew000rwr0000000000r0000r0r00000098890009900666552221222166999696669qwwuwwwuuururuwyq000w9w92366wwwwrrwwww226969069932<55552553368322233969qwtyppdkdjkkjkhhhhkkhdsasspiipppppipiiiiiyiyiipyipppiiiippiipiiiiiiiipipiiiipyippyyiiyiiiiirtiuuiuiiiiippiiaiiiiiiiiipiiaiiiiiiiippipipiippipiiipiiipiipipppddshkhhkkzaddddkkkzzzzklkkklkkkkllklkkkkklkkklzzlkflklzzlkkzzkklzzzzzcvvvvcczzzzzcccckduur90uiiyyaiyiyiiyiiiiyyiyipypiypypyiiyiyiyuururruuruurwrwuiw9>3255362132,2,221,,12::==**=:2+:111::1:===*==:++*=:-=:::**111::=::1:::::=:===::,:>::::>,<22253<,22wcczkzcvvvvvvvvvvvvvvvvvvvvvvvvvvvvvvxxxxvvvvckhpipiipppiipisppppiipppphsppisiiiiiiipiiipiddddddkdkdhkkkklkkzzzzzzzzzzzzxxzcczccccvcvcccccvlkzklkkkjhhkhkjhhsddhhhhhhkklzzlvcccvccvcccccczzcczcccvcvvvcvvvcvxcccccccvvccvcvvcvcckkcvccvvvvvvvvxvvvvvvxvvvvvvvvvvvvvvvvvvvvvvvvvvvcckzjdurrwwr0rrruiyiiippppaaiippppippppppdiiipdpidpipphhkcccccckhihhkkhhppiiiiuuuqww7wryrrr0rewruwuw00000099999979996qwq96006966669763355666669899969900099000w00w900rwww0rr0099965560wrwrrtiiuuuiiiidiidiissurrrrryrww0000000wew000000",
"vccvcvcvjcjvhwww2265600w00wruruuurry09909990000uww000999666656887q9q9676666qqwqw0rr0000009999990000966666690we00w0wwwrwww0w0w0wr0000r000000rrr00000000069599999069996652222228223699999636690wwuywuwrrryttww000qqw95666qwqqrqwww6226969069622456553565569333333360ww0yyidhkkjkhkkhhhhkhhsadddiiyidpiiiiuyiyipyiyiiiipppipppiiiiiiiiiipipiiiiiiiyippiiiiyiuiiiuriutuitiiiippiypiiiiiiiippaiaiiiiiiiiiipppiipiippipiiiipipipidddddhhhhdkkkadppdkkzkzzzlkkkkklkkkllkkkllkklkklklkkkhkklzzzkkllklkzzzzzzcvvvcczzzzccccckjdiu9riiiiyiyiuiiyiiiyiyiiiyyiiypyiyiyiyyiyirrrrrurriwwrurrruwq:225533<132,2,2231,1,111=*%*=:++11,,:11::**=:*&$-=1>111:*&=::::==::::::====**=::::>:>::,<2<253<,3<wkckzvvvvvvvvvvvvvvvvvvvvxvvvvvvvvvvvxvvvvvvcchdppiippiipipppppipipppppppppiusuiiiuiiiiipiiiddddahhkjkkkkkkzkkxzzzlkzzkzzzzzzzcccccccccxzcckkkkkklkkhhkhkkhkdkdhdhdkdkzzkzvcvvcccccccvczzzzcccccccccvcvvcccccccccccvcccvcccvccvccccvvvvvvvvxvvvvvvvvvvvvvvvvvvvvvvvvvvvvvvvvvvvvvvvkjkhhiuwrrqwrrupiiyiypppapiiipppppiipppiiiipdpiphippphkzcvvczcfphpddhppiiyiyuurw7wwwywwwrr0trrrurw00090900999999999q7w9w9660066966966666666899699969009900wwewww0000ew00y0009666569wwre0iiisiuuuiiiiidddissttuuuytuwrq0000000ww000900",
"vvcvvcvvcccvhww96366607q00wq0rrrrrrry090099000t0w000996966556800qq77q666669wwwwwr0rq0000099900990099966666900w0we0wwwrwrwwww0ew0wwwwr000900000000000000989558909996666221121228223296696666660wuwwwwrwruwww0600www93336rwwwwwwqw963696667663<<26533675363633222229000yiippdddkkkkkjkkhhhasaaadpiiiiiiiiipipiiipppiiiipppdappiiiiayiiiipiyiiiiiyiyipiiyiiiuuuiruttuutiiiiyppiiiiiiiiaiipiiiyiiiiiiipiipiippippiipipippipiiipipdaddhjhhkzkhdpadjkzzzkzllkkllkkkkkfkkkkkkkkklkkkkllkkkkzzkkkzzkzzzzzfzzcvvvczzzzzzlcckzcddy0ruiiiyypyiiiiiyiyipiyyppyiyiiiyyiyiyyiyrrrrrrrrriiuwuyywiw,325333,<2322,222221=1===%%**=+*:1,,::1:=*+&=&+&:1111:1:--*;::=:::::=:::==:::=:,::,21,,<<2<253<<22wkzkcvvvvvvvvvvvvvvvvvvvvxvvvvvvxvvvxvvvvvxcckhppipipipippipsipsppiyppppissisuiuuyryiiiiiiiididdddddjddjkkkkzzzzzlkxzkzzzzzzzzcccvvccccxccckkklkkkhkhjkkkhddddkkhdhhdkzzzzccccvvcvvvvcczzzzcccccccccccvvcvvcvccccccccvcccvcvcvvvccvxvvvvvvvvvvvvxvvvvxvvvvvvvvvvvvvvvvvvvvvvvvvvvvvckjhssuritrrrrisiiiiypippapaippppipppppuiiiipiiihpiipppkcccvcvxkhhpppdpiduiisurrwwwwwwwwr0r0wurrrr0009900099699996769qw90960009069990666855666667999990900w0wwrw00w00www70009690w0wwtr0r0tiiiiiiiiidiiidsiiiuuuuttuwr00000000w0000900",
"cvvvcvvccvzvjrew65966qqwww0rwrtrurrur000000000tuw000006996666600qqq66655369wwwqwwww0000000000090009669996900wwwe0wwwwwwwwwwwwe0r00000009590ur000w000q00696629999699665521111222223295666986650qwuywwwuru0rr0090www93533wwwwwwrqr998996666963<236335666669366522<699qwyiippakdkkkkkkkhhddppdfdappipiiipdiipiippypiiuiididpidiiiiiiiiiiipiiypppiyiipiiyiiiirrtirrrruuuiyiiipiiipiiiiiiipiiyiiiiyiiiiiipiipippipipipipipipiippppdddssdkkkkzkddddkkdzkkkkzkxkzlkkhhkkhkklkkklkkkkkkkkkkllkzlzzzlkzzzzkkzxccvzzzcxczzvcczzkdpuuuuiiiiyyiyyyiiiypyiyypyiiyyiyiyyyipiyirrrrrrrrrwrrwwiwwue<336292,<233321221118:1==*****+=1:11::1=&&+&&-&=:11>1*::==::,:::111:::::=>:,::,,:,233,122325633<32wckzzcvvvvvvvvvvvvvvvvvvvvxvvvvvvvvvxvvvvvvkkkppiipppippipiuppupiiiiiipiipiiiuuuurupiipiiipidiiddddkddkkkfkkkkzzzzzzzzzzzzzzzzccccccccccccckklkkkkkkhkkkhkdkdkkddhkkdkzzzzlcvcvvccccccvcczkczccccccvccvvcccvcccccccvvvcvvcvvvcvvcvcvvvvvvvvvvvvvvxvvvxvvvvvvvvvvvvvvvvvvvvvvvvvvvvvvckhpiisiiyyrypipiyyiiiapppaddppppuppdpuiiyiiiiiddiipppkhkccvvczkhhhddhdadpipiyrww7wwww7wwrrwwwu00w09997099959999667999ww9909969899999666656696969999990000wwwww00wyrrryrrrryryuurrrrwwwrruiiiiididiidiisuiuuruuwuutywwww090w00000990",
"cvcvvccvvvcvciie75957wqtrrrttuuuuruui000000yr00ut000009966669900q799q653366wwq7w000w00000900009000996680999000wwwwwrwrrwwwwww0eww0w000989900e000r00w00099965898997697522121122212222266533935500wwwyrrwuwrrw97009w62636wqwwwwrrw6999999969665226653796669979665200qwiipippppkddkkhdhkhhhppddadaddddiididppppiipyiiiiisddppippippiiiaiiiiiiiiiiiiyiiyyyyytriisrrirrruyiyiiiipiipiiiiiipiiayiiiayiiiiiiiippiippiippiiiipipiiiipddassdkkkkzkkkdddkdzlzkfkkzzkzkkkkfhlklllkkkkkkkhhkkkkllkkzklkzzkzzzzzzcccczzcccczzcccccckdsuuiiiiiiaiiiiiyiyyiyiiyiyyppypyipyyyyiyrrirurrrriirirwtwiw<33756<,123322221818=====***=&*=11:11::==&%*&:==:::-=::1,1:1,1:::1:1:=::==,,::,,,,112212335563323<7cczccvvvvvvvvvvvvvvvvvvvvvvvvvvvvvxvvvvvvxkkfdiiiiiiiiiiiipppppiipppppiiiiuuuuuuiiyipyiidididddddaddkdkkkkzkzzzfkzzxzzzzzzzzzcccvcccccccccklkklkkkkkhkkhhdkdddkddddkkzzzzvccvccvvcvvcvcczkccccxccccccvccccvcxccvcvvcvcvcvcvcccvcccvvvvvvvvvvvxvvvvxvvxvvvvvvvvvvvvvvvvvvvvvvvvvvvvvvkhpiipppyyypiiippiiiiipppphddpiipisupupyyiuiidiiidpppapzzcvvckkhhhhahdhdpdppiywwwwyrww0w0ryrrwtrtw9999099799996666990ww90099679699999966566866099099900w090wer00rryiyuruuuiippiurrrwwwr0uuiidddidididiitruuurrtuuuytywrw0000w000990",
"vvcccvvccvzvcpiw66966wtirruiuuuuirruu0u0y00000u0t0w0096666899900q6667932256qw7ww0000w00000000000098858690000wwwwwwwwwwrwwwwwwwe0r0000009880w000www0099969329295999996325112112212822252223636560wwwurwrw0ww096699095256w9wewwrrq369q9996666755566666999q99w999650rwtiippapppdkdkddhhhhhdpaddddpdippiiddipppipiyiiiiidpdiipddipiipiiiiipiiyyiiiipyiiyiiiuuusssirruuuuiiyiyipiiaaiiiiiipiiiiyiiiiiyypppipiiipiipiiipippdiiipippddddskkkkkzkhdddkddzzffkkkkzzzkkhhhkkkkklkkkkjhhhkhllklkklkkzkklkzzzzzzcccczzzccczzcczccckdduuiiiyiyiyiiiiyiiyppyiipyiiiiypyiyiyyyiirriirriirrrrrwuwiw,23963::1,23,122211811=====&&&+=1:1111=*&==*&:*=:::::,111:==;:::=::::-::==,:@::,:,<1231233256533<,wckzcvvvvvvvvvvvvvvvvvvvvvvvvvvvvvvvxvvvvvcxcfhiiipiiiiiyiuppppippipipyipiitrtuuuuiyyuyiidiiiddpdkddkkhhhkkklkzzzzzzkzkzzlkzzzccccccxzzlzzzkklkkkkkkkkhkhhdddkkkddkhkkzzzcvcvvvvvcccvccczzkzzzccccvccccvvcccccccvcvccvvccvvvckcvcccvvvvvvvvxvvvvvvvxvvvvvvvvvvvvvvvvvvvvvvvvvvvvvvvvckfpiipssiyiiiiaiiiiiiipippdapppipipuuppiyyiiiddiidppppkkzzvvcchkhhddddkdppppiyywrwwwwww00wrwrywuww09999999596567669999w00w0999999989999855696600009999ewwwerwu0rruyiuiruruiisssuuuuuuw0u0ruididdiisddiirruutuuuuuutyuuree0w00w00600",
"cvvvvccvvvzvvpiwq9q67wqu0rtuuuuuir0uuuru0000r0rtuwww098966999900979696335569qwqw0ww00wr0000uu0rre09556660w000wwwwwwwrwwee00wwwwwr00000989990000wr0009966999696969997663222221221211212221233656700wwrr0r00r09559999265399wewwrrq5699996637q96556q66q999q669wq09760utuipdppppdddkkkhhhhdpddddadapiiiyyipdpiipyiiypiiidddiddsdaiiiaiiipiiipyyiiyyippiyuiiyurrisirruuuuuiipyipiiiiiiiiiiiiiiiiiiiiypiiyypippiippipipipiiiipipidpaddkddkkdkzkkdddddklzzkkkkzzzlkklkkkkkllkkkkkkjhkhkkllklkklzzzlkzzzzzkzcccxzzcccczzzckcczkksuisdiiiiiiiyyiiyiiyiiyiyiiyyiiyiyiyipyyrirrriirrurrywiwwuq:,2q96,,2123,,1228111=1:===&%&*=11:1=1=*&===&:*==::12=:,,;==:==-:::**-:::=::**=,,,23311122255232<<7kkcvvvvvvvvvvvvvvvvvvvvvvvvvvvvvvvxvvvvvvcvxfaaiiiiiiyiiuuiusipiiiiiiyryyyuu0u0ryuyuiyiiiiiddipdddddkkhhkzkkklzzkkllzlkkkkzzzcccvccczzzzzzlkkllkkljhkjkjhdddddddddhhjzczcvcccvvcccvcvcczzkzzzcccccccvcccccckzccvvvvvvcvvcvvccvvvcvvvvvvvvvvvvvvxvvvvxvvvvvvvvvvvvvvvvvvvvvvvvvvvvvxlckdiihsuyiiiiiiiiiiiiiiipypddpppppiiupiyiiiiiiiiihppppakkkcvcchhkhhpdhfapipiiwryyyw7wywwtrryrytwtw09999999995996799w99w090099999699999955566560w0099wwrrrrrrrurruuyiuuuuruiiisituiiuuuu0uuuiiidididdiistruiiuuiiuuwwwwrrww0w0e00000",
"vcvvcvvvvcvvvlay09999r0yyuiipyyytuuyuttwy0079yyrwrtw09966990000r969959855599www0w00wwwww099900ww0we9985990099wwwwwwwrewwwwwwww000000009069900w0w007996696796666936636644233<,232,232232213333855669qrrw00ww063536665665qwwy7yrw356766999qqt965666666qqq9wwtweqw7690rpyppahpdhhhhhhhjkhhdddddpdpdiiiiiddiidiiiiiipiiiipphpppiidiiiiipppiyuutuuuiituiurutuuuuuurrrtu0uuiiiipppppppiiupypypiayiiiiiypyppipyiiippipipiipipdidiidshddhdhkhhdkkkhhpapdkjkjkzzjxkkkkkkfjkhkjzkjkkkkkdkkhkkzlklzklkzzkzzzkzzcccczzcvcccczczzkkkkhppppiiyiiyiyiiiyiiyiiiyiyiyyaiyiyiyyiyyiyuiwuuutruuuururrw>5885w4-,2,,212<111<,,,=&+=&++=,,=,=,,,,&&:,1::,,,<::,:===&&===*&===&&*===&*&==1==<<,,3<23326622,39zzvvvvvvvvvvvvvvvvvvvvvvvvvvvvvvvvvvvcvvvcccjpppisiiiiiipipiipiiipiirririwrwrwwurruurruuipppypddpihddpdhhkkkjkkkkkkkkkkzklkzzzccccczcckckkkkkkkkfkjkkjkkhpkpddahhhddzzczzxcvvcvcvcvccczzzzcccccvvccckcjcccccccxvvvvvvvvvcvvccvcvcvvvvvvvvvvvvvvvxvvxvvvvvvvvvvvvvvvvvvvvvvvvvvvvvvkzkhzhiiphhhddpiipipiiipiiiipakjiipipiiiyiippiippppisdisdpphkzccjkkhpphkhpdkhppiyrwrrewry090y0wyytw0w00099790096966000990ww0099900999999666566666600060ywurrrttuyiiiyiiyiyiyiyipiiiiiyyyyuwruuiiipiiiuuuiiiiyyiyyyuytyyytutu000000999",
"vvccvvcccccvcfaii9958u0u0uuiiypiuuurwwwr0y00000rrwrw0996669000r09899098555590w0ww000000000090wwwew00555899999www0wwwrrrrrrwwww000009090956666909009997696666669666q6666323<<,<,1,2222222311333626690wwqwwqw062553733753qwwyyyyq276666699qwq0655566666799wewww79769wrppdhppddhhkhkhkhkhhphdddappdipipiidididspiiiiiiiipipippiiddiiiipiiiiuuuuuuuirutiiuuuiuuuurrruuuuuiiiiiipppiiiipypuiuiiiiiiiiiyppipipiipiipipiipipiiiididddddddhkhdhkhfpppphhhhkjkkjzllkkkkkkkkhkzckcckjkkjkdjkkzklkzkzzkzklkzzzzcccczzcccccckkzllkkkpiiiiiyiiiiiiyiiyiiyiyiiyiyiyyyyyiyiiyiyyiuuuuuwururuwrtrww1598688898>,21112211,11,=*=&&%=,,,,,,,1,**:,,,,122<::=&&=1=&&=*&&&*==%&**&==&==1=,33,<382,,<6522267zcvvvvvvvvvvvvvvvvvvvvvvvvvvvvvvvvvvvvvvvvckhppphidipiiiiiipippiiiiurrrrrruruurruururuuiiiiippppdpddddddhkhkkkkkjkkkkkzklzzzzzcccckzzkckcckkkkkkkkkkhkhkhhppkpdhpddkkzcxzzccccccvvccvzczzzkcccccccccckzccvccccvxvvcvcvvvccvccvvcccvvvvvvvvvvvxvvvvxvvxvvvvvvvvvvvvvvvvvvvvvvvvvvvvzzkhkhppypkjsiidiiiiiiiiiiiipphhpiipypayiyippiipppppiddddppdhkzzkkhhphdhdidkkppyrwerrrew0090y0wwwwww000096699906069000990wew099969999999966669666000060wuwwrwruiiyyiyiiyyiiyyyipiiiiiyiyuwwytuiidiyiiiuuuuyiiyyytytytututu000t0009900",
"cvcvcvcvcccvczdis002500uuuuipiippsitwr0wy0000yyrerwwr06966000r00999599955599w0070w0w00900w0weewwww005558999890w00ewwwwwwewwww0090000000066790000099099679666666860q06766364,=,=122322233131323265369qwwqwww062256655636wwwyyyy7376666699qwe9635566696q9qwqwwwq96690spphhdadhhkkhhkkkhhhhdhdadpdadipiiddiidddpiipiiipiiiipdpiidiiiipppiiitruuuuuurrruitiuiurrwrur0uruuuiiiiiiiiiiuiippuiiayiiiiiiiiiiiiiiipippipipiipipipiiiiihdsdhhkhhhhhhhpdpdhhkkhhkkzlfkkkfkkhhhkjzckkkkjkkkkhkkzzklzzzzlkzkzzzzzcccczzccvcccklckklkkppippiipiyiiiaiyiiiiiiyaiyiyyiyiyyiyyiyiiuuiwtuuuuuuuruutui2988549002,,111<<11<<,,,=&&&&&=,,,,,,=1,,=:::,,11<=**&&&&=&%=*&**&&==%=***&===1=1<83<,322,<5r322267kvvvvvvvvvvvvvvvvvvvvvvvvvvvvvvvvvvvvcvvvvxkpiphihdidiiiipiiippiiiitirirrwuuwrruruirituiiiypipiipipppaadhhhhhkhkkhjkkkkzlkzkzzccccccccclkklkkkkkflkhhkkhhdkhdkkdhhdkzzczzxvcvcvccvvvvczzzzcccccvcvcczzzzcccccvvxvvvcvcccvvvvcvvvccvvvvvvvvxvvvvvvvxvvxvvvvvvvvvvvvvvvvvvvvvvvvvvvckzhhkkhkipzkjpppiiiiiiiiiiiiipppppiiayyyiiipiiphidpiiddpppdpappkckpkkkhdaiphhppuirwrrrwwy0y00uyyww000000996670060660009900w00997999999000869986660006770rwrruuutyiyiiiiiyiiyiiiipiiiiiiyutuwwyuupiyiiyyyyyyyyiiytyyyyyyy0u0uu00000999",
"vcvvcvvvvvcccckddu05500uuuiiyppddiiuywwwwyy000rrrtrr0006990000009989999558970wwww000000909wwwww0we0985585999900000ewerrwwweww000000rr00096990w0w0090976666666666606666q3663<,,2=,23323223133326266690wwwwww065555533666qwwyyue6379696967qww96653996667qw7wwwuwq969quipdhhhhhhkkkjkkhhkhhdadppppppdppddiiiiidiiiiiiiipiiiiipiidpiiiiiiiiisiuutuuurutuuuuutrrrrrruurr0uuuuiipiiipiiiiuypyiiiiiiiiiiypyiipyiipiipipipidiiidiiiiidsdhphkhhhkkhhphpdhdhkkhdkkkkkkkkkkhkhkkkkkkkkhkjjkhhkzzzzzklkzkllkzfzcccccfzcccczxzzklkkzzhppppiipiyaiiyiiiyyiyiyyyiyiiyiyiiyiiyiyyuuuuuuururruuurwwt39859685<,211<<<,1<<,,,,=*&&&=,,,,,,,=,,=:,,:,,11,;&&&==&&+&,*=,==*=====*%%*===1=<<3<=32,,<6r212235kvvvvvvvvvvvvvvvvvvvvvvvvvvvvvvvvvcvvvvvckkpppdhhiidihddiiipiiipyiriwyrrrwwwuwywrrritiuiuiuiiiiippipddppddhhdkhhhkkjkkklklkzlcccccckcccclckkkkkkkkkkkhkhhhhkkdkddhdkzzzzzzccccvvvcvczvzvzzkzccccccccczzccvxccxvvvvvvvcvvvvvccvvvvvvvvvvvvvvvvvvxvvvvxvvvvvvvvvvvvvvvvvvvvvvvvvvvvczckhkkkckkhkcchphihiiiipiiiiipppapiiyiiapyiiipphdpihdpisiddpipppkhkkkkkdpiippdfatrwrtrww0rrwyuuw0w0w0000990990660600e000www0069667699909096660069809000wwrrwruuuiyiyiyyiyyiaiiiiiiiiiiiiuuuwywtyiiyiiiyyyyyiiyiyyyttyttyrtttuuu000999",
"cvvccvcccvccvvvkduu00r0iuiiiiidadsirwytryy000wrrrrrwe00090000000999999859999wwww0w00w000w9wweww0ww095555999990w000wwrwwwwewww009wwww0009666990000090076968666666q6666666666<<<21=233333231323226356670wwrrw0653655556569wyyyyw96099696999e099695999699qw0qwttw0769wuppphhhhkjkkjkjkhkkhhadppaiaiiddiidiiiiiippiidiiiidiipipiiddiiiiiiiyistuuuuuuuuuuuturiurrrrrutrruuiyipiipiiiiiiiyiiiiiiiiiiiipypiiiiiiipppipiphiiiiiiddiiddddphhkhhhhhhhpppadddjkhhhkckkkhkkkjhkhkkhhjhkhjkddhjkzzzlzklkklkllzzkzzzczzzzzzzzzzzzzzzkkhiippiyiiiiiyiyiyiyaiiiyyiyyiyiyyiyyayyituuuuuwuuururuurwww<5228095:,521,,,,,,,,,,,,=&**=,1,,=,,=,===,,,,,11,==;***=,1*&=:<<:==:====&%**===121<,183<<2292<2<25cvvvvvvvvvvvvvvvvvvvvvvvvvvvvvvvvvccvvvvzjppppdhpdsdpdpiiiiipiipyiiwiitiyywyuwwyrutriiiiiyiippiiipyadddppahkdhkhhhhhkkklklklzkzzzccxcxcccclklkkkkkkhhkhhhhkhkhjdhddkkzzzzzvvcvcvvvccvccczzzcccccvvccccccvccccvvcvvvvvvvvvvvvcvvvvcvvvvvvvvvvvvvvxvvxvvvvvvvvvvvvvvvvvvvvvvvvvvvvclzckhkkklvckjkcchhiidpiiiiiiiiiiipppiiaiaiyipppipisdspidiidpppppppappkhhpaiiiiphpirerurrr0y0yryr7w0r00000990096960960e00wwew096609667999099899699660600wwrrrrruuuiyiaiiiyiipppiiiiiiiiiiytutuwuwuyyyppiyyyyyyiyyiyyuytutyrrrirutu00000",
"vccvvvvvcccccvckdiir0r0uiisiidpppppuyryurwwwwwrrrrrew00000w00000999995559999ewww00w00w0w0w00wwwwwe05555899009ww90wwwwwwwwwwww09900ww0099669990700099966968556666666666q66433<<=2=233333=1222226222269000wwq063663625666wwwyyy76600099690990999956999699wwrrrw09699ridphhkkhkjkkkkkhkhhhhdppiyiiiiididddipiiiipppddiiiidiidipiddiiiiiypiiuiuuuuuuuuuuuurrrurrryuuuiruuppyppiddipiyyiiiyiyiyiyyiiyypiyiypiiipiipipiipididiiiiiidddhphkhhhkhhhdpppdaphhkhkjclkkkkfkkjkjhjhhhkjkjkkkkkkzkkkzzzzzklkkzkkkxcczzzzzzzzzzzzzzzkkjppiiiiyiyiyyiiiiiyyiyiiiyyiyiyiiyiyyyyiuuuuuuuuruururuuyrt<88599002,,11,,,,,,,,,,,==&%*=,,==,,,,==*%=,=,,,,,===*=&==,==*=:<<>::====%***=21=111<18<<2226312253kvvvvvvvvvvvvvvvvvvvvvvvvvvvvvvvvvcvvvvvzppphhdipddpshididpiiiiiiiiwtwyiwwrwwwwwwrririiiuiyyyiiippipappppddddhhhhkhkhkllkzkkkzzzxckkzcccckkkkkkkkkhkhhkhhhhkhhkdhhhkkzzzzzvcvccvvvvvvcccczkcccvcccccccccccccccvvvvvvcvcccvvczvvvvvvvvvvvvvvvvxvvvvvxvxvvvvvvvvvvvvvvvvvvvvvvvvvvcxcczkkkkccvcckzvvhdiiipiuiipiippyipypaappiyyiiiyipiidddidiippppppppakdhhjppddppayirrrirrr0yr0rrr0t0000099990009900000w000wwe006607699799998666986696900wrwreruuuuyiiyyyiiyipppppiyiiaiaiiiuuwuwuuyyuppiiyiyiiyiyitutyyyyyrurruuuru0000",
"cvvcvcvcccvzcccjduir0u0uiiisiididpiuiuuuuyywwwrurtrrww0000009990009999959990wwwwwe000999ww00w0e00e95555599090ww0wwwwwwwwwwwww009000w09986970000w09909669665666666666660663332,,<23333232<322253222269996w0w065563552633qwwyiy79w009090009099999539q996qqurrrww999qwsdphhhhhkkkkkhhkhfhhppapaiiiaipppidiiiiiiidddddiiddpuiipiidsipiiiypiiuuuuusuuuururrurrrrrrrruu0yuipppippispiiiiiiiyiyiiyiayiiiiiiipipipippiipdiipdididiiiidddphhkhhdkhhpppadpddhkhkkkcklkkfkkkkhhhkhhhjkkkjkjhkkczllzzklkkklkzkflzcczzzxzlkzzzzzzzzzkjhddppiiiiiiiyiyiiiiyiyiyiyiyiiyyiyiiyiyuuuuuuuuurutruursyu800808992,:::,,,,,,,,,====*%%,,,==,=,=,=%%===,,=,=&====*+%*,8:;:><,:;====*==*=211,<<<,2<<2560322255kvvvvvvvvvvvvvvvvvvvvvvvvvvvvvvvvvvvvcvvckppdhidphipiiiiiiippipipyitwiwwywuwrwurruriuuiiiiyiiyiiidppppppppidddhhhhhkkkkxkzklklzzzckzzzccckflkkkkkkkhhhfhhhhkhhkddkkdkkzzcxvccvvvvvvvcvvccckzcccvcvcccccvcvccccccvvcvvcvvvcvzzvvvvvvvvvvvvvxvvvvvvvxvvvvvvvvvvvvvvvvvvvvvvvvvvvvvvvzvxclzkckvvvkzccjhppppiiiiiiipiiiiiphhahpiyiiyiyippiidiissppppppipphhkkchphfaaiwtisspurrurrrrrrrww00999990w090000090000ww0w066666099799799999966066690wwerrruuuuiyiyiiyiiiippippiiiiiiiiiuuuuwuwiwuipiiipiiyiyiityyyytutrrruurtuu0u0r",
"vvcvcvcvcvvzcvkddsstuiusruidpipddpaiuyywsuwywruiurrwwwww000998990090998599990wwwwe0099990w999ww0e095555590009009rwwrwwwweewww009000w009666690000w0900969666666666q66606q06632,,,=2322222<<2322325566979999q066555522656qtwyyw79q00000000999999653679366qrwtuuwtw69wipsphhkhhkkjkhkkjkhhpaapiyaipiiiipdpuiuuiidddiiipddpyidiidddiiiiiiyiiuurrutuirrruuuurririuiuruu0yiippippdpiiuiyyiiiiiyiiiyiiipipiyippiypiipipipiiiiiiiiiiippdhphkhdhkfhhpppdpahhhkkkhkkkkkkkjhhhhkhkhkkkkkkkkhkkcklkzzzzklkllkkkzzcczzzzzzklzkkkzccczjddipiyiiyyiiyyiiyyiiiyiiyiyiyyiiyiyyiyiituuuwtuuruuruuuywt8008808212111=,,,<,<1,,,,,=&%:=,,=,,=,==&&==%====&%&=,=**181=<,:::<>*=2=====*==11,=,312<<2256622275cvvvvvvvvvvvvvvvvvvvvvvvvvvvvvvvvvvvccvvvzhdpiidpphsdiiddipiipipipiiwwwuwwuuuruuuurruuuyiiiiyuipdpppapppadddddddhhhhhkkkzxkkkkzzzxkkkzkcclkkkkkkhhkkkhhhhhhhhhdkddddkzzccvcvcvvvvcvvcvcccckzcccvcccccccvccccccvvvvvvvvvvccczzcvvcvvvvvvvvvvvvvvxvvvvxxvvvvvvvvvvvvvvvvvvvvvvvvvvvvkxcxcxzxkkcvvvzpkhdpphpiippiiiiiiipdhhdapiiyyiyiiipddiiisspipppiiipppkkkkhhhpphyiihhduwwu00yu0rrrw0098669900090w0090ww0www00766706696995995596980696900wwrrrrruryyiiiyiiiaiapiiiaiiiiiiyuuuuuuuuitwiippppiiyyyipyyttyyyturirruuuutrr0",
"cvccvvcvcvcvcccckdpyypyyuuuippdahpiiiuuutiirwwtitiiww0ww0909090000909888590www0w0w0w90000090ww0000952552995997wwe0wwe0wwwwwwe000009900996990009000099966666665669666066666363<11=132363<22233233253669909009363292228899we9679wq000000000009996569999600rruuirq0990ridddhhhkkhkkhhhhkhhhhhppaippyyipdpipiyywyippdpdpddddiiipppppaiiiiiyyuuuuuusrisuuruuuiurururryrryyupiipipiiiiyiyiiiyyiyyiiiiyypiippipiipiiiiiiidiiiidpiipppddhphkkddkkhhppppaphhhhkkjjkkkhkhkkkkhkhhhkkkzzkkkkkkzkzzkklkklklkxklkzccczkkzzzkkzlzzzzcvkhiiiiyiiyiyyiyiiiiiyyayiyyyiiyyyiyiyiiyuururuururruuuuuiru599598652<252,,,,11,,1::<,=&*==::::==**%%==&=====+====1,=81====:,<<:*===,1=**,===,2211312333922,36>cvvvvvvvvvvvvvvvvvvvvvvvvvvvvvvvvvvvvvxxvxckpiphpiihhidppiiiiiiuiuuywwwywtyrryrrrrrruiriuuiuuypipiidiiiisddddaddadhhjkkkkkckzzcvcccklcccckkkkhkkhhhhhhkhpphhhhhhhkkjkkzzccvvvvvvcvcvcccczzccccvxvvcvcvccccvcccccxcvvvvvvvvcccccvvvvvvvvvvvvvvvvvvvvvvxvvvvvvvvvvvvvvvvvvvvvvvvvvvvcvcvcczzjkcccckkjjhjchdpiiiiipiipiyaippyiidddiiyssdpppspsipiipiiiuridkkkhphkkpuitidstewrwurwwrrwuuw09690w099wrw0w09ww090009959990906066686609999550650wwrerrwrruuuiiiayyiiipppiiiiaiiiyyuuuuutwwrrruiuuryyyutuuwuuwwtuuuiriuuuuurrruu",
"vcvccvvccvcvvcvccddppyyp00uppyiidpiiiiuiuiirwuuuitwwwwyw9090900090000006990wwwww000w0000w000w000w09555559999990w0wwwwwwwrwwww000e0000000800900000900999796665865q6966q66665321112221<63<<22<<<1<225666909w0936542288932366666wwq0000r000000099955699990wrruistuwqqrushhkhhkkjkkkkhhhhhhhppiiiiiapuiipippyiyiipphpddddpiiaaiipppiiiiipiyyuuuruutrutuuuuuutriuurrr0ruyuiipipppipyyiyyiyiiiyiiyyiiapyiiiipiipiiipiiipipdipiipiipppdhphkhhhhkjhapppdpphhhhhkkkkkkhhkkjkkkkkjkkzjkkkhkkkzzkkzklklkklklkkkzccczzklzzlkzzvczzzzdiiiiuiiyiyiiyiyiyyiiiiyiyiiyiiiiyiyiyyiuurruurrrrruuuuurwr5952584<42<<1,,,<11<,1,:<,===,,,,,:,===&&===========+11===,=1,==:,=:=,=====**,,,,,,2122213333:21,<2vvvvvvvvvvvvvvvvvvvvvvvvvvvvvvvvvxvccvvvvvvckpppppiiihpipiuuutuutwtwwwwwyurrrrrrurtruuiuiiiuuyyiiiiiidddpdppppddddhhhhhkkkkkkzzcczckkcccckkhhhhkkhkhhhhhhhhhhkkhakhhkkzzcvvcvvvvvccvvvvczzcccvvvvxcvcvcvvccccccccccvccvcvvvvvccvcvvvvvvvvvvvvvvvvvvvxvvvvvvvvvvvvvvvvvvvvvvvvvvvvvvvccvczzhhkkkhhhdhjzhpppipiiiiiiaypypaayiipiiiuuuppppsppdsippiiytrrupdkzdphkfpiiiiiiiriirituiiu0rr006699w009wwwerwwwrwew00999999069099706666968900560e0rwrrryyruuuyiiiyiiiidippiiiiiiyyyuuuuuuuwrrrrruuryyuuuiituuuuiyuuurruruuuurr00",
"ccvvcvvccccvvvcckdddduup0uidapyidpipiiiyuiiuuuuuiurwy0000000000009000000999weww00w0000w0w99w0w00we65558879599900e0wwwwrrwrw0w00ww090000090909900999997666986568606666666663321=11=22255<<<3<113<426567990w962552223621,223369qw79990u000000999965699690qwwuisiyurrtidhjhkhkjkkjkhhkhkhhhhpipipppiyipsippyiipddhdidpdpstippiaiapiiipiiyyruuuuuiiuuuuuuurrurrrrrrryuuuiipppipipyypiyyiyiyiyiyiyiiiyyppiiipiiiiiiiiiidpiiiiiiiiiipdhphkhdhkkkddpapdphhhhkkkkkkkkkkhhkkkhkkhkkkkkzkkkkzzzklzkkkklkkklkklcvvczzkkzzlkzcvvzzkaiiuiiiiiiyiyyaiiiiyyyiiiiyyiiiiyyiyiyiiyuurrruurrrruyuryrrr295585<<22<,,,,<111<,<,,:,:,,11,:,,,:=,=&,====1=====&===++==1,====:====*==*&=1,=,,,,,1131343<,,1:2yvvvvvvvvvvvvvvvvvvvvvvvvvvvvvvvvvvvvcvvcxvvvchpippihdiipiiiuutuyywwwwwwwwyrrrryryrrrrryiiuuuuuiyiyiiiididipppapdhdhhdhhkzzlklkzzzkkckcccclkkdkkhhhhhhhhhhpdhkhhkkkkkkzzzcccvvvvvvvccvcccczzcccxvvxcccvvcccccczccccvcccccvvccvccvvcvvvvvvvvvvvvvvvvvvvvvvvvvvvvvvvvvvvvvvvvvvvvvvvvvvcccczzhhhhhhahidkjhphpappiiaiiyiipipapiiidiiuuuuipssppdddipipprruryydkiddhpppiituiiiiditituir0rw096990900wewrrrewwrwww0799999957999000666969990650000wewrrrrtuyiyiiiiyuiiippipiiiiiiiyurruuuryurruuuurruuuuiyuutuuuuuuuuruuuuturu0u",
"vvccccvvcvcccccvkjdkdpyydiipiipdpiiiiiyiutsuuutiiuwe0w0y000000000900w0000990wrww00w00w0w9909wwwwwe06855559999000wwwwwwrrweww0ww000000000096979909999669696666666q69906066633311122223653323333<<4222669w0w065255921,:=:125667wq600000009909999952696990wwuuuiiiuuuuiphhdkhhkhkhkkkhhfhhphffppipppiipiiyiiipppipduiippdiiaipppppippiippiiusuutsiuuuutuurriruuurrrruuiiipypiiiipiiyiyiiiiiiyiyiyiipiiippiiiipiiipiipiiiiipiiiiippppphfkdhkkhddddpdhpphhlkkkkjkhjhkhhhhhhhkkkhhjjkkkkkzkzzkklklkklkkklkccvczlkzxzlkzzzczkhkhppppiiuyiyiyyyiyiiiiiiyiiiyiiiyiyiyiyyiuuwruuurrrrrrrureru29955644255<:,,<11<<,,,,,::1231,:::,:,,=&====1=======&&&&=====,1,:=::==*==**=,,,==,,=1218232<2>,,wcvvvvvvvvvvvvvvvvvvvvvvvvvvvvvvvvvvcvvcvvxvcvckpyipiiipppppiuuuuutwyywyywwwuryrrrryrrrrriyiuurruuuuyiidsdpppppppdddddddhkkzkkzkzzlkkzlcckkkkdkhhkjhkkhhhhhhhghkkkkkhkkzzzcccccvvvvvccvvcccczccxvxvvvccccvcvccczcccvccccccccccvvvvvcvvvvvvvvvvvvvvvvvvvxvvvvvvvvvvvvvvvvvvvvvvvvvvvvvczzcczkhhhhddppidddkckhhpiipiipyiiyiiipiipidiiiupspppppsdidppiyruuryyidiiaphapiriidiurrpiw0ruwwrr0999www00werrrwwwrweww0079599966999909996669990000000ewrrerryuyyyiiiiiiiididdiyiiiiiyiruwuuutwuuurtiurtuuuipiyuuuuutuurrrrruu0uuuuu",
"cvvcccvccvcvvcvczkkpiiu7uyuipiidaiiiiyyiuuiitiiiyry0y000000000w0w00w0we0009wwww00000ewww90wwwwwwwe99866699559000ewwrwwwrwwww0w00w000000099669990979969699996666696969676635321==21228235<333<213225557900006536521:===:,5766697600900099989599652569600wywtuiituiyyyddhdhhhkhkkkhkhkhhhphhfppipppipiiyiiipppiiidpiiiipppiaiadddppiiipiyyuurrrutrurtiiurruuuuiuuuyuuiiiiiiiiiiiiyyiiayyiyiyyiyiyiipiiiipiiiiiiiiipipiiiippiyyuippppdkkhhjkjhddppdpppdhkkkkkkkkhhhhkhkjkkkkkhhkkhkkkkzxklkkkkklkklzzkkcczzzzkzzzzkcccczzzzkdpdaayiiiiyiiyiiiyiiiyiiyiiiiiiyiyiiyiyuuuuuuuurrrryrrrtrt29589559<288:111<11,1,,1:=,,1311,,:,,=,=&=,==11==+=&&=====1===111,====**===&=,=,==,,,<<<<<2<<2=2tjvvvvvvvvvvvvvvvvvvvvvvvvvvvvvvvvvvvvxxvxxvvvvvchiididsppppisuuuuuuuytwwytwurwrrrwywrwwyriyir0rruuuiiiipppiiiaaippppdddddkkzzkkzzzkkkklckkkkkhkhhkhhkhpphdkddddkhkkkkkkkxccvcccvvvvvvcvcxczzccccvvxvccvvvccckccccccvvccccccvvvvvvvvcvvvvvvvvvvvvvvvvvvvvvvvvvvvvvvvvvvvvvvvvvvvvvvvvvzkzzzzfjhhddpppddppkxvkldiiiiipiiiiyyiiiidpdsdspppppppsdididsyirrrrrruueihhhhppwippiyuidirruuuwrw0000rur09wwuuwwewwwew00007099005999096998668990990ewwwwwwwwuruiyyiiiiyipppppipiiiiiiiyuwrwuuuruurruuuuwtiisdpyuutuurwurrrrrrrrurruy",
"vcvcvvvvcccvcvcckkkppdi770uidiidaiyiiiyyuuuttiiirr000y0y90000t0ww0w0w0060000rww000wweww0990wwewwwwe9556659999000wewwreww0wwwww00w0000e00999999909999999696986696q66699666633211181222233<<22313<2252669090006635::=:,,,,566336q7096900955985556225699700wwwututrpiipdjhhjkhkkkkjkhhkkhhpppiiiipppiippyyiiiiiiiidddppiippiippdadppppipipyiurrrusuuuuutuuutiuiiruiiuuiiiyipiyipiyiiyyiyiiyiiiyyiiiiyiiippipiipiiipipiiiiiiiyiipppppphkhhhkkhadpddpddpdkkkkkjkjkjhhhhhhkkkkkhhhhhkhkkkzllzkkkkkkkkkzzzzzzzzzzkkzzzzcccczvcvhpipiiiyiyiiyiiiiiiiiiiiiiyiiiiyiyiyyiyiuuwruuuwrrrrrrrwrru<9859599<598<111111,1,11::,113311,,<,=,=&=,,=======&=1=====1========*=***=&&=,,=,,,,,<<<<222<,,7cccvvvvvvvvvvvvvvvvvvvvvvvvvvvvvvvvvvvvvvvvvxvxzkppiihiidppiiutruuuuwywuuwyytrrrwrwrrwwywwyyyrrrruuiuuiiiipiiiiiippiappiddfkkkkkkzzzlkkcklkkhhhhhhkhhkhhhhkhdjdddkkkfkkkkcccccvvvvvvvcccvvczzcccvxvxvcvcvvvcvcccccvvvccccccvvvvvvvvvvvvvvvvvvvvvvvvvvvvvvvvvvvvvvvvvvvvvvvvvvvvvvvvvvczkkzzzkkhhhppappdkhhkcvzdiipiiiiuuuiyyuippddddhdpppppppididpiiyr0rruurrwihkkhhppipiuiphiitiiirwr00600wrr099ruu0wrewwrwwwe09599509999606996999999900www0www0wurtyiyiyiiiiiiiipiiiiiiiyiiuwwyrrutuuruutit00uysdkhiuuiuwtiuuururuurur00",
"vcvccvcvcvcvvccvkkhpdhpy55ypaddipiiyiyyyuttuuisu0yrrr0000000000ww00r0e07000wwweewww0www090wwwwwweww058669999900wwwrrwwew0wwww00000000w0099999090999999699969666996666966553331=2122211261<<2<122555656909006995<=*:11,:,<3656779966900955599995216996000wwwyuiyupyyidhjjhkkhkjkkhkkhjhhpipiiippppppsiiiyiiiyiipddpppppypiiipadpipyppiiyyiitrusiututiuituuuutuuutiuyiiyyppiiyippyyiyyiiiiiiayiyiyypipipipiiiiiiiippiiiiiiiiuipppipphhhhhkkjaddaddddpakllkkkjhhhhdddhhfkhkkhhhhkjhklkklzlklkkkkkkkzkzzzzzzzzfzzzzfccccckkkpiyiyiiiyiyiyiiiiyiiiyiiiyyiyiiiyiyiiyyiuutrrutrrrryrryr0ru<59959899622221211,1111,:,12<83,,,<<<=,=&=1==========1=&=+=1======,=*==*****=1,,=,,,,<<<<<632:13vvkvvvvvvvvvvvvvvvvvvvvvvvvvvvvvvvvvxxvvcxvxvvkiippiipsdiiiuirrwwtrrwwuuwyuwyrwyryrwrrrwywywyrr0ruuuuyyuypipiiyiaipppidpdhfkkfkkkzzkkkkllkkkkkhhhkhhhkpkddkdkdhhkkkkkhkkkzzccvvvvvvvxcvcvcczzccccvcvvcccvcccccccvcvvvcvvcvcvvvvvvvvvvvvvvvvvvvvvvvvvvvvvvvvvvvvvvvvvvvvvvvvvvvvvvvvvvczfzzczkhhhhhppppdkcckcvchpahpippurryrwyuissdhhhppupppppidiipiiuuuruutrrwiijlapdfapppiphiutpsuuwr00000w00000rrwerrrwrrrw0009090599099975899999955000uwwwwe0wruuwiiyyiiiiiiiiipiiaiiiiiyiurrrrrrriuuruiut0wwuidjpuuidsuyiruutuuruuruuu",
"cvvccvcvcvccvccckkhppy0967yiiiisaiiyiyyyiiuuuiuu70wry07y00000000w000000900wwwe0www0w00w090ww0wwewww065605999900w0wrww000000w00090000000656999999999909999999996699969666533532328==82223<<323333666556909990065;=:,21:>,<36669w96556009998555992256906700wwtuuuupppidhhhkkhhhkhkhjhkkhhphappaaaddpipdyipiyyyisdiipippiaiiyaipppipppipiiyturrruuusiuuriisuuuuuuripyyiiyypiiyipiiyiyiiiyyiiyyyyiiiiiiiiipiipiiipiiippiyyiiuusppppphpdkkhhkzkdddddddppdhkkkkkkkhhhhhhhkjkjjhhhhhjhplhlkkzkzfkkkkhkkkkfzzxzzzzzzzzzzzccckhaaayyiyyypiiyiiiiiyaiiiayiiiyyiyyyiyiyyyiiuurruuurrrrrrrywuuu<599905506::812,11,,,11,:,23<3,,,,,,<=,,&===%=========+==&=8=2=====,=,=***==,1,=,=,,=112<3636,2;kccvcvvvvvvvvvvvvvvvvvvvvvvvvvvvvvvvvvxxvvvxvvlyyphddiihiiiiurryryuurywwuuwuwyyrwwrrrrwywwyy7iuurrruuiuuiyiyiiaiiippppppdhhfkfffkkzkkkkzkkahkkhhhhhhhkhppdhkdjkdkklkkkkfzzzccvvvvvxvvccvvcczzzcvcxvvxvccvcvvcccccvvvvccccccvvvvvvvvvvvvvvvvvvvvvvvvvvvvvvvvvvvvvvvvvvvvvvvvvvvvvvvvvvczkkvvxkkhhhhhhhdppcvvxxchhkckppprwrrrwrriiidhhdppuipdpdiiidiiyuuuutrrrrreihfpphzhiphapiiurtuuutttw0ww000wewewrrwrwwwre9999959900599999099999999900wwwwwwewwruuuiyyiyiiyyyipipaaaiaiiiyiuu00rrrrsiuuuurrwtuwudpiuusggywyuuuuuuuui0u0u",
"vcvvcvcvvcccvvcckzakiy06550isdiitiuwwuuwttuyipuyu0tu0000000000rte0000095000wwwe0wwwweww0www00ww0wew0665506060000ww0wwweww0www00990999009969900000099909659669666q6600q66263363==2<425242442252222553569w0009992*:<,1,,11<23669966666666369626622267666000wwyuyiyiiiidhhphhhhhjkkkkkkkhhhhdadhhdapsspppirddipdipdippppiipipiiippdipiiiiiyuuuruutuiiiiiipiiiiiyyyyyyyyipypiiiiiiyiyiyiiiyiiyyiiyyiipiiipppyiiipipiippiyiippiipuppipppkkhklzjhdpphpihihhjkhkzjkhhhhhkhkkhjkhhhakkhhkkkkckzfzzkkklkkzkklzlkzkkkkzxzkhjkkjiuwihiiipiyayiaiiiiiiiiiyiiyiayiiiiiyyiyyyyirriiwriwtuwwwuwu00056959992<<<28=2=82,:::,122428111221,1,=,11==+======&=*=,,===:=:11::=&===:=:<=,:&=,,,113131881,9hlklcvvvvvvvvvvvvvvvvvvvvvvvvvvvvvvvvvvvxvvvvvchiiidiiisiirrrwuuwwruuryuuuu0uwrywwwrwwwwywyywiwiwriwrruuiispiiiaipippipsddsddahhhjkhhhhjkkhkhhhhhhhhkddhhkkhhhkkkkzzlkklkccvccvvvvvxvxxcvvvccccccvvvxcccvccccvccvvvvvvvvccvvvvvvvvvvvvvvvvvvvvvvvvvvvvvvvvvvvvvvvvvvvvvvvvvvvvvvvvvvvcccczzzzhkkkhhhhdkzcvvczxzhfcvhpuywrurwwriisddsipddiiipyiidhiuuiiipyyyyytiiiijkhhpddiwwiriiyyiiwuuw00yw0wwwww0ewwwwtu000r90w950w999599099979909990wwwwrywwwwwrruwrtutitupyyipppadpppyyiisr00u0ruuruitirr000riiiuiidsdiuuuuiuurrrrr0uu",
"cvvcvcvcvcvccvcczzhkdyu9480uiiiisiuwwusywruyupu000000ut0r0000r00000009950000wwwwwwww0wwwwww90w0www007656606000w0wwww0wweww99000009999990009000000097009959696666666966q66668q3225<42522225535666535556990000034:,<,111=1<23939766666665669666525<50000wywytuuiippiipdhhphhhhkkkhkjhkhkhhddddddddpppphsiphiisdiidpppppaiappiiiiipppiipipyuuuuuuuuyiiiipipiiiiyiiypyiipypiyipypypiiyiiiyiyyyiiyiiiyppyiiiiiyiiypipipiiiyyppiiippuipipkkahlkkhhphhphiihjjkjkkkkhhhkhkkhhhkkhhhhhhkjkhkzcczkzkkkkkkzkkzzzkkzkkklzxzzcckkddiiiiiryipiiiiiiiiiiiiiyaiyiyyyyyyyuuiyyiyyrirrwirwyywwuuwyrrr058959555<<2111=8111,1:,222228821221,1,,11,=%===&&==&====,==,:::11,::2=====;:=,:&:,,=11338113=,rzccccvvvvvvvvvvvvvvvvvvvvvvvvvvvvvvvvxvvxvvvvvvjhidiiisisiirwuwruurrwwu0000u0yrrwywwyywywwwwwwyiwrriwrruuuuiiyaaiipiippssiddhdhhhkkkhkkkkkkhkkhhhkdhkdkdhkhhhkjhzkzklhkklcccvcvxvvvvvvxcccvccccvvvvxvcvcccvccvvcvvvvvvvvvvvvvvvvvvvvvvvvvvvvvvvvvvvvvvvvvvvvvvvvvvvvvvvvvvvvvvvvvvvvvckkczzzkhhhhhkhjddkcvvvzkzccckkfduyruurrrrrisddidddpiaddiiiiiiiiyipiyyiywiiridhhdiddiweiuuuiahasuurw0rrwtwr0wwwwuwwutt00w90r00ww599999999999099990wwwr0yrwwerrrwuruuuuuuyiiipypapiiippiair0ruuriuuuuiiirr00rruuuishzzduiryuuurrrurrrr",
"vccvvvvcvvccvvcckkpkdii0580isdddssuuwuuuwruuipr0t000tu000000w0t00000099000ewww0wwwwwwwew00w9000wwe00666606960e0weew0w0w0w00900000999999060990999900099999969666666660066606663=2622552<<2255655653552699060q64:,,,,11121:<3666356666666669659626<50qwwwwwwuuiiyisispdhhhkhkhkkkkhkkhhkhhddaddddipsppppppdiiiiidsppphppaipiippipppiipipiiuutruuusyyiyiippiiyyyyyyiiiiipyiyiyyyiiyyiyiyiyiiyiyiiiyiiyiipipppiiiipiyppiyiipiiiipupiyppkjhhkkkhpppphididhkkkkjkhhhhhhkkkhkhkhhhhhkhkkkkzkckzzzzklkzkzkkzlkzzlklzzzzzkkkhhdhhrtsiiiiiiayiiiiiiiyiiiyiyiyiiyiyiiiiiuiirriwrrwiwywuwuuw0ri0559652<<<<<,118=111,1,,22552122232<>1,=11=*%+==+&=====::===1=::11:,,3<<=:=:*==,=:<==,13311,1=3gkvcczvvvvvvvvvvvvvvvvvvvvvvvvvvvvvvvvvxvvvvxvvvciidiititiuruwuuuwuwuurw0uu0urwywwywwwwwywwywywytyrrwwrruuiiyyiiyipiiiissdpddhhhhhkkkhhkkkkkkkkhhhhddhkkddhhkhkkkklzlzkkklcccvxvvvvvvvccvvvvcccvcvcvxxcvvcccccvcccvvvvvvvcvvvvvvvvvvvvvvvvvvvvvvvvvvvvvvvvvvvvvvvvvvvvvvvvvvvvvvvvvvvvcccckkkkhhhhhkhhkdkcvvvvzkccccckduyrwwyuwrrttiiddhaiipaaippddiiiyiiiyyyyrwtiiipiippdpwyihiiphppiuuiw0rrrwwtewwwrurwtwwt0w99ew0w0977909999990700760wrrwrwwwwwewrrrruuuurrispapipkadpdppayiu0u0uuuruitiiirr0000rr0idkzkiiiiuyyruruurruu",
"cvvccvcvvccvccvckkphsis0580riiiisiurtuiiruuiiuy000u000t0t00000000000599500wwwew0ee0wwwwwww9ww0we0w00090079990w0w0www0ww0ww0900009997999906699979900995996966668566606666q73333,265555242525265526552266909662::4,<2,211,,<2666325366665369659625550wwtywruuuuyiyppssahkhhhkjkjhjhkkjhhhhpddddddipsipppipdiiiidddhppppppppppipippppippiiiiuuuuuuuiiiiiippiiiyyyiiiiiipiiyiyiypyiiiyiyiyiyyiyiiyiyyiyiiyiiiyyiipiiiiipiyipppiippupuypkkahjjkhphshshdddhhhkkhkkhdhkhkhhkkjkhhhhhhhhhhkzzkzzzkzzkklzzzlkklzzkkkzzzzkkjhkjdiirisiiippiiiiiaiiiyaiiiiiiyiyyiyiuuuuuururrrwiwuwywuwywwuurt04<5555555<<,11121,111,,22522822222<,,,,12==%==&===11&=:,1==:=::11::,,,==::=*=,===,===:,1,==,=thjccccvvvvvvvvvvvvvvvvvvvvvvvvvvvvvvvvvvvvvvvvvvcpridiiiiruuwuturuuuwuwuyu0u0uwwwywwwwwwwwywwwwwwyrrwiruuutuiuiiiyyiyiiisddddddddhhhhhhjjkjkkkkkhhkhhhkdkhkhhhhhkkkkkzkkklcvcvxxvvvvvvvxcccvccccvcvcvvcccvvcccvvccvvvvvvvvvvvvvvvvvvvvvvvvvvvvvvvvvvvvvvvvvvvvvvvvvvvvvvvvvvvvvvvvvvvvccckkfkkhhhphkkkkkzcvvvvvckkxxkpaiyywwwyrriiuiidaapiiadppippdiiiipppipiirtiruiuiiiiddiiippidhsiusssuyw0wwwwwwwrwrrwww000ww0ww09999999990997900909ewwwrwrwrwwereruwuuuurridaapppakhasaapisuu0u00uuurutiitttr000r0uuiiuuiiaiuuyuuuurr0r",
"vcvcvccvvcccvcvcczhkdid0<590uiiitiuwuuuutyuiiy000t0tt00r000000000005950000ww00000w00wwww0w0weeww00000www00900000ww0w0www00000w099969997979999999999966996966655566666666363433,2352665556666666666222566609<=,,<11211211:<1665523255635629666626666wtwwutuwuuuyispshhhkhkkkkkkkhjjkkhkhhdhhdddddpisppsppdiiippphpddafdppippiippippippiiytrrruutuiipiippipiiiiiiiiyipiiuuypyiiyyiyyiyyiyiiyiaiiyiiyiiypipiyuppiipipiyyiiiiipipipuwydhhhhkkhhdpshpdidihhjkkkkkdhhhhhhhkkkkfhphdhhhkhkkzlkzzklllklzkzkklllkklkzzkkkkkhhdpiyiripiiipiiiaiiiiiiiiyiiiyiiyiyiyuuturiiyrrrrwiwuwwuwwywwr0t92<665998512221813=1111123333822222<<2,,11,*%&===,1,===,<2,::,=,11:::=<=,====:<;&=:==:1:::::,*scklccvvvvvvvvvvvvvvvvvvvvvvvvvvvvvvvvvvvvvvvvvcvcpippisiirrrrryuuruuwryuww0rr0wwwqww0wywyyywywwwwywrrrruruyyuyyyuyyuuyuiidpddhppahhfhhhhkkkkjkkkkkhhhkhkkhhhhhkkhkkzzzkkzzzccccvxvvvvvccccvvccccvvvvvxvcvvccccvvvvcvvvcvvvvcvvvvvvvvvvvvvvvvvvvvvvvvvvvvvvvvvvvvvvvvvvvvvvvvvvvvvcvvcccczkkkkfkhhhdkkhdkkkcvvvvckzcckhhdpiiyrrritiruiipappphdppidiiddipiiipiyyrirtiiyyiuiihdiiripiiapisitiw00rrwe0wrewrr000wrrwrrwww90999999099990090990wwwywyrrwwrerrrrrrrtrrisdaddpakkfadaiyit0u0yyrruuiiiiiur00000r0uuuuudakkduuuyruuuur",
"cvvccvvcvvvvvvvcvzhksusu290riiidirwurwuuuypiiyww0r0u0rr00r000r009905505990ww000www0w000w0wwwwwww0wwwe0wre05000r00w00ww0e00000098979969969900090099996766669666666666333366336623522666533563665655225666606,=,2,11111111,><2666523555555265296599650wwwyuuuuuuiihpppdhkkkkkjkjkkkkkkkkhhhahhaddaiiippsspdiiddpppddddpappppipiiipsipipiiirrruuuusippiipppipiiiiiiyiyyuiuuiyiiiipyyiiyyiiyyiyyiyiiypyiyiyppppuyppuypiiiyypppiipiypyuydhdhhjhdpphphddiddhhkhhjhhdhhddphkhhkhhhhhhhhdhkkkkzlklxkkkkkzkkkhlkljkkklkklkdipipiiriuipiiiiiiiiiiiiiiiiiiiiyiyyiiiuuuurrrriwrrywwwuwwuywuwru004<6899992<2212111,1111,233652332222522111=*%=,=,=1==:==,,,,31,,13,,,,<,=*-=>,<=*===,1111,,,,*sclcxccvvvvvvvvvvvvvvvvvvvvvvvvvvvvvvvvvvvvvvvvczkpppiiitririyywyrrwuwyrwywru0uwww00w0wwywwrywywwqqwwwewuwuuuyyyyuywuuuttiddiddhddphhhfhhhkhkkjkjhkkkhkhhkhhhhhhhkklzzxklzxccvcxvvvvvvvvvcvcvccvvcvxvvvvvcvvvcvvvvvvvvvvvvvvvvvvvvvvvvvvvvvvvvvvvvvvvvvvvvvvvvvvvvvvvvvvvvvvvvvvvvvccvcckckkkhkhhhhkhkhjhkzcvcvcvcvczzxkhpdpiyrruuiiruiyipahhhdhihiddddpuyippiyrwriiwywiiupphdiiphiyuiutuuurwwutwr0ww00rrrr0wr00rrwwwww999900909900009060wwwwwrewwe0wwrwrrrrrrrdiidfdppspaiiiiiiuuuiryrruruitiuiiur00000uiiidhkzkksuyyyuu00r",
"vvcvvvcvvvvcvccczkdduyi09900uiiiirwwrrrusiuair0w000trrtrrt0000009999099999009990ew00000000wwwwwww0e0w0ww00050e000000wwwwww9w0099795796696760900996796667668666586666566676679737625566662525222262255522652,<<<,11111111<,<5666642353525262595566559wwwuuuyuiyiippppdhhkkhjkkkhkjhkhhhhhhhhdddddppsppippdiidddpidppddapppipiiiiipiiipiiurruuussspppiippiiiiiiiiiyyuyyyuuypyiyiypiyyyiyiyiyyiiiiyipyiiipiupupipupiipyuruippiiupuuuwudhdddjhdpppgdddddphhkhkhhhdhhhddhhhhdhhhhhhhhhkkkzkzkzklklkklklkkhklkhhzlkkkldpiidddpiwwiiippiiiiiiaiiiiiiiiyiiiiyaiiutuuurrrrrruwyywwwywwyywuuu095955552<<1232=2=3211,,2363653333223222,,==*,,,,,===,===,<,311,1311,<=<=**===<==:=:2111333,:,dckvvkcvvvvvvvvvvvvvvvvvvvvvvvvvvvvvvvvvvvvvxvvzpipppiprirrirtwywwyuwwuwuu0r0r0wwwww0w0w0wwwwwwwwwwqwwer0wyuyyuyuuuuutywuiippppapppdhhphhkkhjkkkhhkhkhkhhjhhhhkkhhkkzzxlzzzcccccvvvvvxvccccvvccxvvvvvvvccvcccccvvvvvvvvvvvvvvvvvvvvvvvvvvvvvvvvvvvvvvvvvvvvvvvvvvvvvvvvvvvvvvvvvvvcvccccczzkkffhhkkkjkdjdkkvvvvcvvcczccchdhdpuurruiuiiyyypphhaphpiidhddiiiiyyyirwiiiiwiiriiiiphkhppuy0yirwuuruiurewrewerrre0trw0rr9ew90999090090990000070wwywy0wwwweewwrewrrrrriiidadppypayyyiyituuiuyriurrrrtuiir000000ruidzkhdkzkduuyurrrr",
"vcvccvvcvvvcvvvvzzkkuyiu55900iiuirwrrrripippiywwr000rrte000000t090990099900099900w009079000wwwwwwwww999000000ww00900wwwwww09999869666967666699990766999566666655666766906099q9666556666655666663622266526<:<2,,=11111111<,<3669922225555<65265566250utwurrtuuiyippppahhkhkkkkhhkkkkhkhhhkhaddddapppppsppiiidhiiipddappppipiipiyippiiipyiusuuuuipiiiiiiiiiiiiiiiiyyyyyiiiyyyyyiiyyiyiyyyiyiyiiyiiiyiyiiypiipiiypyiyppyyiippsipyiyuwwihsddkhhpppdddiddphhjkhkhhhhkhhdhhhhphhhhhhhdadkkzlkzkkkkkklkkkfklkklhlkzlkklkkhhhdywrewyiiipiiiiiiiiyayiiiiiiiiiiyiirrruwurrururtwiwiuwutywyr0ur909899522228=2==12111,,13566236666632211:==*,,,,1,11:==,33321,,1131,<====>===,,:,:,3331383<&9kckxcjvvvvvvvvvvvvvvvvvvvvvvvvvvvvvvvvvvvvvvvvvliwipyiirrtirrewwwwwwwywrwryr0rrwww0ww00w00wwwwwqwwwwwww0wwwuyuuyyuuuuwywwuiippdppppdhhhhkhhhhkkjhhhhhhjhhhhhhhjhhkkkzzzkkzzccvcvxxvvvvvcvvcccvcxxvvvvvvvvvvvvvcvvvvcvvvvvvvvvvvvvvvvvvvvvvvvvvvvvvvvvvvvvvvvvvvvvvvvvvvvvvvvvvvvvvvcvvccczkkkkkkjkkkhhkkkkcvvcvvvzzcczkvchhkhpprtuiiiiyyypppppuhsihddhaiiipywiaitriiiiieiiiyyikkirppyyupuwuuuruirrrrrr00rr00rr0riw9rw09999909909000000990wwwwwywwewwwwwwwwwrrruyyypdiipiafyyyiyssusuurrrrrrriruuuuu0090000iikkdpkzzkiyyuru0u",
"vvvvvcvvvcvcvccvcczduuu085900wtiiuywwriiippiuww000rrrr00ww0ww009699669698700999000ww009900wrr0r00ywwwww0000000009900ewww009999909667566667699799669999666586666566966q6969999q96522566666556799666652223&=,=,,,,1111,,<1,,<2667653322223555655560650wwwurtutuuuippipaakjkklkkkkahhfkkkhhdddddpddpppdpaphhhapapppppppapppppypppiiipppipipiyyiiyyyiiiiipaiiiiaipiiiurruiuru0ruuuuuiyriruuuuuuuuiyiiyiiiyyiyyypppupsuussrusippiiiiyrrrusdhhhdpppdhahihhihkkkjhhhhhpppphhhpphdhhhkhhdhjhkkkzkzkzzkkzkhhhkjkkhkjpjkjpkkdpuwyiuwwwwyipiiyiiiiisuuuiiiiiipiuuururwury0rrwuwyrrwyrwyrwwwu0rr59q9998552>111,11111<,,266666555663233,<2:&,,22,33,,3,*=,113111,,,,:==,,:==:,:<,::<3<33q3,,=pxkkzkvcvvvvvvvvvvvvvvvvvvvvvvvvvvvvvvvvvvvxvvvvvkhifzyprrtii000wq0wqwrtr0rerrerqw0ww9ww79w9wqw00wwyw0r000rruwuuwuuuyyywwwiiissdidsdddhphhhhkhkkkkhhkhhhhhhhhhkhkkklllzkkzccvcccvcvvvvvvvvcvvvcccvvvxvvxvvvccccvvvvvvvvvvvvvvvvvvvvvvvvvvvvvvvvvvvvvvvvvvvvvvvvvvvvvvvvvvvvvvvvvvvvvvvvcczzccckhcczkkkfkkkzcvvvcccvvcckchcvhupdpdtrriiiriiiuiahaiiiipphhpiiypyyiiiipiiiyiiiisiiikpsiipiayiiiiiyyrwrwww0r0r00t00tiue0ur99wrwe990900rw095050rwwrrruuw0wewrry00ryuuuuuuusssdpsuuuuuuiuussyuuurturuuuur000000riiuidujkcckduquurrr",
"vvcvcvcccvvccvccckkduuuy955900riiyrwwrtippisuwwwr00e0rr0rwwqwq09966696909900890e0000009900ewrrwwwwyyww0700000000990wwww00009505079666960666966999999009625556555669699996669996665226966553566666465232<&=11,,,,212<2,2,1,<5663533232222<55666650660yytwryuuuuusppiadhhkkkkkkkkhhhhhhhhhaddpdddappdppppdppppppppipppaiypiyyppiiiiiiiuuiypyipppiyiiiiiiiaiiiiiiiiiu0rruuuuuruiuuryyriuuuuuuruiipyyiyyiiiiiyyppuuisussurusppipiipirrruspghhaadpdpphdssdjkkhkkkkhkhhhhhhfhhhhhkkhkhdjhkkkzzzzlzkkkkkkhhhhkkddhhhjjpkpiphiw0wqwwwyyiaiiiiiiiiuuiiiiiiiiuuurrrrwurrrrrrwrrwrywuuwwttyu0tr690995558222111,111,<,<3665666366655<<,:1,=1=,,,31==,==:,1181311122,,,,,:==<,,,<,,33<233<<,=hvhcvkvcvvvvvvvvvvvvvvvvvvvvvvvvvvvvvvvvvvvvvvvvczkkvviyiuuitr00wwwwwwwwrer00r0r9099w9999qwq0w0wwqtwrwwr0rrwwwwyywwyuwwywuuuiiiidipdpdhphhhhhhkkkhhkkhhhhhhhkkkkfkklzkzlkcccvvvccvccvvcvvvvcvvvccccvxvxvvvvcvcvvvvvvvvvvvvvvvvvvvvvvvvvvvvvvvvvvvvvvvvvvvvvvvvvvvvvvvvvvvvvvvvvvvvvvvvccczzzccckccckkkfkkzzxvvcccccvccccjkkjhdpphitiiitiuiiiihhhhiiiphhpapppppppppppiiiyiriitistuhjuwdpiyiiyipyiurrruwww0t0u0rrrrr00uweurw0e009000rw090000wwyrr0ur0werrwrry0rryrruwuuuiissurrrrrtiuuisiiiuuuuuuurrr000000ritshhskckcjkddruiu0",
"cvvvvccvvvcvcvvcvkkduyuy009690tyuttwrruuipsuuwww0r0rrrrrw0w0q009966986668999959000000999000wwwrry0wwww0w00000009990wwww00909099596666606799909999900000655555555666q9qq9966q696666256666323366665666992:*=11=,,,11<22221<<2263222<3<221222256699w09qwuwywuuitisspppdhhhhkkkkkkkhphhhhhhhdddppadddddpppipipippppapiiiiipyiiypiiiiiippiyypiyrpiyiiyiiiiiiiiipiiyyiuuu0rrruuruuuuuryyyrrutruuruiiuyiyyiyiyiyypipiipsuussrusiiiiippirrruisshhhddddhdhhdddhkkkkkkkkhkfhhhhkhhhhfjkkhhdhkkhkzkzzzkkkkkjhkhkkkkkjkhhhapippkpiwwqwwwwwwyiiiiuiiisisiiaiiuuuyrwrwwuuurrrwwuwyryrwwwwyywywywtr62999589928511,,11,1,<26636625666653<2,,,:*>,1=,1,&&==,3311,,212222,,,,,===<,,,,23<3323<<,<=jvkcvckvvvvvvvvvvvvvvvvvvvvvvvvvvvvvvvvvvvvvvvvvccvcvvuyiiur000t00wwr0ww0r0rr0e09ww9q07q00wwwww0wqw0000w00wruw0rwuywwwwwtuuuuyuippsdphhhdhhhhkhjkhhhhhhhhhhhhhkhfkkzzzzzkzcccvccvccvcvvvvvvvcvvccvvxvvxxvvvcccvcvvvvvvvvvvvvvvvvvvvvvvvvvvvvvvvvvvvvvvvvvvvvvvvvvvvvvvvvvvvvvvvvvvvvvvvvczzzcclcccczzkkkkkzvvvvccccvcczzkhhzcjddhdirryuuuiyyyahpiiiiphhppppdaypppppppiiierittiiiuplsijdpyiiyppiiirrryrrw0000trw00w00uwuur000w0600eww00907wrw0ry0rrwwwrwww0y0rry0rrrruuwwuiurwwwwtuurssiisuuu0urrrr0000000rrtidjkkcckjcckuiddd",
"vvcvvvvccvvcvvccccjkiyuiyw08000riuuuuutipppurww0re000e00www00w9699666666599598990999990090000rwwywwywww00000e009900wrwe09090009590000700099999090000000666668585666666969q66998666666666535666636665992==1331,11,1<,,2121<<236332333332222926990uwwqyuuwuuiuutiippppdhhhdhhkkahdphhhkhkhapdddppddpadaiaiiiippphpaappippppiyiiiipiiiiiiyipiyipiiiiiiiiiiiiiiiiiyy0ruu0r0urru0uuuryyryuyrrurruyiiyyiiiyiiiiyupiiiisuuurruspiiiyisprrruiihhkhddddhphdidhhhkjkjkkhkhhhhhhhhpphkhhkhkhhhhjzzzzzzlkkfkkkhhhkzkkkhhdhppppkpiuii0w07wwwwiiiissiiiiiiiiiyuuuwuuwruruwwyryuwrwwwrruwuwwywuwwrr5529555998291,,,,111,<355337653576522<,;*=:*,,===,&=112233,:,121232<,,,,,,,,1:,222<33<,2<<<:rvvkcckvvvvvvvvvvvvvvvvvvvvvvvvvvvvvvvvvvvvvvvvvvcvkkkyyit00000rqw0wrrw0r0rr0r0rw99w7qq70090q0000000900000w00uutywwtywwwwywuuuyiidiihpphhphhhhkhjhhhkhhhhhhhhkhhkkzkzzzzkzccvcvcvvvcvvcvvvcvvvvccxvvcvvvvvvvcvccvvvvvvvvvvvvvvvvvvvvvvvvvvvvvvvvvvvvvvvvvvvvvvvvvvvvvvvvvvvvvvvvvvvvvvcvczlccccccccczzzkkkzvvvvcccvvcccchckjzckdddiuiyyyuuiyippaihhsppppppphppiapiiiiiiiyiiirwitjtsshkppsapippisitrrrr0rs0r00t00000wuwe0r00ww0707eww00090wywyrr0ew9wwww90y0yrr0ywwrrrrrruurrrwwr0uruissdsssuuurttur0000r00000idscvckkcckddidk",
"vvvvvcvvvcvccccvckczdyiuii080r00uuuuuiuiipdiw0ww0w0rw0r0ww00w099686669866668559909990000900e0www00wwwww0we000w00900www00090009590005090990999000900900069669866669996966996999666666666666666663996666<=2383<<12,<<22,12211883222233323155995990uuwrtywyuuuuuuuipppppddpddhhjhhhhhhhhjkhdddphdaddddddaiappiapapppppppyyaiiiiiiipusipipypiiyiiiiiyiiaiiiyiiiiyyyy0uu0u00uurrruurr0rtuuyrrrrruuiuuiayiiyiyyiiiiiiisurrrrrsppiiyppprrrriidhkkppahppdppddhhkkkhhhhhjhhhdhhhhphhhhhhhdgzkfkkzzklzkfkhhkdkkkkjhhpisadhldpipdpyutw0wqwtiyyipapiiiissuuyuwuwuurururrrrrrryrryrrrruwrurwuwrrq9250925622281,=,1121<235565655366522,,:;*:,:==*=,21383===,,:22222332,,,,,<,:,,,1,:,<3,<2222:3jvcccckvvvvvvvvvvvvvvvvvvvvvvvvvvvvvvvvvvvvvvvvvcvkyuyitu0000000r0w0r0weww0www0q9qw9www90009000w000000w000rr0rutuuwuwytwuwywuippipdpphppphhhhkhkhhhkhhhhkhhkhjkzkzzzzzzkzzzvccccvcvvcvvvcvccvccccvvxvvcvvvvvvcvvvvvvvvvvvvvvvvvvvvvvvvvvvvvvvvvvvvvvvvvvvvvvvvvvvvvvvvvvvvvvvvvvvvvvczvzzzzlccccccclczzkkzxvvvccvcvvccckcchhcczdhdiiiiiiuruuuipipddpppiappdhhpppiiupdiuriirrwiipuuishsahkpiiiiatssurrrrtt00u0990000r009u0wruu00900000000wwwryryw00wwrw9ry0rwrrwrr0ererrrtrrwrrr0iu0sdidusuuuuuuut0000e0000000rshkkkcvcdvdiid",
"vccvcvvccvcvvvcczhkcdyruusr80r0tutryyyitdpsyw00wrw00wr0rwqw0q99769666666666999899999000w0000w000wywyrwywww000000900wwww09009900595000090w009999000090009996688666996966666666666666666666696696900666<<=<363<121,<<2223211=332<11<<<121255669900twrwyuuwuuuttwuuppsupppyaphhhhhhphhhhhkhdahhhdddddhhppppipiapppaappppppppiippiippppppuuppiipaiiiiiiiiiiiiiiyiyyy0uuur0ruur0urur0irrutryurtrruiuuyyiyiyiiiyiiiipiisrrrruipiiiiiyprrruiyihhfppppapipidphhhhhhkkkkhhhhhkhhppphhhhhhdhkhkkzzkzzfkkkkjdkdkkhhppaaakzxkhpphdpydpiitiuiiyyisdppdaaspsuruuuwuuuuuwrrrrr0rrruurryrrurwruryuruw650665622121=111121<23536655356332<1>:;**,,=,,133131,,=,2,:212213<,,,<<<2,=1,1,::,,3,,322<:;evckvvkvvvvvvvvvvvvvvvvvvvvvvvvvvvvvvvvvvvxvvvvvkcdyuyuuuu00rr000rrr0ww000rww00qwww7q9w90990609q0w000qw0rr0rrwrywuwwuwurwuwuuypiipdppphphhfkkhkkhhhahhdjhkkkkkjzzkzzzzzkzzzccvvvcvcvvvvvcccvvvcvcvcvvxvvvvvvvvvvvvvvvvvvvvvvvvvvvvvvvvvvvvvvvvvvvvvvvvvvvvvvvvvvvvvvvvvvvvvvvvvvvvvvczclzczkzzzzcccczczzkzzcvccvvvvvvvccjhkhdhcdspdddiiuurryyyiiipdhpppaipafppihpiippiuitiirrwr0ujwrhhhhkduiiiiisptyruysu0t0099e005ewwwuuuuiiu000000e007wywryrywwewerre0r0rrrwwrrr00wwrrw0rww0r0iuusdidsusutsuutuu000t00900r0usippkcczkczkdd",
"vcvvvccvvvcvcvcvckkcsrtyihy90r0trrrrryuupdpy000rw00w0w00r000w9996666666998958999990000000r000www0wwyywww0w0900090900wwww0009505950009000w90999900009000996666566666q666666636666666666666696q67906996<,<3692<<1111<222221213311111<1<1215859990wqrr0wuuwuuuuwutuydpuuppyusdhhhddpfkpdhkdhhhhhhdhahhhddppiiiippppippppppiiipppiippppppppppaiiiiiiiiiyiiiiiiiiiyyy0urru00uuuuurrrrruuuuuuuutu0uuiuyiiyiiyiyiiyippiiurw0riiippiiiyirwrrruidhhpppppippipphhhhhhhkdhkhpphfhfphpdhdhhhdjkhkkzkkzzfkkkkkkdkkhhdpazzcvcckkzkkppkkhhddisiaipssphkhhadssurwwuurururrrrrywyrrrrrrrrryrrurrrrirru9296526511111,,2221<2335652565654<<6:,<***;11,,11===:,133,=221,21,:<2<,232:3,:,,,,<<,,<,22,:<kvkvxkvvvvvvvvvvvvvvvvvvvvvvvvvvvvvvvvvvvvvvxxcdkdyyuuuuu00trrerew0www0r0w00007wq7wwww009996000000q0wwrerr00w0tuwyywwuqwwuuipiipippahpdhhkhjkhkhhhhhhhhhkkkjkkzzfzzzzzzzzlcvcvvcvccvvvcccccvvcvcvvvxcvvvvvvvvvvvvvvvvvvvvvvvvvvvvvvvvvvvvvvvvvvvvvvvvvvvvvvvvvvvvvvvvvvvvvvvvvvvvvvczclzcczkkkzlcccccczkkkccvvvcvvvvvckhhkhddchddpdpiyrruiuwyyiipdpppfaiiphppppppiiiiiiiirrwrw0ikiydhkddsuiuyruuiuuiuuuutuu009000590ruruuuisu0e0000700wwywrrrwwwwwsurrrryrrwwwrr00w0ew000eww0r00rusdsisuiuuuuutr000000090r00usiyykckzcccccc",
"vvvvvcvcvcvcvvccckccdyusrjy8r080yyrwwtsssdau000www000wrw0q00w99966586666955959599000000we000w0wwwwwyrwrww0999005009wwwwe00999909596009090079990000000e099966666666666666q966696636666666669q666666603==63666<<11<<<<2121=,123222<<1<1122255599rr0rrqwuuwtuuuuuuurppurppryipddddidkhpdkhdhhhhhhhhhhhhhppyiaiaiapappapapapypppiippupppuupuaaiiiiiiaiiiiyaiiiiyiiyiruruuirruu0urrr0ruuuuuuuu0ttuu0tiyiiyiiiyiiiyipisuy00rriiipipipiwww0ryiphhapipppiiipppdhpdhhahpppppppppihhpddhhkdhkfkkkzkkkzkkkkjdkdhhhdafcvvvccczhkcczhahkzkghhiahdsihlkhpsiurwuuuwwuwurrrrryrrryrryrryuwurryruruwqu6>2655551>18211211<<2333762535552>>2*;2:;,,13=*====,,,==,,:3333232,3322232,3,:,3,<<<,,<,,2,,&pvkxccccvvvvvvvvvvvvvvvvvvvvvvvvvvvvvvvvvvvvvxxiiyypirui0000r0trrwrrrr00rw0w00w99qq999w90900006700000w0rrrrrrrwywwwwwwwyuwuyyipippphphdhhhkhkhkhhhhhhhkjkkkkkkzzxzkzzzzzzcccvccvcvvvvvccccvvvcccxxvvvvcvvcvvvvvvvvvvvvvvvvvvvvvvvvvvvvvvvvvvvvvvvvvvvvvvvvvvvvvvvvvvvvvvvvvvvvvvvvvczckkcckkkkzclccccczkkzcccvvccvvvvchkkjhhddjhppddpireuiirwywiiphahkiiphhphzyiiiuuiigsiriiwwiwiiipudskhssyywwurruiiu0u0u00005r05700u0uuuisi000059900wrryrrw000wtrtrruy00yrrr0er00000990000000rrusdiigsssuuuuurt0000000000000iwwdkdjcczkkc",
"vvvvvvvvxvxxvvxvzczkkyyiidj5wy00u0uu0uussssr00r00e090000qq99qq966666958966666666090ewwewww0wwww0yw0wwywww00000000000e0rrwe0095099000000e0099999000ww099969996666566666866666666666666666996966669599<;2<6655222<131311,,,,,1322211,1<33226666690tywwyiwwuywwuwiituutiiutyiddkppfhhhppphhipfhhpppddhhapiippppaippapapaipiiiipdppppiiiiiipdiididiiiiipiiiyyiyiiyyyyy0yrutrrrrrrtwwrruuuiuu0utruuusyyuiiiuyiituuuiitiw0rrrpiuiiappptywwuiidjddiididiipdddsdahkddhhapaaddaddddddddadahhhhkkjkhkhkjkkhhhhhhhkdpcxcvckcccckkkkzzkczzcckhhdhhdhiphapuwurruyryryrrrrryrrrrrrrrrrrrrrrrrrqrqyi6<6633333<<2<221==2223566652662><272,11,,,,:,:::::1=*==,882<255244<2585222865<<<2<<<23<<<<2,*tvzzvjccvvvvvvvvvvvvvvvvvvvvvvvvvvvvvvvvccvcccckpiiiyyiyww799w7q7wwwtww0w00000w9999w0w0000000q9q707797qwrrrwwrywwwywwiyrw0wuwuisiipddpddkhhhhkhkhkhhddzkhhkfzcczklccclzzzcccvvvvcvvvvccczccvccccccvvvvvvvvvvvvvvvvvvvvvvvvvvvvvvvvvvvvvvvvvvvvvvvvvvvvvvvvvvvvvvvvvvvvvvvvvvvvvvvvvvvvzzvckdkzkkklkczkckdkzcvvvcccvcccfzzkapaadkzzhdpkswrddrwryiiipzkhwihphpfpppiissiiidiiwyiipyppjdpudppppyiiyyruuypputut000006500u00ir0rusi0wwq9670qtrrwwrwww00riiuuiurwrrrr00rwwwww000000wwwiidippphdiyiiaiirrr090000900000uutuikckklzlc",
"vvvvvvvvvvvvvxvvzxkkkywipph70w00uuu00uuiissr000rr0900000q979q966666659958666666660000000w00wwwwwy00ywwww00976066w0w00wwww00000595000000000999907ww00996969698009566566966665686663666666366363636696><53665524<<11111111::,212,211,1<25536666699wqwweiwwwiuwuiiriiiiiiiuyiddpppphpphphhppphhhppppdhhaaiiiippipppppappaiiyiippspipupiipdisdiddiiiiuiiiiiiyiiiiyiyuywrytyrywrrrryruruuuuuruuuuuuuuyyyiuuiiiitruiiiiit0wryupiiiippiuwwuuippdddddisddiiiddddphdpphhpappddddddaddpdpddddhhhhhhhhfhhhkhhadhhkhddvvcvccccccckcxjzcccvvvvckdphhhkkhpuwrurrryrrrrrryrrrryyrruryryurryryryruwwu6<366633321<<<2<11222256655652542663111:;,,11,;:;;,,,:,<222><25868525524<45755255222<<<2<2<2;5zcczcccvvvvvvvvvvvvvvvvvvvvvvvvvvvvvvvvcvvccchapiiiiyiw97q7q97qqwqwtwww0w00009999990w9990000970w0qqqw0qqwwqwrwyuwwywwwyuuuuuuuiiipdppphhhhhhhkkhhhhkdzkhkkkklzzkkzccczlzzccvvvcvvvvccvczccvvccccvvvvvvvvvvvvvvvvvvvvvvvvvvvvvvvvvvvvvvvvvvvvvvvvvvvvvvvvvvvvvvvvvvvvvvvvvvvvvvvvvvvvczzckjkkzkklkccczckdkzcvvvcvcvvcczzckhaapdhjzkjhppirrrruswiuuikjhidhhhkfappiihitiiiiuyiuyyyyiipyukdhppyiiuwwuuuppiiurru0096690000uur0uuiuwqw76w07qrrwwwww0ewwuistiurwwrrwrtrw0e000008000ewwiiippadpiiaiiiiur0w000000000009udiuicvcczkk",
"vvvcvvvvvcxvvvxxlcllkyqippki7q900uu0uuuissi000r00000990999967966685695959666660660600000wewwwewwy00wwwwww9976906www0wwwrww0e05005000000000099990w000096666698090565566666556666666699969666636666662;5735555224<11113111,,:,2,2,,1<1<25792566996wwywwrywrirwririuisisuuuuiddpppdphpfhfphhphhhppppdhhddpipipipphpppappiiipiiisiiiipippippidiiidiiupupiiiyyyiiiiiyyrrriiyrrrrrtuyrurriuustuuuuuuuuyuuuiyyiuututuuiisy0wryupiiiipipitywuippddsiiddiiiddsdddphhdhphppddddaddpppppppphhhhhkhhhhhhhhhhhhdhhhhhdpvvcvccccccccxvvvvvvvccckkklcxvkhiyrruuryryrrrryrurrrrrrryrrrrrrruwryrrwuywr92365533<1=1<12<<<252236355624269663111,,11:,:::,,21112222<<<<58995585552856656666622<<23221,;7zckcccvvvvvvvvvvvvvvvvvvvvvvvvvvvvvvvvcccvccpppiiiiirturqww9wqwwwwwwwq0w00006969999090990907qqqwq0qq0wwwwqwyywywrwwiwuuuuuuwuytuipppppkhkhhhhhkhhhkhckfkkkkzzzzzcccczzzzcccvvcvcvvvccczccvcccccvvvvvvvvvvvvvvvvvvvvvvvvvvvvvvvvvvvvvvvvvvvvvvvvvvvvvvvvvvvvvvvvvvvvvvvvvvvvvvvvvvvcvkzzckfhkkkkzcxclkhdkkcvvvcccccvcccckkfpiddhkcckpdsrwwspuwwwyihhddhhhkkkpippyisiuiihdiiiiiyyiyypydjkdiyidutwwuyipy00ruu00968809900iuu00yitwwwwqq59wrewwww0rswwuiuiuurwerwrw0ewww009999000wwryipdppiipaiaiiuu0r0r900000t009rispjkdlcclk",
"vvvvvvvvxvvvxvvvclzlzpwudipk0w0wu0uu0uiissur00rrr00009999636969369969989669606000000000w0000wrrwywwwyww0w9990909wwwewwwwwr00000000e0000000999900099900099696655556686666586665663966699966669766676<<675565654<<111311,,,,,,1,11<222<23q966699967wiyywwwiritrrirtiiuttuwuiiddpadhpppppphhhhhhahappddadppppiipahhhppppppipiisppppiipuiiiipiiddidiiupiiiyiiiiipiyyrwyrytuwrrryyiytuirusuuuuuuuuuuuyyyiiiiiuuyrwuiiidu0wyypupiippiiiuwwwippdddpdiiddiiisdddppddhhppppphddddpdapadpdhhhffhhhhhphhhhkhhhhddhhdicvvvccccccccvvvvvcccccvcxvxkaayyrryuuuwurrryrrrrrrryrrrrrrrryrryrurrrrrrywuu6,333<2<1,,,1<<<222526635522<269652112,,,,:,,:1229111122<<6645958<888555556323676633<23362:2<<wcckzzvvvvvvvvvvvvvvvvvvvvvvvvvvvvvvvvvcvcvvpppppppiwhzpq7wqq7wwqwww0www00007999799990900000990007790wwwrwwytwwywywww0wurwwwwwwuidapdkkkkhhhkhhhkhhjkkfkfkkzzkkzcccczzzzcccccvvvvvvccczcvccccvccvvvvvvvvvvvvvvvvvvvvvvvvvvvvvvvvvvvvvvvvvvvvvvvvvvvvvvvvvvvvvvvvvvvvvvvvvvvvvvvvvcvckzkkkkkkkkkzccczkkdkzcvvvccccvccccczzkappppjcvzdpppyrppiwiiwupddhjhhfkhpikpiiiiwiddipppiyiiyyppddddpiypdisuuuuiy0yuuu000099999000uiu0000wywq9w966qwrrrtrwsuwrpsisiuuurrrw00wwwwt09999909wwwwisdsppahiaiisurrrrr0000000rt009rjvhypkzcc",
"xvvvvvvvvvxxvvvxcclcziqupidk0y0w0uu0r0uisiur00rru0u00999966969965969996966999999e00000ww0000rerww0wwwww0990000w000wwwwrwwrwe00090000000w009999700990099969955555666666806666666669966996q6966966693<2962666355228131,,,,1,,1112122<2566q992690099witwwwwrtirrtirwuiuuwwwuipdpdddhppiippfhfhhhhhhppaahdppiiipphhhappppiappiippppiiiiiiiipdiiiiidiuppipipuiiiipiyyryw0wwrryyyuiityrurytiiyt0urururyuyyyiiatutytyuuiiy0wryuaiiiiiiiit0wyiiissidiiipidiidsdipphkkdappppddpdddpdppphphhkkhhhhphhhhkhhhaddddhddicxxvccvcccvcvcccccccvccxcckdywiuuuutuwuwuurrrrrrrryrryrrrryrryryrryrrrrwwwui9=333333<21,1<<<2355565552622536526222,,,,882222<21,,112<29664562454<222246225666632<<5652266<<yvcczccvvvvvvvvvvvvvvvvvvvvvvvvvvvvvvvccvccjhdpppiuijct969q000wwqw0wq0000999997999000000000700000qw00wwwwrwwuuwiuww0uwur0rrwywypppkdhhkhhhhkhhhhjkhclkkkkzzckzzccccccczcccccvcvvvvvvccccvvcvccvvvvvvvvvvvvvvvvvvvvvvvvvvvvvvvvvvvvvvvvvvvvvvvvvvvvvvvvvvvvvvvvvvvvvvvvvvvvvvvvvvvcczzzkkfkkkkkzzzzzkdhhklcxvccccccccccczzfpppppkzzjpssspyyuiiiyuipphhhhhkfhikhipiuwiiiiyipiuuuyyyppydiuyipisdsutuuuyuiduu0yy00009000uit0000qtyw77967qwerriiwwwypsassaiiuurwrrww0r0rr0999000990wypsiphhpaiaiitrrrrr0000000r099wuikddpkkcc",
"vvvvvvvvxvvvxxvvcvzlzprtpydp0w9wu00urruusiu00rrr0u00008899966396999969999866989900000000w000wrrryw0yyywy9960ewww0eeewurrwwwwe00000w0000000009000ww909995585989896666866866666668999396269796633667325953666555253111,,,,1,1122222<<2576763699900wuiiyyiwririiiirttitywy0iyipddddhhppppphhhhhhhhpppdddapppiiphhhhppppipapipiiipsipppipppdididdddipipiipuiaipiiiyyrww00wruuiuuiiiyiitrruryrurrrru0uuyyiyayuuyrwtiuuiy0wryuyiiiiiiiiuwwypiiipppididdiiisdsdpphfkkddpppadddpddhdhhpphhhhkhhphhphhhkhhdddhdhddykvvvccccvvvvvcvvvvvvccckfhppiuitrruuuyuuurirrryrryrrrrryrrrrrruwrrrrrrtwwrru9=<<2<<3362,,<2<<355363525226562526<12<133908584><,::,1<188655666595426664322537q6324536536<66>4pvczcvvvvvvvvvvvvvvvvvvvvvvvvvvvvvvvcccvcvzjdppiiucji960wwq0w0wwwww0009999999999996697999990q0999w000qwwqwwwwuwwywuwy0rrrrurwyuppdhhhkkhhkhhhkkhkkkkkkkxczzcklccccccxzcccccccvvvvvcczccvccvccvvvvvvvvvvvvvvvvvvvvvvvvvvvvvvvvvvvvvvvvvvvvvvvvvvvvvvvvvvvvvvvvvvvvvvvvvvvvvvvvvvvvczkzkklkckzzlczkkdkhkfkzcvczzcvcccccckzzkhppahkzzchsppyipuuuyuiyiphhhkkkhpkhiiittpppuypppiiiiiiparuuquyutiiiurutruiddiyyyr090009900r000090ruwq79q69wwtrrrrwwisasahsiiuurw0rwrrrr0rw99we00w09wwiiiadpapiaiiiruiurure000r0errrrwydczkpkk",
"vvxvvvvvvxvxvvxvvczllpyippdyq09rurrr0uuutur00rwwr00009993666699999959999966986997060000w000werweww0rwww09999wwwwwwwrrrwrwww000090000000000w00w00w9999095985669896586655565656666699666656696666667626626963322338111,,,,,,112112<2236676999898900yuytwiyiiititrriiiiuuy0iyppddkhahhdhppphphhkhhhpdddhpppdiidhkhdapppippdpspiippippipppppiiiiidiipppipuiuipiyyyyyrywwywyuiiiuiiiyuryrrrrrr0uruuuuuuyiyiyyiuuwyuusuuy0wyriuiiiiippstwtippiipiiipiiiiiiiiiippdkddadpappdpppaapappphhhhhhhphphhhhhhhhhdddhhkpyfxxvccvcccvvvcvvvvccccvvhpuurwrtwwuuuuruurrrrrrrrrrrrrryryurrruuuwuwrytqrrrrr2,,<,<<362223222356665542666566522<2939ww696492<,1**,<>,8855556859825998655556q965655566662362;6cczzvvvvvvvvvvvvvvvvvvvvvvvvvvvvvvvvccccczckhiuidjs07wwrw00wwwwqww0999999q999799906699999999999779900wrwwwwywywwwuurrrrrrwywyypddhhhhhhkjkkkhhhjkkckkkxxzczcccccccccccccvvcvvvvvccccccvcccvccvvvvvvvvvvvvvvvvvvvvvvvvvvvvvvvvvvvvvvvvvvvvvvvvvvvvvvvvvvvvvvvvvvvvvvvvvvvvvvvvvvvvzzzlzklzzzcccxkfkjdhkkzlccccccczcccckzzkhhddpdkjczdpppppuryyyyyiihhhhkkkakhpditsddpiippdppppppppquurwuuuupiutuuwiiiiiiyyt0000990000000090wr0999ww99wrrwrsssdaspiasiiiiur0rrrtrrrr0990ww00999wuiuippdhaiiuuiurrr0er000000twq0ruddzpppj",
"vvvvvvvxvxvvvxvvvczzzpuikap5w99r0urru00urur0900wt0000998969663696779999999666959600000ewwewewrwwwyw0wyw076700w00wwerrrwrrww00000e00r0e000w0w00w09959000999955656556555555556666666366666699896q66722955q655222231111,,,,,,,33222<266679q59699229wwytwywwriiitiiiiituuiw0ipppdkhhphhkffppppphkkhhddadphppiiidhkhpppiipppddppppdppipiiipipdiiidddiipippiiupiiyy7yyryuyryyuiiuiiiiyirrrrrrrrruuuuuuiuiyyyiyuuuuuuuuru00wyrpyiiiiiipiuyiipiiipippiiiiiiiddidiipkzdpppppdpdapppppppppddphphhhppphpdhhdhddahhhpyhxxvcccczccvvvczvcvvvckhiurrttrtuuuuyruuruiruirryrurryrrrrrrrywururuuyr7riqwit11,<,26933333233536652226226666263wrw996486282>:,:;::;:1255556599522699852256966666765662q93924cczccvvvvvvvvvvvvvvvvvvvvvvvvvvvvvvvcvvcccccfiypkr969w999000q00wwq09669999996996999909q709700990wqwwqqrrq7wwwwwww000ru0r0w0wyyppdhhkhhhkkhkhhhkkkkkkkkkczczcccvvcccccccccvccvvvvvcccccvccvcvvvvvvvvvvvvvvvvvvvvvvvvvvvvvvvvvvvvvvvvvvvvvvvvvvvvvvvvvvvvvvvvvvvvvvvvvvvvvvvvvvvvvvzzkzzzzzzzccczkfdkkhhfklcccccccccvcckkzzkhappddhcvcdphdurryiiyipiihhhkccpppphiihipdiyiiipppppiiiwpduruuiyidiusirpiiiddiywrrw0980000099999q0999wqrqwwrrwwrdssshaihadpssiurutttr00r0990w00w99wwwyiiiphklfirututruyitrr00000qturwuikiypj",
"xvxvvvvvvvxvvvvxcczlkiiihddg0wwq0t0u0urrir00000yr0r009989599696666900669599966909900000ww000w0w00wwwww00w990wwwwrrryrwyww0wwwweew0w00wwwe0979999090090000685555565666655588699965599696966666689692267369662<,1111,,,,,=,,,,33324667656996669998wwwrwwwwitiriiiisipiyyuydiihhhkhkhhkhhhdhkhhahhfddidjhdippddhaadpfpiipppdidsdddgdipppiidiiidhhiiipidiiiyippiiyiyiyyiiiyauuiiiiiytyryrrrrrryyuuyyriuyruiurtwtryisirwwwwruuiiiiiaipiiiiiipipiipiiiiidippipiipdadddiddipididpdsddsddddahddhfhaddddpddsdpdhkdpyacckcvczccvvcvvvvvvcjjhiirurwryrrurrurrryrryruuwuwuurrrrrrrrrrrruyrrruywwurr7=38625996766622243525526966626w0irrrrw9292122811,:**;,11<42<59998228212926267w96366653366696<,qzccccvvvvvvvvvvvvvvvvvvvvvvvvvvvvvvvvccccccczzzccwqww69r700090000999969997669999369969999969979999wqwwqqqwwrwwwwuwwwr0r00ww9wupdhhhphkhhkkkkkjjhkkfkkkzzzzzzzzxcczzzzccvvcvvcccvvcvcccvcccvvvvvvvvvvvvvvvvvvvvvvvvvvvvvvvvvvvvvvvvvvvvvvvvvvvvvvvvvvvvvvvvvvvvvvvvvvvvvvvvvvvvvvvklzkzzzzkccckckkkkhhkhhkczcccccccccccczczkhhaahhkkcckhdditewiiiiuipidkkkkkkpiyiidiiiiiidhipkpppyuidsrrtsuppiididuidddpuiiirwrr0000990999000wwwwwrwwwrruirdjjisdpiyyhhssswrr000wu0wyryrr70000000rsihizzzsuiiiiyiuturr00090qrit0yyuusdd",
"vvvvvvvvvvvvvvvvcllckdiudpdi00t00ru00ruuitr0ur0yryu0099958959669999909075989899990000y0ww00wwww0w00w0e00w990wwwwrwwwwywwwwwurrwww00000wwe0990990900900000995898555858555669896962629636656665999695276666632<<<211,1,,,,::,,222224666557099090997ewwywuuriirriiidiiiiiiyiiiphhkhhkhkkjhahhhhaahpdiddhhddpdahhdddhhhpippaididsddhddiiisdidiidhiiiipdiiiiiiiiiiyiyiiiiyiyipuyiyiiiyyrrrrrrruyrtuuyryirtiitwrrwrruuitr0wwruyiiiiiaipiiyiipiiiipipipiipiippiuipppppdpddiiiiiipiiidpipdddahhdhhphddpppdddpddksyyijckkczccvvvcvvcccccziiuwwruurrrrrrrrrrrrrrrrwuuryrwuryurrurryrrrrurrrrwrrrr7,38629996766522226655243529rrriurrrerw93955122,,,:**:,11<25<2555221<828255669w9666q96639666656whckkcvvvvvvvvvvvvvvvvvvvvvvvvvvvvvvvvcvccckcczzzcrwer99ww0www000999999969966696999869999999999999090wwwwqrwrwtwwwwqrwrrerwwwrypdddhphkhhkkkkkkhjkkkkzzzzzzzzzzccvzzzzcccvvcvcvccccccvcvvvccvvvvvvvvvvvvvvvvvvvvvvvvvvvvvvvvvvvvvvvvvvvvvvvvvvvvvvvvvvvvvvvvvvvvvvvvvvvvvvvvvvvvvvczzzzzzzlcccckkkkhkhhkkjzzccvccccccczczzkkkkhhhadhcckhddiiiiyiiiipiiphkkkkkppipddpiiyuudapippppiuiuuuuuiyyipdpiyuuuuypyyiirrrrt0000990990000000wruuuuuriwisdpjkhdipshhiruuurwwtuiuw00y0000rrirrriyiihkkkkdpiiyuyuu0uuyy000ruuuyyuiisd",
"vvvvvvvvvvvvvvvvvclvlkiudsdrqru90tu00uiisu0t0ryy0rr0099959959366790000066699899996600y00ww00wwwewe000000w090e0wwwrrrwrwywwwrwwww0ew0w000w0900090000099009899966556555585565866862295626256669969q93269366632<,,11,,111,==:,,,2223369966w000900007qwuwuietruriiddidiidipidipphkjkkkkkkkhahhdpppppiiddddshdddhhhdpphhpdpapdiiddsddidisdisdiiddhihidippddiipiiypiiiyiiyiiiiuiyyyiyiytyrrrtrwyrrwyrruuutuiiurwwrwrtusurrrruiiyiiiiisiiiiiipiiiiipiiiipippiipiippppddiddiiddiipiiiipsppddddddphpddappiddgdddhpuwwhzzzzzzcvvvvcvvvcckiwtwwwrriurryrrrrrrrrryyrwurrrrurrrrrryrrrrrrryrrrrwyuryw,2866996699662553662522666russirwrrrrw06655821::,:;*::,158555585<<11282226669w7979w97666w63966qqcvccvvvvvvvvvvvvvvvvvvvvvvvvvvvvvvvvccccclcczzzziewr969900wru09999999666666699666969998q99990909w9w9wwwwwwewwqwwwrwrr0rr0wwruppddhhhhhhkkhdkkkkkkkkzzzzzzzzzzczvzzzzzcccvcvcvccvcvcvcvvccvvvvvvvvvvvvvvvvvvvvvvvvvvvvvvvvvvvvvvvvvvvvvvvvvvvvvvvvvvvvvvvvvvvvvvvvvvvvvvvvvvvvvvvvvcczzzzccccckkkkhkhhkkhkkkccczzcccczzkzkkzczfhppdkczhhdriiryyiiiiiyihkcklkkppphidddywydhppipppppiuuuurtyyyiiddydyyyiiyusituyttwt000099800r000wrrutiirrtwuuuhkzkhdsdssuwusuurwuurr0y0rrr0r0siry0yyiadkkccchpiuyyuru0uuy000wtusu0wrruu",
"vvvvvvvvvvvxvvvvvvcvckduddd9q0u9ruuruiiiiu00r00rrrr0098995896999790900006689999e99790000000ewwwwww0070erw090we00ywwyyrwwrw0ewewwww00000w009009990000009909699985225528845555656599599665666666667q33963766622,,1,,1111,=,=,122215669967q000900009weiuurwewriiiididdddipipdiphhjkzkkkkjhdhdpppppaiiipiiisdhhhdddppfhhhhapidisddddsdddiddididishiidiiiiiddpiyipppiyiiyiyiiiiyiyyiiytuyyyyirrrwtyrrtuuyuytuwrtwrwwuir0r0ruiiyyyyiiiiiiiipiiiiiiaiiiiiiiipipiipppddhdddiidiuiiiiipiippddddadhphadappisdhdddhddrwuhkjcczcvvvvvcvckpywrrwuurrwrrrryrryyrrurrrruuwrrrwuryrrrryrrryrrrryryrrrrww:<666966966665566962553qrrruuuurqqwqrw99555582<:::*;::,,22858822,22<<252255679q9q9qq6669w6569632dcccvvvvvvvvvvvvvvvvvvvvvvvvvvvvvvvvvcccckcccczzdrriw659900000099999969966663699699999q9997990009w9wwwyrwwwwwwwwqwwqre0000wwrrppdhdpkhdkdkkjjkkkkkklzzzzzzzzzzzczzzzcccxcvcvvcvccccccvcvccvvvvvvvvvvvvvvvvvvvvvvvvvvvvvvvvvvvvvvvvvvvvvvvvvvvvvvvvvvvvvvvvvvvvvvvvvvvvvvvvvvvvvvvvvczzkkcccckkkfkkhhjkkhkkkzzzzzvccczzzkklkczkkfppdkccjhgihiyyipiyiyihkckkkphpppidjdpuddahpipfppdiutuirrdyywupdpapuuypppiiyyyurw000000990rrrw0ereiidiiiruuuudkkklkdyuisiwrrrrwuu090ruyrrurrusirriiyhphhcczkkapiiurruuuuy0wrwtsu099000",
"vvvvvvvvvvvvvvvvvvvvckpuydd600w9uuiuiyiiiu00u0uu0u00008859995996990090009969990999990ww0000eer0ww00000www000ew0wwwrwrywwwww00wwww0w000w0099909990000000666666955625288485855558695995998695996669763693966631111,1,11,,=,:,,,2223236766990009000qwwiiirrrritiihdpppspipiiihshhkzjkjjkkddapppiiipdiiispiidadaadappahdpadididdddddpdsdspddpsdsidiidiiiiiiddpiippipiyiyyiiiyiiyiiyityutuytiwrrwytrryuyuuuyrutrr0ruuiww00ruiiyiyiiiappiipiiiiiiiipiiiiipiipyippppadhiddipppspipiipddpppadadddddddhppsphhddddpds7wyrpcczzcvvvvckiywwyuururururrrrryrryryrrrrrrrryryrrryryrryryuurrrrrrywrrryw<366699666666366606699wrsrrryisrww0ww09699855222:::::,,,1<12221<<281:12222356q79wwq9667q653666664ykcvvvvvvvvvvvvvvvvvvvvvvvvvvvvvvvccvccclcccckcdiphd05999990000999893666666999399699999909990009w9wwwrqwwwwwwtwwww00w0rww099wrsphddhhhkjjkkdkkkfkzkckclzzzzzczvzzzzzzzzvcvvcvcvvcvccvvcvccvcvvvvvvvvvvvvvvvvvvvvvvvvvvvvvvvvvvvvvvvvvvvvvvvvvvvvvvvvvvvvvvvvvvvvvvvvvvvvvvvvvvvccxlkkzkkcccckkkkhhhkkhkdkkzzzccvvvccczzzzzlkkkkdpiakcchhhhpiiiiyiiiipfhlkpphhpipppkdppppkppkkppiipiirrwdduyuididdpiiiypiiuuuutw000009999rutt0rwwriiiiuututpajkkklhiwiisuuurrrrrr0yruw00iiriisisdirkphphkkzckdpuuu0uuiuuwtr9000925299",
"vvvvvvvvvvvvvvvvvvvczkpidkp700q0uuiiiiiuiu00000urut00099586999686090696099699999999900w0000000w0e0000wwwww900ew0ywrwrwywwewe0wwwww0wwww0099000990w00009666669555566655556656866629268959598989666633966666633111,1==,,,,=,=,,2224336977w0wr000w07qwtiitrrrtisdidspddppiiihdhhhkkkjhkkhdpdpppipipdpiidiippadddpdppdddppppididdddddiiddpidiiddsiipiddsdddddpiippiyyiyiyiiyiiiiiyiyuyruutiirytyywrruutuutywuwrrrruuiw00wwruiiyyiiiippipipiiiiippiiiipiiypiiiiipippapddipidiipiiipsdpppdddddhdadddppppphhhhhpdduw77wkkccvvvvhhywwwtiwrrruwuuruyrrrrurrrrryuryrrurrrrrrrrrrrrrrrrrrrrwrrwrwwr<<369666663367966w00wrrsssprrrr9qww0096900995222><<<<<<,2,,1221<2<;;,22,<35569q9ew7976qq96669999<0pzvvvvvvvvvvvvvvvvvvvvvvvvvvvvvvvvvccckcccccclkkkckr590009999999999666635639996698999099609000wwqwwwwwwtweuwwwwww00wr0ww099wrsihhdhkhhkzjkkkkkkzzzckcczzzxzccczzzzzzzzcccvccvvcccccvcvvccccvcvvvvvvvvvvvvvvvvvvvvvvvvvvvvvvvvvvvvvvvvvvvvvvvvvvvvvvvvvvvvvvvvvvvvvvvvvvvvvvvvvczzkkkzzlccccckkhkkhhjkhkkkkzccxvvvcclzzzlkkkkzlhdipjzckkhhpiiiuiipipppplkpahkpuppipdkhiykppkfyiiiddurrrdddipiy0iuippuuiiuuuiuywr000999990rttr0rwwuiiiuuuuiisdkkkkkduwuudppiuuuyir0rwwwrdiiidssddpidpdipkkcvckpuiuuuiyuurr08555928999",
"vvvvvvvvvvvvvvvvvvxczdssddy7qr0quuipypiisrr00r0yuurr00099598959909990060e96999999699000ww000w0000060wrwwe090wwwwwwwyyrwwwwwewwwwwww0wwww099ww000000e0906865668582656555566866669255559955859822<425566363333311,,=,,,,,,==,,22<<6559q0wq0rr00wrwwwttiiuwrrriighhsdsddpiiiihhhhkkkjkkkhdddpdpaiiiiipddiidppppddddpdapppppdiissdpdpsdddsdsdpdiiipipidddsdppppiiipyyiiyiyiiiiiiiyyyruryiiiiyyryutrtiytiurwrwrrr0tuuur0rwwriyiiiiiiphppppipiipipippiiiippypiiiiiippdidduiidiiipippddpdaddhhdhddddddpphdhdhdkpkdsr06qkkcvvczktwyiiiwwrrrrrrrirrrrrrrrrrrrrrrrrrurrrrrrrrrurrrrrrryrrrrwyrrrrr33<366666256900wwrw0wwrsiypywrr6w000669900099585228222228,,122218,=:228256666977qq6q99q7qq99976396tkvvvvvvvvvvvvvvvvvvvvvvvvvvvvvvvvcvcckcccccckhckkky569009999799996666655639666996999976969700qw9w9wwwwwwtwtwwrww0wewrwq09wwwwiphdkkhhkkdkkkkakzzzcclczzzzzcccczxzzzzzczvzvcvcvvcccvcvvcvcvvvvvvvvvvvvvvvvvvvvvvvvvvvvvvvvvvvvvvvvvvvvvvvvvvvvvvvvvvvvvvvvvvvvvvvvvvvvvvvvvvccczkkkkkxkcccckkkkjhhkkkjkdkkzcvvvvcccczzzkkkkkkljhhdhhfkkkdipiuwiipppphpkhhhkhppppppkkpiycayhhuiddduuruuipdppiyyiyuipuyipiiuiiyw00000999900rrrrwwrrrriieuuuiiahhkjssiuwuaaiiiuiuswyruuuisssddsddidksdphalzccczkkiiiuyyuur099222998889",
"vvvvvvvvvvvvvvvvvxvvzdiudd560u60uuiyyiidiur00r0y0ur000009999999967966000009699986996700000000w00009errw9w990wwwrwyrrwrwywrwrwwwrwweewwwww00www00w0w006660655566666269585555556669999599999554>:-;<22662333333111=,=,,1,=,,:1122453599q7q9rr00wr0wtywiwwwewriiihiiddhddppiphgkhhjzkkkkhdpaphdapiiyupdiuudppppddpddhfpppppippdsdhhdsdddhididddpiihiiiipiiipipppyppiyiyyiyiyyiiiiyyrruttissrwtyuyyuutyiiwww0rr0r0wuirr0wryiyiiipipikfpipiipyiiipiiiipiiiiiyiiiipppapddsppiiiiippppdpdddhhddaddadappddhhddkkjkprr06wjkccvkyyitwiywwwuiirrwwirryrryrryryrryrrrryyrrrryrryrryrrrryrryuwyrwwrrrq826669696369www0rw0wqwryyywwipr0066667000009959888828218,:11,,,21<2221967q96966q66696665566qqq6724ivvvvvvvvvvvvvvvvvvvvvvvvvvvvvvvvvcvccccvccccfcckki57569900999998932635339699998996999966600qqwww999wwwwwwwqwrrwwwrrrwwwwwww0yaddkkhhkkkjkkkkzkzzkccczzzzzxcvczzzzkzzjczzzccvcccvcvvcvvvvvvvvvvvvvvvvvvvvvvvvvvvvvvvvvvvvvvvvvvvvvvvvvvvvvvvvvvvvvvvvvvvvvvvvvvvvvvvvvvvvvcxlzzzkzkzzckkklckkkhkhhhkhkkkkzcvvvccccclzkkkzzzzzkkkhddhkkkkhpppiyyiipffkahahhhkppfhpkkaipcdukhiidsiuuuuuyuiiipdiuyyuppipppiuiiy0ur00909909900wrriuertiiesiwiispslsiisiuiiiiyyiiipiipir0wdhhkhdsdskcidikkzlzzzzccddiipyyur095511209882",
"vvvvvvvvvvvvvvvvvvvvzdpipki66wq7uipiipiiiw0wry0rwyyyw079595999999699979006696997960909000868000090wuww0ww0000wwwrrurwuwe0wrww0wrwwywrwwwwwwwwewwwwww00009986666666666566655555859899985992:+;:18<<<2552535332<,<,,,,,,,,==,,4333222999wwwiww7wwwwwwwwwwwuyypppppijhhhhiiihhgkhdhkkkckhaapdppiippiipiiyryhayphapphhpdppphapphhhpppppadppiidisipidiiyiipiddiipppypyiuuuyiiiiiyiiiyiiyiiaiauyuuuuuuuuuuywywwwwrwrrrrr00rwruiuuiiaiahhsiiiiuiiiipipiiyiiyiiiyippiipdpiiiippiiiipdisddadaddddadddddpdadddddhhhjiwsw9rpkzkkiyitiwwyippxciwrtwtwwururuwrryrywrryrywwryyryrryryrrrurrywuwwwyruryr<2666766900wrr0q90wrrwwuyywruuw6666669q959rw96999996322552<><42825865866679657096675605699q99936q32evvvvvvvvvvvvvvvvvvvvvvvvvvvvvvvvvvvkccccckkcckkdw77760090w666666666666699699989999693686999qwwwwq9wr00r0rrwt00rt0u0wwwww9qupkkkkkppkkhhkkhdczkzklzkkzzzzzcczzzzzkklzzzccccccvcvvcccvccvvvccvvvvvvvvvvvvvvvvvvvvvvvvvvvvvvvvvvvvvvvvvvvvvvvvvvvvvvvvvvvvvvvvvvvvvvvvvvvvvcvvklzzkkkckzlzzzkkkdkkkhkkhkkzvcvvvccvczkkkkkkzcczhkkkhhipkjjsphhpayiypahhhpyphkhpkphhhpiickkiyiuiikdisu0uiuuuiiidruiusdrrapippppdwww0099w99799werrrreriirwpjiihhpuipsipiyrrruuiuipi0uiuuaddhhkkdhzzzzzzzzzzzzzzzzzdiuiiuyeq53565237qeq",
"vvvvvvvvvvvvvvvvvvvcchpikpiw9qw0uipiiipiuw0wr0rywrwry007999999979759999900960006886698666999068690wwrwe0w09000wwwerwwww0w0erwewwwwwrywwwwewwwwwwwwwww0w099986666666656666686555559955999:::::,,,2<22553535262<:,,,=,=,,,=,=,4332423667wwwuw77wwwwqwwwttuyyyippdhihhishiuihhhjhdjlklkhppiiisippppdiiiiiypdpppphdpdhhpapppppphphhpppppdkfpdidipiiiiiiipdidddpppypiyyyyiiiiiiyiiiiyiyiyiiaasuwuiuuyuuuuyywwwwrrrryrtw00errriiiuiiiihhdiiiiuiuipiiiiiiiyiiipipuuiippiiiiipiiiidssdddppdddaadddddddappdddddhhphirsr9shzczkiyywyphzvvvckiwrriiwuwuwururrywrwrrywwrrwwrrrryrrrrruwywwrwyruwywwwq356669909969rurw969qwrruuuwriur99q696999589q660q99w963706686669555696566666657qq9009005679969966q529vvvvvvvvvvvvvvvvvvvvvvvvvvvvvvvvvccczccxclklkccchhfr7609wq9q0666666656666986996969999999999q7qwww990e00rr0r00rt0t0u9wwww9quappkhhkhkkhkkkhhkzzkzkkzzkzzzxcczzzzlkklzzzccvcvcccvvcvvvccccvvvvvvvvvvvvvvvvvvvvvvvvvvvvvvvvvvvvvvvvvvvvvvvvvvvvvvvvvvvvvvvvvvvvvvvvvvvvvvvvcvczzzzkkklklzzzzzzdkkhjkkkkhkkcccvvvvcczzkzlkzzlzzkkkkhhpidkjhhkkdiaiipdhhkhahkfhkkhhhhhppzkkuykidhkdddurupiuuiidssssrigidiyyiiiipdu000w09999w9wwwwrrwriirstuspipdsspiipsiuwuuissipiruasiaddhhdhhdfzkzzzzxzzxzzzzzzkkddiiuw765653<37qqt",
"vvvvvvvvvvvvvvvvvvvvlhpphiw00wwwyipiuuppywwwryr0rrrrww77999999999799999906790060666959666699000600wwrw00006900we9wewwww00wwwe0rwwrwwwwywwrwwwwwwwwwwe0w09996666666666668966698599952909>@::1522122225<5542522,:,,=,,,,,,::,,2333652666qq7wuwwwywwwtwwutspiyipdhpihdissiiipphkdpklzckkdpyuiipidhippiiyyuphhppppppphddpappppphhhpppppppkhpididiiddpiiiiddiiiiipyiyyyriiiiiiyyiiiyiiiyiuiaatuuutuwrutuuwwwywerwwyurtrr0r0rtusisiaiahhpiiiiuiyyiiipyiiiiiiiiypipuuppiiippipiiipddidpipddppddddddddddddhdaddhpdippr7phzxxxlkkccvvcczkvcdwrtwiiwiruwuwrrwyrrrrwyryyrrwrrrrrrrrrwrwuwwuuwwrrwwwi96666966900qrrw0666qwriuuyqqur79q99899995599389q9999669986690665556966666qq797wtwww0009qqq699666655wcvvvvvvvvvvvvvvvvvvvvvvvvvvvvvvvcvczzcccccclclkkkkci76660q0069666q96366699699990667996999997qwqqwqq000r0rwwr0000000wqqq9qeipdkphkkhjhhkjjhhkzzklzzzzkzzzzcczzlkkhhkzzccccccvcvccccccccccccvvvvvvvvvvvvvvvvvvvvvvvvvvvvvvvvvvvvvvvvvvvvvvvvvvvvvvvvvvvvvvvvvvvvvvvvvvvvvccvczzzzkkkkkkzzzzzkkdhkkkkklkkzzcccvcvczzzzkcczkkkzckdkkhpiiphhhkkkaiiiipdhkhkhhphkhhhddhklkzziyzdddddddiuuiyuyuiisdss0rsijpuyiuuiikswwrw00ww7wwwwwwtirrriwptispiidassuiiipiuuwuiipsiyipsshhhhhkhddkzzzzccczzzzzxzzcczkiiuy6663766322696",
"vvvvvvvvvvvvvvvvvvvvlkpppy670qwwyipiuppaywww0rrywyrrrww79997599906999999000606069999999666696660w0ewww08999000ww0rrrrrw0wwwwerewrwywwywwrwwwwew0ewwwww0w000866666966686966999995555995:;,:,12222322<55355<<2<<,:;,=,,,<<,=:,26436669977wwwwww7wwqwwwwttsiipppahpddddhhhhphpkkkdzccclkadpiipiiiyuiiipiiyihpaphhphpaddpdippappahppppppppkpdidipiiiiiiiiidiiuiiippyyyuiiyaiiiiiiiiyyiiyyipasuuyuuutwryywwwwwwwwwwrurr0w0r0ruusiiiiihdpiiiiuyiiipyiiiyiiyiiiyiipiuipyppppiiiiiiiidpiiippppdddhdadappddhdapdhhpipp09sdkxxvvvvvcvxvccxvxhuriwwwuwrrururrrrywrrrrrwrwyrrurryrruryrwryrwwywwwuutiq6979666900rrw70990rtisurwwwrr7699999999958636909q0q99w6626666585569969766qwqqtw0wq000979q6699337q7pvvvvvvvvvvvvvvvvvvvvvvvvvvvvvvvvcvczcccccckcckkkjkjkq666609009q696666669669896960696699699977qwww770000r0w00rr00r0tww997wtiippkhhhkkhhhkkkhlzkzkzkkkzzzzzcccxlllhhkzzcccvvcccccvvvcccccccccvvvvvvvvvvvvvvvvvvvvvvvvvvvvvvvvvvvvvvvvvvvvvvvvvvvvvvvvvvvvvvvvvvvvvvvvvvvvkcvckzzkkfklzzkczzzzkkkkkkkkzzzzzvcccvcvczzkcccckklzckkjkkkhiruhkhkjaapiiphhkkkkpiifphhhdkklkkcdkcdpikdddiyuiuu0ruiiuri0ususappppiiijpdsy00w99wwwewrerrriwwrupdiypdisurrryuuuurwruiisiiijashhhhhdddazzzccccczzzzzzzzccckdiii536366660w997",
"vvvvvvvvvvvvvvvvvvvvchppky70wytuypdiiiddww0rrrrrwyrrurw00799909909609999696999660999986666686080000ww096090000wwwerrrrwerwwwwwrrwwwyywywwwwwweewwww0www0ee999559998996989999995995209:*:,:::,2223232255652<22,,,=,,;,,<<,,,<2366669ww79q9wuywwwiwytuuuuiiipppphpphphhhhhkkfkkhdzlzczkjhdiiiyiiiyyiippiyphfphpahppdahhdayppppfhpappaappppdidpipipiiiiiiiiuuuiiiiiyuiiiiiyiyiiiiiyuuiyyupaiurirrrrrwwyw70wwwwwwwwrur0wwwwtrruiiiiaddpiiiiyiiypiipiyiiyyiiiiupiypupiipdpiiiiyppsdspppdddpddpddaddaddadddddhhiihdwwipkzkxvxxcvvxxxcxhfiwwiwiwuwurururrywrrrrwrrywrrwryrrrryrwyrrrrrrwwwwuuiurq99rwq900967wyyrq0rrruurrqwwuw966q9989909999899q99qqq996699866995489665667qwwqyw90000w06999996636w7kvvvvvvvvvvvvvvvvvvvvvvvvvvvvvvvccccccccczlckkkkccccjw6906066q666966666669966966099966969399999q7q7q00e0wwwt00r00000wwq7qqwrwudhhhhhhhhhjkkkzzzkzklzxklkzzxcccczkakzzzzcccccvvcvvccckcvvvcccvvvvvvvvvvvvvvvvvvvvvvvvvvvvvvvvvvvvvvvvvvvvvvvvvvvvvvvvvvvvvvvvvvvvvvvvvvvvccvczzzzkkkzkzzkzccczkzkkzzzzzcccccvvvvczczzccklccccczkjkhhhpywphkhkkhppipahhhkhhpipdhkhhkcjchkkkkphkkhakiyuuu0iuuuurriisgusppppipssppddpwwwwwwwryrwwirrwwri0shpippituwwruwruwrrrruuupsikdpkkdhddhhhkzzccccvccxczzcccvckkfpy63635667999q9",
"vvvvvvvvvvvvvvvvvvvvkjddcpw0qwtiipiiiisdwyrrryrrrrrrurwww099979909009979066790009999999606555800000e0976600w0ewwwwewwww0rewwwtrwwyw0wwywwwrwwwww000w000000998999999899995669859596691*:2::::,1223332566352<<2,,,,,,,<<<2,,<<3366667qq66qwwuw97wiuuuiiuuuiippkdpkhdhfhhhkkkkfzdhzklzzljhhipipiiiuyiidpiiippppppphhhpphdpphpppphpippippppiidisiipipiiiidiiituuui0uuuiiiiyaiyiiiiyywwurryidirrrryrruruwwwwwwww0wwrytw0wewww0ruyyiiidppuiiiiiipiiiypyyyyiyyyypiiuypppppppiiipiiidddspaaddddddpddddddddhdpddhdyihdyriijlkxvxvvvvvkkkphcdetriwururuwuwrrryyrrrwywrrwyrrryrrrrrrwwrrruuuuurrurtsu77ww990070wippur90qrruuwwwwrw76699999000009989666776966900666996859552633qwwwww90w00q0699qq993q577cvvvvvvvvvvxcvvvvvvvvvvvvvvcvvvvvvcvccclzzzclclccckkhw69660666606666666966696699679969969999999qqwwwr0rrwtwrtr0rr0u0q779q7wwqtiphhhkhkhkjkkkzkzkzzkzllzzzzzzcczzkkkzzzzccvcvccccvcvckcvvvcccvvvvvvvvvvvvvvvvvvvvvvvvvvvvvvvvvvvvvvvvvvvvvvvvvvvvvvvvvvvvvvvvvvvvvvvvvvvvccvczzzzkkkzzzkzzxzvlczzzzzczzzzzzzzvcvcvzczckkkcvccckkkhkkkhuryhhkkkkpppphhjhdkkppiddhkkczkziddhfhvpkhhzdiiyyuuuurrrrssdsusuupiiddddpsdjduwrrwrwwwwrewqwwuiuwskduyauuuuuwwruiuuyuuusdpajkhldkdddhhhzzzcvvccczxcxzxcccczczhy7665536q53253",
"vvvvvvvvvvvvvvvvvvvvchdpcht69qwuiipidddiwyyrrrirrrrrrrrrw09990090970997099990w0099999598666666009000066690000wwrwwwweww0rw00wwwwywywwwwwwwwwwwww00w90999099995859999999999995968599,:=:2::,,22212336666352<<,,,,,,,,<<<<<,,<3666666qq7799www0wwiuiiituuuiyippkkpphhhhhhkkkkkzkaccccclkkkhhpppdpiipippiipipphhahhhhddhhdpppphhppapppppppididipiipiiippiiiiiuuuur0uiyiiiiaiiiiaiirwuurwrihur0yrrywwywww0wwweewrrrrt0000wwrwrrrryipapiiiyiiypiiiiyiyyyiyyiyiyiiiipppppspiiippipdddipapddpadppddddddhhaddddddipahpiywhzkxvvcllkzkkkjxvkiwtwwrrwuwururryrryrrrwryyrwwrrrrryyrrryrrruuiururuiidsw6ww7w90ruppirrq00weruyw7wuur790q009q900099999q535636966666666954265556326qq7qr990090069999996q6wyvvvvvvvvcccvcvvvvvvvvvvvvvvvvvvvvvvcccczzzcklcckkkhdirw7669666q6666666669666966969996669999699777qw90e0rr0t0w00rt000q79wwwwwwquiphkhhhkddkkkzklzkzkkklkzzzzzzzkkkfxczzzccccccvvvvccvzccczkcvvvvvvvvvvvvvvvvvvvvvvvvvvvvvvvvvvvvvvvvvvvvvvvvvvvvvvvvvvvvvvvvvvvvvvvvvvvvvkccczzlkkkkckzzzzccvlccllccxczzzzzzzcvvcczcczzkzlccckkhhkkkkhpppaphkkkddhhhhdkdkkhpphddhzzkjiiddhkkvakhkzkddrr0uuurwutsuuu0uupiipdddhpshjdsuuuyywrrrrwwwiyiiswypayypurwuwwrriissiwursadahhflkddddddhzzcccccccccccczczccccchw67q6553997669",
"vvvvvvvvvvvvvvvvvvvvzhdhcju99riiidisdhhiwyirriiruuurrrrrr0999099e090999999900wew986989958666008060009556600000wwwwww0wweww00eww0wywwwwwywewwwwww0w000999999599990999999999895996200:*,1=,::,,,2,3236666634;:<,,,2<<<<<22<,,<33639666766q7w7770ipiutwwwyuyiipphkphdhkhhphkzkkzzkvxcvcckjkjjhdhhdiiyipiiipiiphpppphaddhhdapppapppippppapppididippiiiiiipyuuurruurruiiiiiaiiyiisiyrwruuwuidrrwyrryrywww099wwwrruruuur0w00wtwwrryyippaiiiiiipyyiyiiyiiyyiyiiyiiiyypahpiipipiiyyyiddiippapddadadddddaddddapdakppahdprtgckzzzzvxkkhjzvkvkiriiwwuururuwrrwwrwrrrywrrwryryrrrrrywrruriuiuuuruiisis657trdruuiiiirq90rirrruw7wuuq7qq000q9w99982000t95667qq06668966622256826357www9059099999q996976qqppvvvvxvcclxvclvvvvvvvvvvvvvvvvvvvvvvvccczzczzlkkkhkkhhdst67q9q60696666696699666699999363939963699q7qwrr000000wt000000w9qweww0w0qupdfhhkdkdkkkkzzzlzzzkzzzzzxxzkkfkfzczzzcccvvcccccvcccccckkcvvvvvvvvvvvvvvvvvvvvvvvvvvvvvvvvvvvvvvvvvvvvvvvvvvvvvvvvvvvvvvvvvvvvvvvvvvvvvzccczzlkkkkkkzzzzccvvccvccxxxvzczvvvvcvcvvzczccczzcczgphkckgphdpypdhhhhkkhhppdkkhphhhpudjzkkuizzkvzczczkkduyuurututiuusiiu9rpddpphddpdhkhssdyrrwwruuew7wwwewiu00riauirwwrr0tyippitr0idpskfhkkkkkdaddzccccccccccccccczcckccay69wq533666556",
"vvvvvvvvvvvvvvvvvvxvzkapckiwqtypidhpahdiryrrwiiiryrruurrre099995079606009900ww00www0099769669999096996666990ew009ww0www9w000wttwrrwrwwwewewwwwww000ew999889999959990000909669999208&:81111111<22<23665633<,,,:,,111<<<4<<,<2366569999999q5q62yyiiuuyytiuyiippdhhkpkhkkjkkzlklccccvccccckhkkhhpppipiiaiiiiiddhhhhkhaddhddpapaaiiippppidididiipiiipipipiyyiuuurruuiuppaiiyyiiippuuuupiyyydiw00rry0uw9996999wwwwrurww090ww0iwutuuusiipiiuyyirrsiurryyuuuuiiussiuuiaispppssipiyipipidpipisdddpaddaddphaddhdhhhhhhhppiipdhzlzvvvvcvccvcjdiyyiuyuuuuyyrrrrrrrrrrwyrrrrrrrrrruitirrrurwrriidiiiui7wpiiwuruisisur00wwrriwr0qsr669q9qw999q999q997w79369qe96699666666555566669wtq799999999y0666760y6icvvvllzzzzzzzkcvvvvvvvvvvvvvcvvvvvvcckhkkkkkcljkkkkhpddhuwqq099666666666666669669969666796669669669q6000099900u000u0000000r00wwisddhdkddhkhklkkkdkkkklklkzzzzdkhapkcczzccccccvvvccvvczzckakvcvvccvvvvvvvvvvvvvvvvvvvvvvvvvvvvvvvvvvvvvvvvvvvvvvvvvvvvvvvvvvvvvvvvvvvvvvvvxckklzzkkzjjzzxzzzzczzccxvvvxkkzkzcvcvvccczzzzkzzzcckkhhhkklkhhhhpypkdddkckhdhkhddhhhdppjzkzkklakkzfypdkpiuihur0uirrdr0iu00d0dhiidddhhhhhhhhpuwwyuuuwww7wwiyssutuiipwwwrwwwryyiiiiiruiddhkhhdkdddadhcccvvcccccccccczxcxxcch0re76qq6366635",
"vvvvvvvvvvvvvvvvvvvvxkkdvku9wiiaipppdkkirrrriiiirwrruuurrw099009000990009900000090w0096966669999000668686690ww009we00ww0w0900wwwwwwwreww00w0wwww009ww999899959899999000999695896291&:1:11::12<,<<266666632,,,,,,1,222333<<,<256666699999q3q22wypiiuwyytuiiippdhdhppkkhkjkkzzcccvcccvvccckkjkhhhhappppiaiipdfpdpddddddhddpppppppippppdidiiiidipipipipiipiiuurrruupipuiiiiiiyihpiiuipiyiiauu0wr00ruw99699900wwrryyue090we0wwrrrruipuupiiiyruurruusiiiuitirriuiuiiiiippppspiiiippipiddpdsddpdpdddddhpddphhhhhhkhfppiipphklzxxvvvvczdpddii7wwyrrruurrwrrrrrrrwyrrrywuuuiuusutrririiiiiiuuiidhkrrppiwrrussuuuq00wwwwuwr0wir699qw99qq99669999qqq96667q969996660066555566390q0688990000q967996365tkjcvzclzzzzlzzcvvvvvvvvvvvvccvvcvccckjhhhkhkjjhhhhkhhphpuw86969666666666q99966966899666999639qq79q69600009900000000t0990000090wwidddpdjjdhkkkzkkjkkzzklzzkkjhphhpakczzzccccvcccccccvczzzkdkvcvczvvvvvvvvvvvvvvvvvvvvvvvvvvvvvvvvvvvvvvvvvvvvvvvvvvvvvvvvvvvvvvvvvvvvvvvvvxxlkxcckkkzjkzzzzzzczxvccvvvczzkzzcvccvvcczzlkzzzzccccfhahkkjhkkhdppddhhkkckhhhhhhhkhdphkkkckzzkkzcfkkcckdadiuuuui0ruyr000usssidkpikhhkhkhhhddiyywww97w7wwiyrwwruiiuwwww00wtyyuuuruurustusddddddkahfcvcccccvccccccczzcxzzkp0weqq766636666",
"vvvvvvvvvvvvvvvvvvvxczhavhw6wypadhffzczpuurryiiirwrrurrr000090000900600999090099w90009996699e9990806666660900000wwwwwwewr000ewwwrwrwwwwwww0weewww990099099599959999970990996698888=&:::1:::1<,,1<<36666631,,,,:,,,2<23332<<225666993993993w52qipiiitwuyuippppkpkdkahhkkkkkkzzzccccccccckkjkhhkhppapaaippiipphpphpddhddddpppppppappppppiiiiipiiiipppipiiiiuuuruuupuupipiiuaiphpiiuudiryudrrrry0yrrw99999w0wwrrrrwww000wewurttuwusupuppiiyirrrrrrryuuuuttuirrppipppppppppiiiyipppddiuppdddpdpdddddphdaahddhhhhkhhpiiiipkzlhpkcvkkkidhckpuyrrrrrrrrywrrrrrrrrrrryruuuuuuurrrrrrririrrruidkkkckpirssurrrsirrw90qwwwrrrqwur99996999999666699qqq76666698699869666665666326666652822999035600620<67>wvvczzzzzcczlccvvvvvvvvvvccccccckkkkhkhhhkkhhhkhhdphhsr9966966966666666699666999866363936637q9999q9909000000000000099999997999widdpddddhkkkjkhkkzkzlkzzkhdppahppfxzzzzccvcccvczccvcczzfdkcvckkcvvvvvvvvvvvvvvvvvvvvvvvvvvvvvvvvvvvvvvvvvvvvvvvvvvvvvvvvvvvvvvvvvvvvvvvvvvxxvvckjkkkkzzzzzzccccccvvvvckzzkzzvcvcczzzzzzzlzlcxckkhfkkkkkhfpipyphahklckhddhkhhdhkkhhkczzzkkzzzkkzcckkkiidiriru0uu090isdsuiddpkhhkhhkhhhkddiw77977wwwwwwuuiiiyyrrw0000w0wusuwruwuiuuisadddkhhkzccvccvccccccxzczczzzzdirrrrw657q66669",
"vvvvvvvvvvvvvvvvvvvxzkhacjw60yiphkzzcvkiuuiyyiiiryywrurrw000000099960606090000090w000999660weww80086666660000000wewwwwwwrw000rwwwerwwrwewwww0w0ww990090099898999999900990989999591*:11:11:::<<,,=,<3663931,:,,:,,,,<233332<256669999966377qw7qyiituuwuttpppppppppddhhkkkkkkzkzzlccccccckkkhhhkhhpdpappiappppppppdhhhhdpapppppapppipppippddiippiiiypiipyiiuuutiitppiuiiaiuiuahaiiyupiyiuhirrr0y0rrww0w9wwwwwtrrwrrr00wwrwuuuuuutspippiiyisuirrrrsyuuuuiuuuurupiiiiiiiipiiiyiippipiissdpppaddddddahpdhddhhhhhhhkhpihhipkzziyihzkhkcccvvkpuurrrrrrwyyyrrruuiyriypiirrrrrurrirrwrrrrridhkcvvzcsrurtirrisirqwqqw0wqrurrqru099669996669636669976966666666696996698856566979666988888899322999864q0<wvkzzzzzzzzczzzvvvvvvvvvvcccccccckkhkhhhhhhhhhhhhaphhsw966666666663666969999669966936666699q6q666990909000000090000999099996900udddpddkkklkkjjkkjjzzzzkhdpiippppkzzzzzlcccvccczcccczzzfphvvzkkzvvvvvvvvvvvvvvvvvvvvvvvvvvvvvvvvvvvvvvvvvvvvvvvvvvvvvvvvvvvvvvvvvvvvvvvvvvcxvvckjzzkkkzzzzxcccccvvvvvczzzkzccvvvczzzkzkzzzcccccklkkchhhkkpppyipadkcckjahhhhphhhkhhkczxzzzzczckkkzzkkdidu0ius0u00uiirugsuikhahhhkkhkjhkhhpyywwwwwwwwwuuuspiuyrr0r09ew0wwiuyyy0uddpapsddddhakzvcvccvcvccccccczczlxzirrwrreq67w66997",
"vvvvvvvvvxvvvvvvvvxvclhakku90upphhkfllayiuuuriiirrrrrrryr0e00000000079599999900009000999900www8606665666006000990ww00ewwre000er0wrwwrwwrewwww0w00900000w9989999999999990998999660=*:11111:=,11<<,,<3666931:,,:,,,,,<225532<236666q7q96960wwq67wwtuywwuiippdphpfpphhhdkkkkkclkkklccccccckhhhdhkhhddppppaisdidphphdhkkhapppppppppiippiippiiiiidiipiiiiiypyuuuuusisiuiyiiiiiiipdayiuypuryyhpuwuuurrwweww0ww9wwuurwrurerewwrwwwrwwwsupppupyprsrrurirrrurrrururuiiaiipiypiiuiiiyiiiiyiiiipppidpddadddddhpphhdhadhkhhhhfhppkkfiwihcccvvckkhiwwrwtrrtrtuuppspppdppiipyprrruirrrwrryriiihjkcccckckw7iiiwriispurwwqw09qrsr00ww09969696963993666qq66q66666669669998065511><<<52<<>,,:::::11,:;::<22296>wvczzzzzzzzczzkvvvvvvvvvccccclccczkhhhhhhhahhkhhppppjhr666666696652636696qq666696696699676q99666999090009000y099099599996996000qwiiipahkkzlkjdkkkkkzzkkhdpdipdihfzzzcccvcvczcczzczzzzkfakcvkhkcvvvvvvvvvvvvvvvvvvvvvvvvvvvvvvvvvvvvvvvvvvvvvvvvvvvvvvvvvvvvvvcvvvvvvvvvvvvvvvvzzkkkkkzzzzcccccccvvvvzkkkzzccvvvczzzklzzzcccccckczzkhkkkkkhhuuiidzckczkjkdddhdddkkkckzzkzzzzckkkczklpip70uru0u0uihi00ssuihdpdkkkkkjkkkhhhdiywwwywywwtwyuuiuyr0e0000wr90wiuryrskkkkhadsddkdkccccvccccccccccczccxcziwrwwwwww9999699",
"vxvvvvvvvvvvvvvvvxvxckhhphu90uikdfzklllpuiiuiuiirywyyrywwwww0e0000000909999900999w000999080ww96508655666000099990w099wwwr000rrrrwewrrwwwwwww0wwwww00w09w0999999999679999099696660=*:1,111::,211<<<<696231,:::,,:<<,2<2552<<266666396qqweww0624ywtwywwuiippppphphddhhdkkkklckkkfkkkckccclhkhhhhkhpdpdppiiddippfhhdadhhhhaappppippippipiipippidiiipipiipyiuuuuutiuiuiyiiiiiiuphiyuyiaiyuuhhiwwuur0rwwwwwwrwwetiuwrrrrrwrwuweerwrriippuppuurriruuriuiruuuruuuipiiiippuuppiiiiiiiyyisiiiippspdddddadddphhdhhhhhhhhhhhkppiphpsrudkccvcjdiiiyyriwiiiihpdddhhhahhhpppiysirrrrrrwyiidhkkcvvcclllcvpriyiisirsirrwww067quir00wq99696666699963666699666q79966666966655241>1><<<2<>>:::>:><595<>;><65<:*-0cvzzzzzzzzlzzzvvvvvvvvvccccckccckkhhhhhhhhhhkhhpppphp7569966696653666669669969966636666666796q999q00990000000999955999669960q000wiippakkkkkdpjkhdkkkdddpsdisdddhhzzcccccvczzcxxczzzkzkpkccaadcvvvvvvvvvvvvvvvvvvvvvvvvvvvvvvvvvvvvvvvvvvvvvvvvvvvvvvvvvvvvvvcvvvcvvvvxvvvvvvclkzkklkzzfzccccccvvvvvzfkzzzcccvcczzzzzzzzccccccczlkkhhhhkkkhpuyydlckczckhdddhddkkllczkzzkzkkckkzczkkfpayudy9iu00udi0ruushiihddhjhkkhckkhkhpuww7wiwittrwuuspprrwww0ewww0wspiusdkkjklhdddddkzvcvcvvcvccccccccxcxzzhyrrutwtwwwq00990",
"xvvxvvvvvvvvvvvvvvxvckkdkku59upahzccxckaiiuuiiiirrwwywrw0re0000000000099769999979999999689899666865566600960999900999w0000900rr0wwewwewrwwwwww0e000ww00w9900999899669999998999668==1:11::::,121<<,<362183,:,:,:,<,<<<322<<<36665366q7qqqyt65<2twuwtyuutiipphphhhhddkkdkhkkkzkkkkzkzccclkkkfhdhaadpadppppdspddhfhpdapdhaapppppppppiipiiiiiidpiiiiiiiiipyiuuiuuuuuyuiiiiiiiiiihiruiiauyiuhpirrrrwwwwwww99ew9rssuwutrewwwewwrrruwwiupuppuuuurrsuuuusruuuuirruipiiiipipisppipiippiiiiiidppppaddddaddddddphddhhphhhhpkhhpppppiriihccchhdhiiihihiihhhhkkkkjhhhhddddppyrrrrrriippdkccxxcckcccxvkvhpursdsrrsrrwwwqw90rrrr90w99069693997996667667966q69q666855668551255689667qq969909000uyuwwwqwu5669tdclzzzzclzzzzzzxccvvvvvcccccckzcckkkhhhhhhhhhhhpppphhi759966666666366666666666999966996666q69q69699009900000999900965999600000000wwyypphkkfkdpkkhhkhhdddsipidpddddhzzccvccckzczcczzczcckkkkdhkzvvvvvvvvvvvvvvvvvvvvvvvvvvvvvvvvvvvvvvvvvvvvvvvvvvvvvvvvvvvvvczcvvccvvvvvvvvvvvczzzkkzzzzzccvccvvvvvckkkzzcccvvvczzzzkkzzzccccxclkkadhkkkkhhppiiphlkjzzzkdpphhdkkkkczzzzzzzzzkkkzkkkkkkiiduysu00usu0uuyihiihddhhjkkkckkkkkhdwwwwwwwwuuwyuspptrrrw0wrwrrrskkphkhhhkkhsddkdhkvccccccccccccccclzzkdiuyriwwwwiwwwq000",
"xvvvvvvvvvvvvvvvxvxxcchdvvd69ipakcvccckdtuuuruiiirrwwryw0wwr000r00e0000699909965969969669855656655555660606799999096900e09990000wwwwwrrrwwwww0w000ww00899990995999999797899999968==8118=1=*:21<,===462281,==,:,:,=<,<<23<<<2666367697q67yw5635iwiytywytiiipppphpdddddkhkkkkzkkfkkzkcccckkjkppppppppppppidpiphhkhhppppppiipppppddippipipidiiiipipyppiiyiyuutururuyyyiiiyyiiiaksryiidsyiihsturw00re0ww099ww9ristrurrrw0w00wwuuwwwippppppisriuitsirustiitiuryppiyiuppuypppididhppiiiiiddddddpddddddadddahahhhphhhhpkkkhhhfptiiphcckhhkczjjzhjhhhhjjcccclkhapppdddpprrrrrshhkccvvxclkcccxcxccj7wdptwsirrrrwwwww0qrsrr90w6606999996996369q6q9qq7qq7qq586556556655569896569q9929965560766700060w60jcklzzzzczzzzzcczxvvvczzlckcckkzclkkhkkkhhdphhhpppphhpy26002666666336666666698696986966663696666963699690ew000990y096700990ww0000qqewyipdhhhkppdkddkddddidiiididdppazzcccccvzzczzczzcvvcfhkahakvvvvvvvvvvvvvvvvvvvvvvvvvvvvvvvvvvvvvvvvvvvvvvvvvvvvvvvvvvvvvvckcvvccccvvvvxxvvvvzxczzlzxzzcccvvcvvvvvzfkkzzccvvvczzzkzzzzzccccvvckkkkjjkkjkhdappidkxjjzzjkddjhkkkkkzzzlzzkzzllcxclflkhhuudidutuusuu0rir0ihpppdhkkkkkkkkkkkkciuruiwyuuwwrwyrutrrrw0wrwrrwufldfkhdklkhddkddhkxvcvccvvcvccccccczckiyyu0iiiiwwiiqrwtw",
"vvxvvvxxvvvxvvvxxvxxcckfcvcpyiahdcckchupiiitirtirwrwwwww7www0w0w0r0000999909962669963699669996663356666969000000w090ww0www00wrrrewwewwwwwwwewwwwww000000e000009009677999896966688:=111::::::1211==,<2228211==2===:,,<2232112236669999q96u7qrrq90uururuutyiiipfhhhhhkhkdkddkkkkjhkklklzkzkzkdddddidddsdiiddddidhhhhhphhdpddddihhsdpppppspiiiipipiiiiyuiupiisuuuyyrrriiutupyphfpypiidpiipdisu0000rw990090000yppiiiuuurwwwwwwwwwussidipiiiiusuiuuutuuiuyiyyiiuuuuuuypaipipiipappiiiippppppphphddphphphpphppfhhhhdhhhhhkkhiwiiewpkcccccccvccccccvvvvvccczkkkkddiuyyyppkzcczzzczzzzzzxzzcvvzzvhyiiihyuiitrrwe0000uuru080w099900099990955800999009668055555558585525556q65qw599999999q0999733332<wcxpvzzxzzzzzzzzzzzzzllkzzzzzzzzzczkkkdhhkhdhphhappdpkdy650092969292963666666666q6600666666669999969600999w99w990095626q96q99qq9900ww90risdddkpkkkhhdkkppppiipipppppahhjzzckkxckkkkklzzzkkaahaphcvvvvvvvvvvvvvvvvvvvvvxvvvvvvvvvvvvvvvvvvvvvvvvvvvvvvvvvvvvvvvvcvvvczccvvxxvvvvvccjkkkccccvvccccvvcccccccllkkzxcvcccclkkkkzzzxzzcczkkkkhhllkhzhshdddcxzxzkkhkddhhkkklzzzzzzzzczkczkkkkkdddpppiwwrwrup9rudppsphpddkkkkkklzkkkkapiyyiywsit0000rrr0ryiiuwwywypzphjjkkkkhidkakzcccvccccccccccccccccdyir0rqwwwwwuuwwwww",
"xvxvxvvvvxvcvxvvcvvvckkhcczpiallhkckjpyytiritiitrwrwwww70ww0wwww000008999999996265696669366696693556666669600000w099990700000wr0wwwwwwwewwwwwerwwwwre0000909960066696990996996662:=:1::1::::1211=*=<222111111==2<:=,,2222122366666696696tr099qw0uurruuisiiipiphhdhdhhdkdkdkdkkhkkkkkzkkzzzkdddipiiiidddiididhhdkdhhpphappiidssshspsipippipisipiiiiiiiiiuuuyuurrrrrrutuuupyphfpppiddpiyphdi099009090w0979wwypapiiuuurrwwwrrewryusiiippiiisuuttuuuiuiiiiiyiiiirritiapiiapippppipypiyspppphphddphdpphphhpfhkhhhdhhphhhhhdiuiirwikcvccccvvvcccccvcvvccckkkkhdkhhkkkkzzlcccczzlzzzzzzczzccczzcjwwiiiywwrrrrwe0t0ttt0r880w99999999999085599900890966005556686696959900qwq9ie7q0999990eq0qqwq7q6i6,yxvlzzzzzzzzzzzzzzxzkklzzzzzxzzzczzkkkhhdkhdhhhpppapkiy56909696695666666666q6666q66666666q6669999666099999009999658626q76799669700000qriipipddpdhhhphphpppppipppapppddhhkkkkcckkkfkkkkkzkahhhdfcvvvvvvvvvvvvvvvvvvvvvvvvxvvvvvvvvvvvvvvvvvvvvvvvvvvvvvvvvvvvvcccvvczccvvvxvvvvvvcczkkkzzccclcccvvvcczzzzkklzzcccccxzkkklzzzzcxccxzkkkkkkhhlfkddhhhdfzzzxkkhkdhhhkkklclzzzzzzzzzzkkkkkkdppdpisrrrwrr9ruirpursdgdhkkzzkzzzkkkkzkkpiiiititr0009ruuuiiyuwtyyikkhhkdkkkhhddkfkxvxccccccccccccccccczdyii0uwywiuwuwwwwww",
"vvvvxvvvvxvvvxxvxvvxcckkcckfkzvvccvcpiddrrrrriisurwwwwww00wwqw9wr00r09099998925556966669666669965336666969990009099999990900wwwwwwwwwwwwww0wwwwwe00000ee00000000979599009966999612::11::::::121:**=<322211===1==,==<,2<,2222669636666966ur0367rruurruuuiyiyypdppapdddhhadddkkhkdkkzzkclkczcdhpppiddisddididddhhkhhhdahppiidiihhhppppippiippipipiipiiiiupuuuturtrrrrrruuspyihkppyiddpiippsu099009669ww009wrydapipiturrwwrrrrwwrusiiiippiiituiiuuuiiiuiyiyyuiwuuuuiaaipppiipypiyiiiipppdghapddhpaahahpphhhhhhhhhhhhhhhhdirthiwipkvcccccvccccvcvcvcccckkkkkccccxccczlczcczkzzzzzzzzczzxccczkcywrrw7irrrrrrw0ut0rt0r08009559999996995589889w8009069855560660696999009w9wwq699999999099qwewwqqw7wpxxkzzzzzzzxllzzzzzzzkzzzzzzczxzczzkdhhhhkhhhhhpppapdp079999929666666666666636666666666q06q63636693609699w0099999528279q9999966900q000wuyiiipapdhhhhhhpppiipiipphphpiiddhkkkkkkkkkkkfkkkkfffkaakcvvvvvvvvvvvvvvvvvvvvvvvvvvxvvxvvvvvvvvvvvvvvvvvvvvvvvvvvvvvvccvvvckcccvvvvvvvvvckkkjkkkzcclcccccccczzzkkkzxzcccczzzlkkkzzzzczcczzkaalzzhadkjddhkzhakzzzlkkfhhhkjlllzzzzzzlzlkkzlkhkkkdddappupprwuu7rurwrrwrddkhhkkkklkkzkkkkkzhdiiirrtrr099rruuiiuiuwwypkkkhkdkjjhdhkhkzcccccccccczccccccccccduiir0wyytuururreru",
"xxvxvvxxxvvxvvvxvvxvvckzcclkcvvvvvvviikjiirririiuywww079w00wwqww0r0008999989596593669666666696663556669899000090999599999990wwwwrwwwwwwwwwwwewwe0rr0r0ww00000000009999900958990628:=1:*:::::21:===,232=2111=1==2====<22,2222369656666666ur9669rruuuurrrryiiiihfppddhhddhkkdkkdkjkkkzcckccczjkdpiiiididiiiiisddddkhhhhhhpididhsiidpipsppiipipippipiiiiipuuuuuuuuttruuuuuipiphhppyidpiiiipssu09009656ewwwwryiddpiyiuuuewrtrwerrrssdiipipiiuuuuuuusyyiiiyiiiiiuuuusipaaiapiyiipiiyyppppdpddhdadphhhhpphhppfhhhhhhhhhhhddiiuidiuuidhcvcvvcvcvcvccvcvckcckckccvxvcckkkzkzklczzzzzzzzzczzcvvczkvi7riwwiiiiiwww0u0ui00t9000859999909999256965609809066080809066009989996626qq6629958999979qwq9qq<6jvckxzzzzzzzzklxzzzzzlkzzzzzzzzzzcxzkkhhhhhfdhhhpipppddi00952296666636666666666666066666666666669936999999w9909999655369999969976000000wwuppphpdphkkhhfpppipipppppfppppddkkkkkkkkkkkkakzkkkkhkakkxvvvvvvvvvvvvvvvvvvvvvxvvvvvvvvvvvvvvvvvvvvvvvvvvvvvvvvvvvvvvvcvccckkzzvvvvxvvvckjkhjkzzzcclccccvccczzcfkkzxzcccczzkllkxzzzzczzxzlkkazxzhhhhhhhdhzkdkkzzlkkhhhhhkkkkzzzczzccckkzkkkkkaddppapruppypduusrwrrripdhhhkkkkklkkklkkzkkhhpi00e00000wwr0uiiiiq0idkpkkdjkkkkhdddhzvvzccccccccccccccccczduurrriwywwrwrrwwii",
"vvvvxvcvvxxvxvvxvvvvccccvvclcvvxvcvziikpitrrwiiiurww7w977qww9wwq00r0999998958558666636636969666655666666699000909997699099900000wwwwewwwwww00ww00wwwwwwww0006066w0009999w0959996881=1:*:1:::111&==,22,==<,,==1=1====,22,1122386636669696uq7q09quiturwruryiiipphphadhhhhhdkkjddkkkklzlkzkckckkdddddidididiidsddkdkhhhhhhhddihhihiiidipippiipipipiipiiiyyuuuuuuuiuuuuuuypipaiahpipddiiyyppsssr00005669wwwyryipppyyutuwrrtirrrtwrusdpipiiiyuuutuuuiyiyiiiyiuustuwiuiiaipddppppiiiypsdddppphadhdhdadphhphphphdhhhhadpahhpiiiiiuwiiiivcvvvvvvvvcvcvvccccccccvkkccxcxczzzccccczzzzzzzzczzccczzkvi7iuyuiitirewq0u00ut0u0800859999099090859995599908999600900069w0000999q66669q698998000666qq769q57wijvczzxzzzzzzzzzzzxzzkzzzzzzczzzkllkkhhhhhhhdkdppddddddir9956669963666666666666666q6666q66663696999609990009099096663999999399699096000wuyiidpadhkkkphpppiiiippppppppddhhkkkkffkkfklhzzlkzfhkhkkcvvxvvvvxvvvvvvvvxvvvvxvvvvvxvvvvvvvvvvvvvvvvvvvvvvvvvvvvvvvvvvvvcckzkkkvvvvvvvckhkkjkkkkcckccccccvccczkfkklzzzxczzzkkkkzzzzxzzzzzkkhlklkhhadhhddkzzkkkklkhhhhhkjkllzzzzzzzzczlcckklkhhphhdpryipiyppipursuuuidhhhhkkkkkkkckkkzkzzzjht0000000990wrusssrqpjhhkkdkkkkkhhdazcvvcvccccccccccccccczkjdy000ewwywwwruwwui",
"vxxvxvvxcvvvvcvvcvvcvcccvxlxvvvvvccaiakpiirrruwwurwwww07wwq7wwwq0r00995595599555666666666666666956666666990000099999899909990000wwewe00w0wwww0wwwe0rwwwwrww0000009969990e099608588:=1:::::::11:-===22,,=<<::1==,,,=<<2<,1112335336666666u00rr97urryrruuuyipiphfpphhhhhkhkdkdkdhkzzzzcckcczckkkdddddddidddddddadkhhhhhappddhhhiiiddpspppsipipipiiiiiiiyuyuuuuuuuiiiiiiipppypakpppiddiyyypsdsr0000669900wyrriadpyiuuurrrutttrrrwrsddpipiiiuuuuuuuwiyyiiyiiuuuutruuiiiippdpiisppiiiddddppppddddddddhpphphppddahphpppaapppyiiiirpdiizccvvvvvvvvcvvcvcccccvcvllzccxxxczlccccczzzzzzzzczzccvczkcwwiuiuiwwirq7000utt00u089065668990090y99599899999996696890e0000e0e0wwweq9769q789529009999qq979qw627ujkzzzzzzzzzzzzzzzzzklzzzzzzzzzzlkkhhhhkhhhdkdipdddipii055963966662666666666366696666666qq696696699999000990999968666969999999909060w0wqwwrppdkkkhhhphppppipiapppppsdddhkkkkkkpakklkzzkkkkfkllzxvvxvvvvvvvvxvvvvvvvvvvvvvvxvvxvxvvvvvvvvvvvvvvvvvvvvvvvvvvvvvvvvvcczkkkvvvvvvvckkhkdkkkkzzlccvccvcvccxzkkkkczxlxzkzkzlzzzzzzzzzzzzkkkkklkhhdddhdfzckklkzklhhhhjhlklzzzzlzzzckkcckkkkhhpadddpiphiyiptpsriirriiahkkffkkkkkkklzkkzczkhsr000r009900ruisstyphkkkkjkkzkkhhddkcccvcccvvccccccccccczccdu0u0wwywwyrwwwwii",
"vxvvvvvvvvvxvxxvvcvvcvccvxxcvvvvvvaiphhdiirwrrywirrw7w77qwwwqq7w00y099899958595966656626666669995566996699000099999978999990w00000we0w000w00wwwww0rewwwrr0w00www009669000999666881==1:::::*:11:===:12,,=,,,:=,,,,==,,<,,1112233336666666ur0999wurrwwruuupppphhhpphhhhkhhdkkjddhkzzzzzzzlzzzzkdsddsdiiiddisdddkkdhhphhppadddiihiidiidsippiipipiiiiiiiiiuyrtuuuupuiiisppippppakpppuddiwwydsssr0009066900wrrripppiyuuurreururrryrrdddpipiiiiuuuuuutyiyiiiiiuiuuiuuuippppdappippiippidgdhphgddddddddphphhfhhdhdhfpppppppppuyiiirpdiijkzzccvvvccvvvvvvccvccvvvvcczzcczzzccxzzzzzzczzzczzzccczvh7wiwiywwwuw969000t000uw98986658990000u9589999509866809060www0w00000ww0w76q6qq799988009999999qqwq56w67kzzzzzzzzzzzzzzzzlklkzzzzcxzzzzkkkhhhkhhhhapppaddpuuw098966966665636666696666660666666666989999669999009909999625399999966679009900wq0000ppddkkhhphphpppiiapppppapddhkkkffhfhkhkkhlkkhzzkzcczxvvvvvvvvvvvvvvxvvvvvvvvxvvvvvxxvvvvvvvvvvvvvvvvvvvvvvvvvvvvvvvvvvvvclkkzxvvvvvzkhhkhkkkkcckccccvccvcccckkkzcczzzzzzkkzzxzzzzcczzxzkklkllfkkjddhkkkzxxzkkkkhjhhkjklzzlzzzzzzclkczkkkkkhdhhdpaphapppirsrwrrw0uiphhkkhkkkkclkkkkkkzkkkst99009999000ruisuuyphhkkkkkzkkhddkkczcvcvvccccvccccccccckcju0u0wywwuwiriruii",
"xvvxvxxvvxvxvvxvcvcvvcvvvvvvvxxvvvpwpkjhdiwwwiyyirwwwwww7qqwwwww0r00999899958595966666625353699925666666999000999599959999990yw0070www00ww0000ww0w0rrwrw000e00000000999989990666e:%:11:1::*:11:&%%=:,,=,,,=,==,==,,,,,,,=212233234636663uuq639qrurrrwuuuidphphhhhddhhhhhdkkdddhkzzzzzckzzzzkkddisiiiiiiidddddkddhhahhpppiiiiiiihdddippppipipipiiiiiaiiiyuttsiiiiiiidpppppiihapppiddiw9wissur009986600wwwrripapiiuuturwuwrwerurssddpiipiptuuuturuyyiyyiiiissistispapppdddyppiiiiiiihphphdddhaddhdhppapphpdhhhapiipiiipiywhhiiidihhjzzzzzccvvcvvvvcvcccvccvckkkccczzzcccxzzzzzlzzzczzzvvczvp7riwiuiuwyt6370tu0009rr09996956900000u99699550009669900e0rrw00rwwww009q36q7qiq0w998rr99339967qqww5w67jzzzzzzzkzzzzzzzzzklzzzzxczzzzzlkkhhhhhhdhapiidkdcduwr090366696666666666966669660666069669966966699900009099996569393999665669909000qwrqqppdkkdhphhhppppipipppappddhkklkkfkhkkkkkaklkazzkcczkzvvvvvvvvxvxvvvvvvxvvxvvvvvvxvvvxvvvvvvvvvvvvvvvvvvvvvvvvvvvvvvvvcvvvlkkkzccvvckkhhhjkzkkccccccccccccccczkzkcczkkkkzkkkzcccxzccxzzzzkkllkkkkkddhkfkzcclklkkhjhhhklzzzzzzzzzlckkckkfkkkhdddapppppphf7rsurssrwyiipkkfhkklkckkkkllzkkkzi0990r099000990rruwuipkkhhjkkkkfkdzcvcvvvcvvvcvcccccccccckkdu0i0wwwyyuiriiiid",
"vxxvvvvcvcvvcvvccvvcvvvcvvxvvvvvvjiipappiuiyyyyyrrwwrrw0wqww9www0w00r09896625256993663666556525696666969699099669999999999990000000wwwww9099900000wwwrwewwe0000000060606900065558:$=1:=:;:==1:=-&%*,<,=====:::=:,:,,,,,:1122223666666666wu66767yrrwwwwrrdpppphhdaddhkhkhkkkkaahkzzzzcczzzzzkkddiiiididiiddhdsidkkfhhhhhphpppppppdiiddsdiiiiiiapspipiiiiiyiiyiiiiiiiipidipiphdyypiisui0uiuitw0000866660wurrsadiuuyiyuuwwwwwwuyydkkadiiiyiyrywutuuiyiyyiiissiuyiiyypppdpuuisppppspdiddadpphaddddaddhddphhhhhhhhhdpdiditiuupppidhhakkkkccccccvxxvvxvvvcccccccczzzzzzzxccczzjzckcklcvczzkcczcwqtwwuurqwuu09900u0090u00r9995966999000009955005567ewww00wwwreww00ww0995qw990wr000wtt09966666397996q6iclkzlkzzllzklkkzkzkzzzzzzzzzzxzzkhhhhhhadddidhkddhdhpyw062626666666366666666999996q6660996966q9999999799989998624500990968555690000000000ddsiihkhppddappipipappppppdhjzlkkkkkkkkhdhhhkzvcczkfazcccvvvvvvvvvvvvxvvvvxvvvvvvvvvvvvvvvvvvvvvvvvvvvvvvvvvvvvvvvvvvvvvcczkdkkkkhhphkhkkkkkkkzkcccvcccvcccczzkkcczzkzzzzzlkzxcczzllhhkkkklllkkkhhhpddkklkklllfhddhkklkzkkxczzzzccccckffkkdppfhpppphpipppiywwriiuyuihhhhhkkkccclzlcclkkkjgs000000r0r0999tut0wazkzkkkkkkfkkzcvvvxvcvcvcvccccvcvczkzkduy0urwwrriiiirrii",
"cvvvxxvvcvcvvvcvcvcvvccvvvvvvvxvzdiippppppiyyiiittw00ww07ww9qw0w0www00099666669666666656335555556666666666999966009999990999000000000ww0w0w90w0w000w0wwwwrwe000000600006999995850:&=::===:::11==&&*<<,11,===:::::::,,:::,1223356666669666w3666qurrwwrriippphfhphdpdhhhhkklkkhdkkzklzcczzkzzkdddiiidididdsddddkkdppphhhhhppppppppdddiidpdiiisisipipiiiiiyuuiiiipidiiippdipiikduypiusuu0riusurq000866660wywrdsduuuyiiuuuwweeruiiphasidaiayyiiiuuwuyyyyyyiiiiiuyiiiippipppsishpipipidsdhpdppppddhddddddhphhahhkhhhpppdhddiippiphlckkkkzvvvccvvvvvcvcccccccvcccczzzzzzcccczzcczclzcckkkcvcckjw9iuwywtwqwt000r0i0050u000950586690000y00050000000e0erw00wwrwwwew00w9957wq790rr0w000r096999969w796967rzzkkzzkzkkzkzzlzklkklkzzzzzzzxzkkhhhhhhddhdisdddkdppiwwq96666626566366696696666666606699966666996999999978999965529099003255466990000000000u0udhapaddapippappppppppdkkzkkkjhhhkkkhjklzvvvvcczkcvcccvvvvvvxvvvvvvvvvvvvvvxvvvxvvvxvvvvvvvvvvvvvvvvvvvvvvvvvvvvvvvvvvczkhkhhfhhhhkhhhkkzzzlkcvcvccccccczzkkcczzzzzxzzklzccczzkkkkhkkllkzkkkhhhddhhkklkllkkhdjhkkkzzckcczzzzkkkkkkkhdkddphhhpppppppppiiyuiiiiiiiphhhkkkjczklccccklkkjhd00tr0000009999wtwqialkkkkklkkakzvvvvvvccvvvvccccvccczkzksi0u0wrrrrriiirrii",
"vvvxvvvxvcvvcvvcccvccvccvvvvvvvvkpiippiiiiiiyyiiutww0rw0wwwwwwqwe0wwr0009996666669965566553552256666666666099996009999009990000090000w000w0www0w00w00wwewww0ww000060690667668669e1==:===::::11;=&&=<8211,***=:::==::::,,,122255663336q063q6796rrrrwwriidppphhhhppdddhhhhlklkhhakzzzzzczzzzzzkdddddisdiisdiiddkdippppphpppppapppasdidpdidispiiippipiiyiiipupuiippiiiiiiiiiyuhduuyuusuu9riuusur090966800wwwrpasiuuuyuuuuwu0wuiiipafpppaiiiusiuiuiwiyiyiiiiisuyyiiyiypyuppdppphpiiiiiddphapdpdhddadadadphpfdhkhkhdppphkjhhpiuihkccckzzcvvvcxvxvvxxvvcczcccccccczzzzczcccczzczkkcccvvcczzkkkpw9uuwwuuwwt000rrwt0080r00r8595999590t000000000r00wewwwwe0wwrwwrwew00998w99990wtww00rrr036999399993696wczzzzzkzkkzkzzlzlzkkzlkzzzzzxzzlkhhdhhhhdddpipadkpppu09w96665633566366699666998666666990666669969999995996989865<29029e9365655990000000009990ikhpppdddppypppppappppddkkkkhkkkkkjkhkzzcvvvvccckzczkcxvvvvvvvvxvvvvvvvvxvvvxvvvxvvvvvvvvvvvvvvvvvvvvvvvvvvvvvvvvvvvvvvckkhhpphfhhhhkkjkkkkkccvvcccvcvccxzzkczzzzzzzzzklzzccxzkklkkkklkllkkkhdhpddhkkllkkkhhddhhjkzlccckzzzzlkklkhaahhkdhhhppipppaayppiippdippdppphhhjkkzzkkzzkclkkhhjd00tt0000099999000tpkzlkkkklkkkkzcvvxvcvcvccvvcccccczzzczdiyyuyrrrrtuiririi",
"vxvxvxvccvvcvcvvccvvvcvvxvvxvxvvapppaapyppiiiiyyirw0www0qwqwwqwwrw000rr0qq0666523666536663555<<566669q96666989990000900099000r0909000000990w0w900e0ww0wwwwwww0e0009609709766996591:::===::=:11:=*&=<8<<<=*%&*===:::::::,,1<33555334460933r90qqrirrrwripppppfhhapadddhkhkklllfhkkzzkzzvzzzzzzkdiidsddiddddiiidkkdkfphppppapppdahpdiiiidsipsssipiipiiiiiiiupupppipdiiiddidiyuiiuyy00u0r90ruusur00006660wwwwriaaiytyuyuuwww0wuiiiidapipiaiiuuuiiwuyiiyiiyiyiiiuyiiiiuyyupppispppiiiiisiddppdappddddddddahhhdhhkfhppppklckkhpipkkkhlkzcvvvcvxcxvvxvvvcvczccccccccczzxkcccczzjzcxccckzkzccccvi09wuwwwiuww9900w0w9080r9905898899900uu00050900erwrwwwwwwewwerrwww000099www90wrw0w000r0029006399996975whkklklkzllzzzkkzkzklzklzzzzzzzlkhhhhdhhdhdddiiddahhhy76w96666667666666966666969966q066696666666q697999999999898552999999995669900090009009000yhkdahhdpappappapppapddkhkkkhkkjhkkkhkzzzvvcvvvvccckkklvvxvvvvvvvvxvvxvvvvvvvvvvvvvvvvvvvvvvvvvvvvvvvvvvvvvvvvvvvvvvvvvvczkhhppphhhhhkkkkzzlkcvcccccccxxzzzzcxzzkkkkklkkzzzzxzlllllhkkllklkkhahhdhjkzkkllkkhdjhjklkkcccczzzzkhkkkhpphkkdphhhpappappiipdiipdiiphhppahkkkzzzclzzcckkkkskdu0uu000w0090000980pkkkkklkkkkkkzvvvvxvcvvvvcvccxczzzzcckhiuyurwwrrruuirrii",
"vxvvvcvvcvvcccvcvcvvvcvvlvvxvvvxpiipaapyipiiiiiiurwrrrrwwwwwwwqww0000rrwuwq066553666566663563<55666q6969669999q9000000099000009000000000990000000w0wwwewww0ww00009999606606600651:=:1::::1::11;;=&*,8,===*%&&***::::,::,,<13356366336w066r9qrquitruuiiipppphhhppdddhhhkhklkkkfkzzzzzvcczkzczkdisddiidididdpiddhdhphppppipppadddddpiidsppppppaiaiaiiyiiiaiupiipdidiiiiidiiyyiiyyur0u0080itussu00ww0600wywwushhiuuyiyuuwwwwwruiyphspppppyiuuiuuuuuiiiiiiiiyaiyyiiyupypiuipipppipipiiidddphpddddddddaddphhhdhkhhhdpipakkckkhpdzckkckzzlcccvvcxvvxvxccvccccvcccvcccczzccccckcvvcckkkzkvvvkkkwwwwywwyttw099qu00r9950r990880990000u0u000e0eewwwwuwrwwwww00ewwwww0www009q00wtw000wwrr0930w06999666966yczkzzzzlzkzlkkkzklkkkzzzzzlkzzzkkhhhdhhddispdpdddpphi97993663696969666669666689696066699366666q96009999999009995559999999<5255669999999990999udhhhhhhdddpppappappdpddhkkkkjkkhkhhjkkkkcccvvvvcvvvccvvvvvvvvvvvxvvvvxvvvvvvvxvvvxvvvvvvvvvvvvvvvvvvvvvvvvvvvvvvvvvvcvvvckjppphphhhkkkklklzzccvcccvvvccccxzkllkkkahllkllkzzzzzzlkkkkklllkklhhhdhhhklzkkklkhhjhkjlklccczcccckjkkkpppdkkhphfpppppppiappiiidiitshhhaddhkkklckccckkkkaaddssi0yr0wq009607qq960pkklkkckkkzccvxvvxvcvccvvcccczzzzzzzkhdu0urrwwruuuuuuii",
"xvvxvccvvcvvvvvvccvcvvcvlvvxvvvlyiiaiapiyiiiiiiyurr0uutwww000wtwww0wwqrrtwww007966553666535652<5666696696669999900r0u099990099000000000099000w0wwwwwwww09wwww09900999006670006821::11::=::::21=*=&*12,,===%%*&**::,:,,::,,126663766697q63w77wwiriuuiiipiddphhhppdddhhkhjkkllkfkzzzzxvcczzzzzkdddsddiiiiddddppdhhhhppkdaappppdadpipppippipppsiiiiiiiaiiiipiiiiiiiiipiiddiduuddu0ur0u0r9rssiisu00w00000wwywudhhpiuiyiyuwwewwruiyahapypppaiiiiisiiiyiiiiiiiiiiyiiiiyppuppyyiispppipiiiddddppdddddddddddphhphhhfhhppiippdhhkdddkkkkclkkkkkcvxxvxvvvxvcccccccccccccczzzccccclkcccccccczdsu97ywwwwiuwuiur090rrrr0895r0090900900000utu00r000wwwwrwuwwwwww00wwwwwwwwwww0wqwwwww00wwwrr0960w963666666q9ivkllklkkzkzzklzzlzklzklzzzklzklkkkhddhhadiiisdhdppppiw9q99969666696669q66669869666696699696669666097999990099989829999959552556659999999997550idkhhkhaddaapppppdappddhkkhhhhhkjhkhkkkkcvvccvvccvvcxvvvvvvxvvvvvvvvvvvvvvxvvvvvvvvxvvvvvvvvvvvvvvvvvvvvvvvvvvvvvvvvvcvvckkkpppphhkdkkkkzlkzccvccccccvcccxzllkkkahhhfkkkkkzzzlzlkkkkkkllkkkhhdhkkkjkkkllkkkhhkkkkkkccczkklkkkkkhppppkkhhpppappapippppdiiiiiihhhhppdhkkkkcclkcklkhhhkddhsr00www0999990wqwwuykkckkkkczcccvxvxvccvvcvvccczzzcczzkkhurrwywrwyrruuwyu",
"vvvxvvcvvccvvccvcvvvcvvxvvvxvvlayiyyipaiiiiiiiyuuuruiuurrqwwqwwyw000rrwrrwwwqw996625666365552<<5223666663689q9960000000000009900000we00099900wwwwwwwew00990ewe0909900075567985211:::1::::1::11;*=&*,2<====%%&%%&===::,::,,136965666660096q66qwiriuispippapaddhppdhhhkkhkkzklzkzzzzzzccczzcczkddipiiddiididddddhhpphpppppapppppiddiippppippppppiiiiiyiiiisidiididdiiiiiidiiidiyri00u009usiuusu0000000wwwywiphsiusiiuuwwwwwwruiipkhdipiiiiiiisisiiyiyapiiiiiiiyiyyuuypiiuiuspiiiiipidddddpdapadddadadhhhdhhhhhhphpipiipppdpdphhkkkzzzkkkcvvvvvcxvvvccccccvcvcvvcczzzccccccckkkckfpsw99546y7twwuuwuuur99000r0r89500e9089099000uuuutr0wwwrwu00wwrww0ww00www0ww000000wwwwwuq00wwe0r096q963993996697uvkzzkkkkkzzzlkzklzzlzkzzzzkkkkklkhhhahhhddspdddadpiiy79q96996966696666966666666666696696666666999090999908999999659999885855898999999999999990yyphhhhdpppdpppppppddddhkkkhkjkkhkhhkkkzvvvccvckkvvvvvvvvvvvvvxvvvvvvvvxvvvvvvvvvvvvvvvvvvvvvvvvvvvvvvvvvvvvvvvvvvvvvccvckhkpppdkpkkkkkkzklkcvcvccccvcccczzzzlklfkkhkkkzlzzlkkklkkzkkkklkkljhhhhkkklkkkkkkkjhjhjllkccklckkckkkhhpiidkkjhppppppppipaddpiiddipdhhpahhhkkcccclzlckkkffdddkssuuw0q00700w099tuuykkkkzzcccccvvvxvcvcvvccvvccczccczzzzku0rrwwwwwwuwwwui",
"xxvvcvvcvvvcvvvcvcccvcxvvvvxxvkiiipyifhappadppiiuuuuuuu0rwqwwwwwrrrrrtrwtytwq0996225676353352<<5<22366326699999600000000000099000ww0w00w99998000000ww0w099wwww099990000558652>11111:1:::::::11**=&&122===%######&*:,,,,::,,25662336669963w66wuirusiidppphdppdhapdhhhkhkkkzzkzfkzzzzzcvczzzvzkdddiipsiddiiiidkkhhkkpapppippppiiddsiiiipsippppipiaiiiiyiiiidiidiidpiiiddiididdiyrir00908tssutsu00w00000wyiwushasuuiiiiwywwwwwtiyphkdipaiaiiiiiiuyyiyiiiaipiiiiiyiiyyiypipipppppiiiddddddpddpddadddddddpdhhkhhhhhhhddiutitidhhddklkzlczkzcvcxxvvvxvvcvccccccccvxcczzzccccccvvvvvf7>09wut99q7iwwww7wq0969qr0090259urw00990890uuuuurr0e0w0wru0eewwr00ww090wewwe000099wwtwwwww0ww00er00rq99wwqww6665wkzklzzzlzkzkkzzkzkzkkzzzzzllkzzkkhhhhhhhdddidphddkpiy67w6666396999q66666666666666366669q3q666q9960099999998959899999995595555555999995999999990wykhhpappppppppppdddpdakhkkhhkhkhkhkkccvvvvvvckkvvvvvvvvxvvvvvvvxvvxvvvvvvvxvvvxvvvvvvvvvvvvvvvvvvvvvvvvvvvvvvvvvvvvccckjhfppppppikjkkklkzzcvvcccccccvcczzzzlhkkkldkzzzzzcklzkhkkkkkklklzkhhhkkkkkkkklklkkdhhkhkkkkccckkkkjjjjhaiipkkkhpppppppappipdpiihhdhhddppphdkhkcccczckkfhkhddhsdhdiwww000ww690099tidkkzkccvvccvxvxzvcvvcvvcvvcccccvzzzckiruyyywwywwywwyi",
"vcvvcvcvcvcvvccvcccvcvvccvvvvvhuyyyippddhhhhhhhpdisuurrrrrw00yyyrtwtiiiwwytw00795<<2<696333222<1<223338666699096970qww00909909990000000009990000000000000000090099508580995>:1111111::::=::11:*&*=&=3=*==&%%%%%%%&==:=:::,236996665676676666wriuiiipdididpppppppddhkkkkzzcczkzzzcccvcccvzccxlkdadiiippppiiddkhhkdhdhdpppdidddsddapppaiiihadpdpipiyuiipiippipiipiiiiisistiitsi0ruwuu999yppypdy90009eww0wuripfapiuiiiuwwyu0wuuushhdpipdppippippyiyyiiiippispiippiytihsiippppppipiipppddpdhphfppphpdhadhhdhddhkhhhhhhpiiiaiippaphlkccckxvxvvvvvvvvvvcccccvccccvccckxczlvkkctww667yyuiur00000rrrqwwwt0899ww0095880uutq0690990rrutruirerw0wrrrwweww0ewww0www0w99670990wwtu000000r0rr0qw00wwwwwe6q65pxzzlzzllkklkkzzlzkzzkzkzzkkkkzzkkfhhhhhppppipphhhpgdw0909669969699666666635666626636995929990000099700099999996976999855964258559766666000q0q0q9qihjhphsssspppddpppppkjhjdpkdhhhhkkkkzcvvccczzcvvvcvxvvvxvvvvvvvvxvxvvvvvvvvvvvvvvxvvvvvvvvvvvvvvvvvvvvvvvvvvvvvvvvvvvvzaiddddpadhgkkkkzckcccvvcccvcccxzzzkkkkjjkkkkkzczzkkkkkkzlzzccczzzkddkkkkzkkkkkkhkkhjdhhkllzzkzzkkzkjhffppihkhhppdhphphppkhddhhhphhhdpphdhhkkkkzzzkhkhhhhpddddddpduy00ur0069qqqwiskkzcccckccvcvcvvccvcccvcccccvccclxzkzjs0rwyywwrrrwris",
"vvvcvccvvvvccvvccvvvvccvcvcvvvkuapippphahhhkhkppssdsuurr00w0yypyrtiiiiywywwqww9995552692333322<1<<<<33335669009990000qw009000999008000009999900060000000000e099e0590956095111111111:1:::=:::::*&==&*==%==&%%%%%%%%*=:::>:,,2556635667qq7qq99rtdiisiddisddppppfpasdhkkkzkkcckfzczcvccvvcczczzlkdapiiipppiipdhhhhhddddpppydiiiiiidpdppiiaidpipsppippyyyiiidppddsppiiiuiiiitriiir0r0ru999pppyisy000090ww0wuwipkhpiisiiyywwu0ruuypsaadpiiiipipipipyiiyiyipiddiiiipiyrisiiiiipppppiipppdaddddhphhfhphdddhdhdhhhkhhhhhhdiiiapayipphkkkckkklxvvvxvvvxvvcvcvcccvcvcccccccczzckpiwqw7wipprustrwrw0000wuwq0998900w05558000q0999000wrtiuuuswrweewrueeww000w9ww00wr00999000900ww0t0000tut00t0090werwwrwr99dvkkkkkkzkzzzzkkkkzkzzzzkkkkhkjkzkkhhpphpphpdpahpphdiu0009699669666663666666656666666229596669009999909999999799969699655966599529666666q0660099069wrrruisiipppddpkdhkkhjhhkpkkhkhpapkzlvvczzccvvvvvxvvxvvvvvvvxvvxvvxvvvxvvxvvvxvvvvvvvvvvvvvvvvvvvvvvvvvvvvvvvvvvvvvvvzkadddpddphhkjkkkzcklccvcccccccccckzkkkhhkkzzzccccklkllzzzzzccczkkjjkkkkzzklklkkkfjhhhkkkklzzzzkkhkhhhappphhjjhpphppppphppdhhhdhhhhahahhhdhkkkkzzjkkhhhhhpdhdhaddpdiurr0009767qiiiczccccccvvcvcvcvvcccvcccvcvccccccxczzzs0ywwwywyyrrriu",
"ccvvvvvcvcvcvcvvccvccvvccvccvvhupppphhhphhhkkhhpipiiurrr0wrwuyiyiitirtwwiwwwtq9606666663333221,22<<<<33<266900969000q0000090900999000990999990e867900000w000090we000956981:121:11111::1:=::11:=**=&&=*#&=&%%%##%%%&*=:,:,,,,259956666ew9q999wipuiidsidsdpppppappddskkzkzccczkzxzvcvccccczzlklkhaiiiiidpipsshhdhddpaddipyipiiiidippppiipdddisdipipyiyppppsddddiddiirrtuitrrusirrr0rt900dpdiiu00ywe0wwwwwuyiphkdiwiiyuwwww0uuuidhkdddipiippipyiyiyyyiiiipppiuuiiiyuiiiippiippippspppddpaddphhphhhpdddhhdhddhkhhhhkhdpipppppipphlkkkkklxvxvvvvvvvvvvcvccvccccvvccczlczzckiyiiiyiipiisdiur000000wut090099000925950r0w0900rr0riiiiuisrww00wwuerwwe0009e00weeww090wwww000rt000000000r00990werw7wwrw7pczlzkzkkzkzlkzlklzkkzlklzkkkhkkkjhhhpphphihpddhhpdiutw09099666996666666636666896666599959676900999999999996797999669095898448555966356666066q069969q967099qrsppddjdjhhhjhphkphhkhpdpkkhkaccvvvvvvccvvxvxvvvvvvvvvvvvvxvvvvvvvvvvvvvvvvvvvvvvvvvvvvvvvvvvvvvvvvvvcczcczzzkkddhddpphhjhjkczckkccvcccccccccczkkkjhhhzzkzcvcczzkkklkklzzcczkkdkkdkkzzklkkkkhkhjhkhkklkzzzzkhhkpddppppihdhfhappfphfppkhhddhhadhdhdpdhahkkjkkzjkhhhhdhhdddddpdadsrur000qw77tiiiccccccvccvvccvvvcvccvcvccccccccczlczckdiwwwywwwrwrryi",
"vvcvccvvcvcvcvvccvcvvvcvcvvcvvhwpaddhahpphhhhkkhppyuuurrrrwruiipiiiiiitwuytuw096622656732232322,<<<<3<3<<2690099009000w000000990999999999999998966900000we0w000w000099992:11811111111:::::::1::=%*%*=&%*=&%%%+%%%%%&=::::,,225596qq7qww99w9wrtppididdipihpppappiiddhjzcczcczzzczvcccvcvcczkllkhpiiiiiiipisshdhddhkdhaapaiddsdiidippppppddispsddiiiippppdpddsdpsiiirutiisurissrrrwrt900pddddu00u0wewwruiuiipakaiiiiiuwwwweuiiiahkasiidipippipiiyipayiipiipiiyyyiytutiidppiipiipipppdddpddhppphpphdaddddahhhhhkhkhdhppphfpyppphkckkkllvvvvvvvxvvvxvvcvccvvvccccczzxckkvvkjsiippppisddduq06wr00quuqw00r0009989090u0rw00err0uiiiiiuiwwwew0wuwwrwwwww90w00wweww9wrrrw00wwtrt0tutu0r00ww0wwwww9eweq9plzkzkzlzzzzzkzkzzkzzzkzzkkjkkkjhkkhapppppdippphphdywww06066699639663609966666666666929699966990999979999966666699669998556225522566363q666q06999q90096665290wriipdpdkjkdhhhpkkhhkkkhhhakkvvvvvvvcvvvcvvxvvvvvvvvxvxxvvvvvxvvvxvvvvvxvvvvvvvvvvvvvvvvvvvvvvvvvcccckkkhkfkkdddddapphhkkkklzkckccvvccczccccczkjkkhhkkkkkzzzzzklkklkkzzzcczzkkjdkkkkzkkkllklhhhhhhkklzzzzzkkhhppipaypiidhhkhppphppkpkdhhhddhddhddhhdhkhhjkjkkkhhhhhhddddadpdpdiu00rru9tttwyiivcvcvvcvvcvvvvcccccvccvccccccccczzzzkkdiwwwwwyrwwrrrr",
"vccvvvcvcvcvcvcvvccvcvcvvvvvvvkypphhddphhphhhkhjdpyyypuuiuwwuyypiitiiiywwiit96625225269533223212<11<<331<26997999999000000000990999999999999998899000000w00w000w0000e095:111111>11111:::1:::11:=%%%&=&&*,&%%%%#%%%#%&***==12555569q69wq6wqrruppdpipididddppppapisddkzcccccczzzzzcccccvccczzzzkhpiiiiiippdpdhhdddkhkhddddddidddidpppppppadddipiiiiiiiidpdiddididistiriiiiurrsurruutu9w0ppssdu00y0rwwwrttuiipkkjdiiiiiwwwwwuuiipakddsiipidiiiiiiiyiiiyppppiiiyyiyiuiiidhpppipipiiipppaddddpfhppphhddddddadhpfkkkkhhhdpppppiphhhkkkfkkkvvvvxvvvvvvvcvcvvcccvcvcccccxczzvvzftwiippapiiddiut0rrrwwytyr00rrr09959990iuw0wwrr00yippuiiirrwewwwwrw00www000wwwwwrw000wrrrtwtwut0u0u0terrtrrw9ww997wwe7whclkklzzlzlkzlkkzkzlzzzkzzkkhjkhkhkhddpphhiishhhkhstwww069969999396666999966666666666985959599909906609999666969999669954864<6624563646666606q9696666799999969900wwuigjkhhhhhhhfhhdhhkkzcvvvvvvvvxvcvvcvvxxvxxvxxvxvvvvvvvvvvvvvvxvvvvvvvvvvvvvvvvvvvvvvvvvvvvcccckkkkhhfkdappdhphhhjhkkkccllkccccclcccccckkkjkhkffkzfzzkkzzlkkklhkzzzczzzjdkkkkkzlkzlkkkkhjkhhkklxzkkkkkkpiiiayapiidhhkhphhphkpdddhhdhhadahhdddhhhhjhkkjkhhhhhhddhdddddpddpiuuuuuqiiiiiipccvccvcvcvcvcvcvcvvccccvxzcccczzzzzfzzkpurwyyrywrwwwu",
"cvvccvcvvcvcvcvvccvcvccvcvvcvckypahhahdpphhhhkkhcdpyippisywwruupiutyuiwwwwiw956672553666233221212<1<3<3<426699999999000000000009w99909909999995966600000wwwww0www000w055=18111112111::::1:::11:==*=***&%,&%%%%%#%%#%&&&-*=,1352256699wq9errryppaddsdpiipppapdpdpdskkzccccvvzkzzzcvcvcccvzzzzllkaiipipiididdhhhhddkddddppdpdiipidppdpaipddpipidipiiiiiiipiipsidpiiruuitiitrruurriuuu0qwipdidiu000wew0wruuipphhddsiiiywwwwwuuiipdkadsidipidiiiyiippiiiipipipiyiyyitiiidfppppippiippppppadahpphhppaddaddhddhhhhhhkkhhapppaiippppakkkkkkxvvvvvvvvxvvvcvvvvvcvcvcccccxvccvkiiwyyipppppddipiuwruuuwuyuw000rr00899950i0wr0w0rr0iiyyiiiirewwwrwww006ww0600wwww9r009errrrrwrw0u0000000000qww9www99wqw99hczzzzlkkzkzkzzzklzkkzzkkzkjdkjkhhkhhdphhphiidpkhhdiwutw979996666696663936666666666966959969999999000079909669969609699884945882296333666666666966666996999966699760uipdhhkphhhhhhkdhpkzvvvvvvvvvvxvxxvxvvvvvvvvvxvvxxvvvxvvxvvvvvxvvvxvvvvvvvvvvvvvvvvvvvvvvvvvvczzkkkfkfpphpdddaphkkkkkkkkkccccccccccccckkkkkkhhkkfkzzkzzzklllkkkzzzczzzjkjkkkzkzkzklkkkhhhhkhkkxzzkkkkkpyyyayypiiiihhhhphhpddkdhhdahdhddhhddhddhkkkkjkkdaddddhaddddadpdddpiiuruiiiiphhicccccccvvcvvcvvvcccccvccxcccczzzzzzzzclfpurwwwrwwyrrr",
"vcvvvvvcvvvccvvccvcvvcvcvvvcvvhyipadhppdpphhkhhkcdddpdiysrrruyuyuuwuutw0wytw06690555233223312221<22113<1<2666999909w0w0000000000999099999999999999000009weww000rew00e05:::11111>2111111111:1111==*****&%,&%%%%#%@#%%%%%%===,<<22655qw99qwrrryippipdiiidpdppppapphhkkkccccvczkzzzcccvccczkzzzlkhdipipiiidsdddkhddkdddppppssidiipippappiaaiipiidpiyipiiipppididdiitruuiiurrrruurrutru9wwdidipsr9909eewwruwuiphddddiiiiywwwwwuiiphhdpippipipipyiiiippypiippipiiiipiissiidppipiippiippaddpddahhpphphdddddadhhphhjkhhhhddpdaiipdphakkkfkkxxvxvvxvvvvvvvvvvcvccvvvcccccccvcpwipiyipiiidhduyyuwwuuttuuur00rruu059099yi0r000rre0iyiipiiyrrwwwwwwwe00e00000www0wwwwwwwrwrrtww00t000000rr0ww9wwwwq6w99q7hckkkkkkkkzzkkzlkzkzzkkzzkkkkkhkkjkhhdhpdhhshsphhfiitwwww099996966996366699966966669939999999999690696999797699999666996258656565833436663q6069666966966563669600069wwyidkphhhhhhhkhkkzzcxvvcvvvvvvvvvxvxvvxvxxvvvvxvvxvvvvvvvvxvvvvvxvvvvvvvvvvvvvvvvvvvvvvvvccvvzzkkkfhhhhhhhhhddhhkkkkcclkccccccccccccckkkjkdhhkkzkkzzkzkzzlklhlzzccczckkkjjkkklkzzkkkkhjkhhhklxzzzkhppiiiippypiiiiphhhphpfkdkdhphhdhdhhdhhdadhkhhkkkhkdddddddhaddddddpddpiiusidpiipkkkccccccccvcvcvvcccvvcccvcccczxzzzzlzzlcxkjprwwyywrwyrr",
"cvcvccvvcvcvcvcvccvcvvcvccvvvvkyiphhhhhhahphhhhhkkkddiiiurwuiyyyuiwuyww0ytwww999922523832223222222<<<<<14266669990wwww00q000000q9w900999e099999569860000wwwww00wwrwww05-1:1141>411211111111111:*=%%**=*%,=%%&%%%##&%%%%&====,<22923ww73qwrrrippadsidpidsapppdppphdkkzcccvvvczzzzcvcccccxkzxzllhhiipdiisdsddkhhkdkhaappppdddidiisappdipppddiidipiiippipipididiiiirrruturru0riirrurru90ysdduisr6909wrwwwuuwiphhhhdsdiyrwwwwwiyiphkaspidiipppiiiiiipipyipppiypipiipuiiiidppiippdsddpppddpdddphahhapppdddddddddhhkkhhhhpahapdhdhkkkalkkkxxvvvvvvvvvxcvvvvvvccvcvvcccvccxkyykhiiipipaiyuuuyuuwy00uiuqrrutuuyw59uw0uiuww0wrrrriiiipiiprrwwwrwwwwww0ww000wtw99wee99rrrwutuw000000000r0rww9wwewq6ewwq7hclzzlzzlllkzlkzzklzkzzzkzjkdjkkkkkkhhhhhihddhhhhptiuwwwt09896666309663997666969696669599959579996000679009909969906566566952984484<434633660696q996269666886996669600wupkkhhhhpphipkzvvvvvvvvvvvvvxxvvvxvvxvvxvxvvvxvvvvvxvvvvvvvvvvvvvvvvvvvvvvvvvvvvvvvvvvvccccczzzkkfhkkkhhhhhddkkhkkjkkkkcccccccccccclkkkkkkhkffkkzkkklkkklkhkzzccczcjdkkkkzkkzlkklkkhhhhkklkkkzcchpuiyyipyaydiidphhfhhphddddhhphhhdhdhdddhhhhkkhhhkhddddadhhdddadddddddiidgjhhhpihcvvcvcvvvccvcvvcvvccccvvccccczzzzzzzzzzlczjhywwrwrrrwrr",
"vvcvxvvvccvvcvccccvvxvvvxvvxvvkiipddidddphhapddkkdhdddiutrrrrttuwwwwwq09www9900633535366222223213313<<11,<3269990wwwwq76qw9q0000w099999900099959006008000000ww00e00ww8::118111:111::111111::121=%%==%==+%%%%%%%#%%%%&&&&***=<2226569wq7wrrryupppisppspppiddsssddhkzzzzccccczzcccvcccccccxlzzzkkhddpipippdhkkhhfkhhddpkppppppdidiiipipsiddippiiiipipipipippiiiiipuuutuuurrusiiiyy0tw90uusissiw7709ww06wwuwssahahkdiiuuwrwwuiiidhhadpppppipiiipipiippipipipipiiipipiipiappdiidsddhaddddaddpphhadphddddddaddddhhhhhkhkppddddshhhhdpkzkklvvvvvvvxvvvvlvlvvvcvcvccvccxvzvzyppkhpppppppyyyuwuuw0wwyyiiusdiiuw0990u00tr0yy0ur0uappyiiiiityywwwwrwrewwww00wwtww0rwwwwwwuyuuwwruwr00rr000wqwwwwwqwwe7ehvlzzzzzzzzzzzzzkzzzzzkzzflklkklkzzkkhhhhdhhpkhhhhpdisuy0099669996669996966q66q69692669999395998996w0w09997669996668696669666698855343356636369966666666666665666666900wrwysshjhhhhdhkkvvvvzcvvvvccvcvvxxcxvvvxxvvvvvvvvvvvvvvxvvvvvvvvvvvvvvvvvvvvvvvvvvvvvczzzzzzcczkfkhapdkhkdkphhkhkkhkkhklckcccccczzzzzzzkkkkkhhhhkzzkzzkkkkkkkkzxczzzkhkkkkkkzkkkxkkkkhhhkkkkkzkkpiipipiiipidiiihishhhphhadakhdhhhdhhhddddddhhhkhhhkhkhhppppppddappdhdkduyidkpkkhhkcxccccvcccvcvvcvvvvcvcvccczzzzzzxzzzzzzzzzhjpwwryyrrrru",
"vvvcvxxvvvvcvcvvvcvcvvxvcvvvvvcpyidppdhhhhhhhhhkkkhdpdpiutrrr00rwwwwww090ww9699365555235221222211<1331<1,<<3699609907qq7q700000090009999909999996996008000000w00000ew1:111111:1111:1181181:1881:=*=%%*%+***%%%%%%%%&%&&&%&&=:<266699wwwerrryuppppsdpppipddsdddddfkzzzxccccczzcvcvvcccccckzzzlkhhpdddpipsddhdhhhkdddpppphppppididdpipiidisiipiiiiiiippiiiipiippiituutuuuruuusdiyu0tr0wiispiisuw0q9ew00ewiwssdhddkddiiiwwwwiuiiphkadypppiapiypipiiiiiiiipppiipipiiiiiiiippidiisdddppappdpdppppddhhadaddddddaddhhhhhhhpidddddhhfphpkklkvvvvvvvvvvvvvvvvlvlvvvvccccvvczclippdhkkdppddy0uuu0rwwywuiiurudiiuuu990u00r0wu0wuu0uyypipppiuuwwwrywrwwwwwww0wwwww0wee0eerwrtuuwwyurrr0rter0ywwwwtywww9qikxlzzzzzzzzzzzzzklkkzzzkzzzkkkkklkzkhkhhhhhfppkkhhpisiuuy09996969666666636366669963396999966999969900000999999996662696668666666655<<3<4<<46666966666668996666636966690wqwyuidhjhddhdhkvvvvcvvvcczkzzccvxvvvxvvvvvvvxvvvvvvvvvvvvxvvvvvvvvvvvvvvvvvvvvvvvvvclzzkzzzvvclkklkphpkdkhkhkhkhkkkkkkkklccxccczzzxzzzklkkkhhhjkzkkzkkkzzlkkzzzczzkkhhkkjjzklzkllkkkhdkkkkkhhhhiiipyyiiiiiidipiphdsdpphhdhhhaddddhdadddddahkhhhhhhhhhhhpdadhpppahdddddiuiddhkhhflvvvvccccvccvccvvccvccvvcvcxxzzzzcczzzczzzckzpwyryyrrrru",
"vvcvvvvvvccvcvvcvccvvxvxxvvxvvchyippphhdhhhhddkkdkaiiddpurrwr000qqwwww079ww6666255222255222222113313<33<<<336897999www7q000000000909900w99999900698660809000000w000e01::11111:111111111111::1811=&%=%%%%%=%%%%%%&%%%%&&&%&=*=:256669qqwruiuuippipppsppsugdsdhhddkzcvcccvcvczkzcccvcccccczzzzkhhdpiidspppiadhhpappaphdkkaidpipiidiiiidiiddiiipiipppipiippiipiidiiuuiiiuuruusdppppriuwuusddddsiuuw90e00wrurihdhhhhhdiiiywwiiiiyahkssppaiiiiiiiipiiiiiipiipyiipipypiiiiiippdiiisiddppappddpaphddhphadddddhdpdhdadhhphhpisisdhhhhhhpklkklvvvvvvvvvxvvlxvvvxvccvvcvcvccvczhpkpkkzkpdddyy0urrrwywytuuw0usiiiur990000r0uu0uur0iyipipppirwwyuywweewrwuwe0wwrrww000wwrwrrruuwrrrwr00rrrrrtwwttwtww66rjkcxzzzzzzzzzzzzzzlkzzklkzzzklkklkkkkkjkkhhhpkkphhpppiiiir0999769796666663366699936966699996299899630000900995666668466826656666522244223433666696q6666699666662666699900wwwqwupdhdpdddkzcvccvczzcczzccvxvvvvcxvvvvvvvvvvvvvvxvvvvvvvvvvvvvvvvvvvvvvvvvvvvvvvczzkzzzzzzkkkkhhdhhhkkphhhhkkhkfkkkcckczcxxxzzckzlkkkkkhhhkkkzkxkakzxlhkzzzzzzkkkkkkkhkzzkllkkkkdddjkkkphhpiiippiiiiiipiiipihihpppdhhhhhpdpddddhhddhhhhkhkhhhkhhhdppddppphpdddhpddkdddkhhhphkvxcvvvvccvvvcvcvcvcvvcvccccccczcxccccvcccvzzpwyryyrrrry",
"cvcvcvxxvvcvvvcvcccvvxvvvvvvcczhiiiahhhhhhhhpapdkdhdipiitrr0000097qwwq069ww6362<2<<22<2<221222111<<<3313<22669009990qwww000000000009909w00999090666606000900000w000001:12111111111111:1111:112111&==%%++&%=%%%%%%%%&&%%%*&&*;:<2252667wruuiyippippppppssipidhkhdfzcccccccvzzzzcccccccccczzzkkhddipisdpiipdddhppppppppkppdpppsidiiddiiddiiiipiiiiiiiiipiiipiiipdituuisuruuusdipiptsuwupdddidsdiww90ww0eruwsddhhhkkssiiywwuiiwiphhasppiiaipiiipiiiipipipppiiiyyyiiiiiiipppiddidipdppppdapdphpppdppddddadddddddpdddhhppiiiishhghhhpkkkklvvvvvvvvvvvvvvvlvvvvvccccccczvlzzphdhkkhddddyyuuurrwyw00yuwwriiiiur08900r00y000u00uyyippppyywwwrrww0wwwrrwe0wtwrrwe99wrrrwrwywywryww000000twwwwwwwww7wdcclvzzzzzzzxzzzzzzzzkzzkzkzzkkllklzlkkkkhhhkkppkphppiiiiiuq099996066996999966666969666693699995969990909009999999668266566656696244263666666666966666666696626666669669000w00wwtdhhpddddjkkkkzzkzvvvzcvvxvvvvvxvvvvvvvvxvvvvvvvvxvvvvvvvvvvvvvvvvvvvvvvvvvvvvvlzzkkzkkkkfkhahhhhhhhkhhkkhkjkkkkklkcczcczzzzczklkkkkkjhdhkzkzxkhkzzzkkzzxzzzkkhkkkjkkklklklkkkjkdhkkkkkkppiiiiiiiiipidipiiiiipipdhppkahphaddahddahhhhhkjhkhhhhhphapddpappdhddddkckdddkkhhkccxcvcvcvvvvcvvcvvvcccvcvcccccccccccccccccczzdwrryyywyyr",
"vvvcvvvvcvcvcvvccvvcvvvcvxxvvvzjiipphhhhhhhddddkddkdiiiute000000q7qwww969w96632<1212<<<22<222111<1<23<<<<336690q9999wwwq7909099000909090w0909999966989099999990w000001:111111111:1111::11111181:===1%++%%=&%%%%%&%%%%%$&*&*==<22224227qwruuiidpppspsppsdppdhjkjhkzccvcvccvczzcccccczcxcczzzlkhhpipiddiiippdhapppppphhhppdsdidiidipiippidpiiipiippiipiiiipipiidipuuuiuuurrusipppptiiruddddiisiuq690000wwuwshahhhkkdpiiyrywiiipahkkpiiaiiaiiiiiipiyiippiiiyipyppypiiiiipipdidippdppppdpdddhhpaaddpdddddhddppdsdsdsppdsiitispdhdpdhzccclvvvvxvvvvvvxlvvvcvxcvvcvvccvzvzlcipjhddjdddpiiuuuuuyww00wuu0uuiiiur099090090w0000uiyipiipiywwyyrrwwwwwwrrwwewrrrtw099ewrwwrwywwwwwwr090000rwqwwewwweqicvkkvlkzzzzzzzzzzzkzkklklzklzkkllzkkzkkjhkhkhddpphdppdiiisur00099969696969966669696666996993695999995999999009969986926666662689644464333663666696666q66669666365666669690070ww0wuphjhpkphhkkakkkzcvvzcvvvvvxxvxvvvvvvvvvvvvvvvvvvvvvvvvvvvvvvvvvvvvvvvvvvvvvvvvvzzkzzzzzkkkkphphhkhhhkhjhhkhkkkkkccczccxzzzzzlzkkkkfhhhkkkzklkkkkzkzzzccxzzzkkkjkkkkkklkzzkkkhhhhjkkkckpippipiiiiipiidpisppiiiidddddddpaddhhhhadhhhhhkkhkhhhpaphppapdpaddhhkkhkckdypjhjkcvvvvcvcvcvccvcvvvccccvcvvcccccccvcvcccccccckjpwrryywwwrr",
"vxxvvxxvcvvvcvcvccvcvvvvvvvvvvvvpiipadpphhhkkddddkkddiuu0000000r999qw796999962242113<<2<2<12211,<11<33131<26660099w9997q9q99900900909909000999976696699999009000000002:11111111::111111181111111====%%%%%&=%%%%%&%%%%%&&&&*:<553542257qwwruiidhppdpdpppsppajkzkakzccccccvcczzcccccczcczczkzzkhapdipsidpiadapppppdaphdappdpididdipiidipdiiyipiiipiiiiipiiiiipppiyuruuuuur0usppippusuwypspdsisitw0e990weruushshhhkkhppsiiuusdhdkkkhpappiiipiiippiipiipipyiiiyiiiiiiiyiiipsidsdpppppppidaddhpdhpdppdddddddddddsdddddpsdirrriiddpdhhzvvvxcvvvvvvxvvvvvlvvcvvvcvcccvcczczcvpyddipddddyiyurqruuww00ruuuiyiiiu0r09090r00uuyyyysyyipiiyywwwwrrywwwwwuwwweewwwwww9wwwrrwrwwwyywwwu000wwrrwrwwwwwwwthvvccvllzzzzxzzzzzzllkzzkkkzzkklkkkzzzkkkkkhkjkdkphdppdiiusurww099090966666666666666666669699695995999999990999900909686666668999955593466666666q66666666666966666366699996700uq00widjkkhphkkkkkahkcckzzcccvxvxvvvvvxvvxvvvxvvvvxvvvxvvvvvvvvvvvvvvvvvvvvvvvvvvvvvxzzkkzzkfkapkhhhhhhkkhkhkkhkkckkklzczccczzzckkkllkkkhjdkkzzzkllkkllzzccccczzkhhjkjkkzzkzkzkkkkhhhkkhdkjiypiipiiipiipdipipiiddiidsiddhphhdhhhhdhdhdhhhhhhkhhhhdhpahpppdddddkhkkzzzdppihkcvvvvcvvvcvcvvccvcvvvcvcvcccccccccccccccccccckhywrryyyrwyr",
"xxvvvxvvvvccvvcvvcvvcvcvxxvvvvvvpuiphphhdhkhdhkdddkdsdiuir00000rq7q7q99999996622222=11211<<11<11<1<32<3<<33326990909ww9ww999w900000990w0000009006996699859009660e00001:11111111:11:1811:211:1811====%%%%%*&%%%%%%%%%%%$&&*,15656552<59w7rrripddpsdddppppphkkckkhfzcvvccccczzzccxccczzzzxllzkkhdaddsdddiippppppahdpppddppippisdidpiidppippiippiiiiiiiiiiipiiiiiyyrutuurrrruddppppisuyidpddddddiuww090wwwirsshkhhkkhhhhsiisahhhkkhkaipaiiaiiyiipiipipipyyiyiypypiiiiiiiiidpidippppppddddadhaddpddaaddddddapdpdidspddissrrruidppphhzcvvvvvvvvvvvvvxvxvvcvvvvcvccvcczczzcckypiiidppyiuuuu00tuuu0yuuuruyiiiu0t0r099rr0ruuu9ypyiiiiiuywwwyrywwwwe0wwwwwwwwwwww09wewwwryw0ww0wwt00erwwtrwwwrtwe9izcxxxczxzzzzzzzzxzzzklkzllkzkzkkkkzzzzkzkkjhkkkhhhhdppdiiussu0u000900666369665666q936699366669995999999999907996999969658696669996888836666666666696666636996666666666969760000000wyiihgkhkkzzzzkkzcckkklvvvvvvvxxvvvvvvvvvvvvvvvvvvvvvxvvvvvvvvvvvvvvvvvvvvvvvvcczzkkkkkkkkkphhhhhhhkhkkjhkkhlkkkkkcczcccxzzzzzlkkkkhjjhdhkzzzkklzzzkzzcccxzzkkjkjkjklzkzzzkkhkhhhhhkdkdyidpypppiiidiidspdidddiiiiiippappddhhdddhddhahhhkhhhdphhhhhhpppphdkdkkczzzlkfhhjccccvcccccvccvcvcvcvvvcvccvvccccccvvcccccccccchuwrrwyrwwrr",
"vvvxxvvxvcvvvcvcccvcvcvcvvxvvvcvdiupddhkpddhhdddkkkdsisiitr0990067799996w9996821212132122<11221131<3311<<8862699999w9www0www0ww909000www009090008956655959000600e060e111821:11111111888111111281===%%*=%%%&%%%%%%%#%$%&&*:136655652<5wq6rruuidpipdsdpppsphjzllkhzzccccccvczkxccccczzzzzzlzzlkkhdhddsiiiiipppipphpdphadppdsidpidiipiiippppyypiiyipiiipiiipiiipiyyuuuwwrrurudhppppidywidddiiisiuwwre90wwiirshskhhkhhhkkpiiphkhhkkahdpapaiipipipiiipppsipyyyyyiyypyyiiiiiidisddppppppdddadhdddddhdhdddaaddddpdddddsdpshsrwruipppdhkzcvvxvvxvvxvvvvvvvvxvcvvcvvccccvzvkcvczywyuipyyuiyyuuuww0uwwrr00ruuiiiururr090ru9uuu079iyyiiiiyyywwwwwwwww00000eweww0ewwww90wwwrywwyw0wytw0wrwwwwrwwwrwe9hclcxxkzzzzzzzzzzzzzkzzkzxkzlkzklkkzkzxjzjkjkkkkkhphhddpyuruiurrr09000096669q633666666639969966599989990999999999996966655696669865589534436334969q666666666696666266629666697060wwwqwypppkdkzcvczzvvclkzcvvvvvxvvvxvvvvvvxvvvvxvvvxvvvvvvvvvvvvvvvvvvvvvvvvvvvvcvcxzzzklzzkzkfhhphhhhhhkhhkhhkzlkkkklczccczzzxzkkkkkkkhhhhhzzzxlkkzxzkzzccczzkkkhkkhkkkkklkzzkkhhdhkjhkkkpipdyipipiiiidiididsddppiiyipppppphphddadhhddhdhhhhddhhhhhhhhahppddkkfzkkkcckzjcvvccvvcvcccvcvvcvcvccvccvvccccccccccccccccvccxkuryr7yryrrr",
"xlvxxvvvvxxvxvvvxvvvvvxvxvvvxvvvpyypaphhdhkkhdddhhhddddppy0000070990w999900655555322221111=11111111181124905560600we0000900000090w0wwww000w099999888598999999866900904><2111111::1111121121:1111&**&&&=&&=*&%%%#%%#%&**=><662225232<57w70wtiipddddsipdididccckddkkzxvcvcvccccccccczzzzzzlkzzzkhhdkkkdiididdddpddapppppppsdddpiiiiiippipiiiiiiiiiiiiiiiiipisiituurrewrqwwwispppppppyyippdiipsitwwrw000rtswiddhkkkkhhhkhhhhhhhjhkhkdiiaiiapippipipiiiiiyyyiyutiuitpiiipppipppppaakippddddhddddddddphddhphdaaiipppadddiiiiptuidpapzzzzzlkzzvxxvvvvvvvcvcvcvcvvccvcvcczcvcck9tiwtiwwuuuurruwrrwrtrrrrruiipipiiiu00uuwiuur97uuiiuyiuu0rruuuw000660ww0www0rwwe0w9w9wwryyrry000y90uu00ut9000ii0wavvzzzlzzzzzzzzzzzzzzzzkkkzklkzkcklkkkfkkkczkcxhkhhhhddpiiuiyywywww999067699622652666669599929699665999997qq799q68996966336q66q66763q764376333666666q6666666566636365566669968q97q7wwwqwrhjhhkvkjjkkkkkkzccxvvvvxvvxvvvvxvvvxvvvvvxvvvxvvvvvvxvvvvvvvvvvvvvvvvvvvcczkzzkkkkkklzkkjhhhhhkkkkhjkhjhkklkzkcczcccczkzzxkkkkdkhhfzxkcckzzlzkzzcvvccckkkkzzkkkkkkjkhhskkdphkkkkkdrsiuppiiipyipipippppddidiyypppphhhhpaddappdadhhhhhahddhkkhhhhdppkkkzzzzzcczxcccxccccvcccccvcvvcvvcvcvvccccvccccccccccvcccccvczhuyrrwrwwrr",
"xvxvvvvvxvvxvvxxxvxxvvvvvvvvvvvvdpuippapdhhkkhhdhdppdhddpy07990w009000999w96252222222<118=1121121112228858065699900wwe0w00000000090w00w0090000999995599585699969899902><2111111::111182122111111***&*=&&%&=*&%%%%%%&&*=,<225552325236wq7qqwyphdpdiidsddiddckkddhkkzvvccccccccccczczzzzzzzzlkzzkkdddddiiiidddddkjappppippddddipididpiidpspiippipiiiiiaiiiipiiuruurrwrrrewwrsipppipiyyiappdpisuwwqq099q00rwudddhhkkkhkhkhhhhhkkhkkkdipppiiipiipipiiippiiiyyiuuuiiiyiypipippiiippppippddddhaddhadadhdddphpdppapppppdddsdppputidkpkzzzzzkkzvvvcvvvvxvccccvvcvccvvcccccccvvcz9tiwtwwuuuuurrwuwq0rrrruurriipppiyuuiurr0uuww66tuiiuuiuurwrwwyw0009900qwwww9ww9w9wrerrrrwyyw0y0u00r0rut0t0000ri0yfvvzzzzzzzzzzxzzzzxzzzzkkklzzcczkkzzklzkllkkckkkhkhhhdpiiiiiiyywwq7979966669992666666699595996366699999797qqq999q699966633666676q6666663666346666696666666656666656655536666996999q00w9rqrpjzkljkdhhhfkkccvxxxvxcxxvvxxvvvvvvvvvvvvvvvvvvxvvvvvvvvvvvvvvvvvvvvvcczzzkkzkzzzxkklhhhhhhkhkkhkkkkkhjhkkkckcczcccczzkzkkkkfkkhhhzzkkkklkkkkzlccccczkkkklklkkkkkkhkhjkhpphkphkdpuppipiiiiipipiyiippppddsiiuiphpphfhpdddpppdpahdhhjhhahhhhhhdddpdkkkzkzzzcccccczvvcvcvcvcvvcvcvvccvccccvcvccccccccccccvcvcvcvczkpyrrrwwrrr",
"vvxvxvvxvvvvvvvxvvvvvxvxvvxvvvxvchiiidddpddkkkhhppppdhahpy76669ww900w0909w96225<2222211<111111121>12222558055500900ww0ww00000e00000000009w9w00099895585959999669699506>,1112111111111221111,:11:*&**===&#&==*%&*%%%&**,15225666355557wqweqwipkppdddipddikzczkkkjkzcvvcvvcczzccvczcxczzzkzzzzzzlkdddiiiidspdddddkddpapipadsspdiiddpsddipiiiiiiiiiiyiiiiiiiiiuurwrwwwrrrtrwtiiippiiir7idpihpiuuw7000000wwrwyddddhkhkhhhjkhhhhhhkhkkpsapaaipiipsippiiipiiiiyuuuittiiiiipipipipapapapppdkddddddddhddppadappapppppppadssdddpyuupdppkzzzzzkzcvxxvvvxvvvcvcvcvccccvcvcccccccczzuwwuwwyuuuuurrww0w0wruuuruuiypipipidssur0uury00uuipiiiuruuw0www0wq0000wr0ew9ww9w0wwwwrru0tryr0uiu0089tt0u0r00uu0akcczzzzxzzzzzzzzzzzzlzzfkkkklclzkckzzlkkkkzlkkkkkhkhhhpipiiiyyytww9007w76669692666666999895999966999999q9q977799696668666677666q6q3696333663366666666666363666663656665666699699999000wr99rdkkkkdkddhkckzvvvvxxvxvvcvvvvvvvvvvvvxvvvxvvvvvvvvvvvvvvvvvvvvvvvvvvckzzzzzzzzcczkkkkdhdhhhkkkhkkjjkhhhklkllccccccczzkckkkhkhjhhkkkkkkkkkkzzzzzcczzzzkkzkkkkkjkkkkkhkddipkdpippiupppiiiipiiiipyiiipipiipiiyipppphhhpddpppppphhdhhkhhddhkhhhhjjpdkkzkzkzczcccccccvcvccvcccvvccvvvvvccvcccvccccccccccccccvccvcjckdyyurrwrrr",
"vxvvxvvxvxvvxvvxvvxvvvvxvvvvvvvvvkpuuiipdddahhhdppspddhhdy65660006600999997522422222<1<<11==111=121822215606569090wwwwwwwe000000000000w09w09w0w09995595895586966666908<>81211811:1111211111111::*%*=====%&=,*%%%%%%&&*,265556675553669www00uaddpsdidsddpkzcckkjkkzccccccvzzzcccccccczzlzxxkkzzzkkhddididippdhhddhdppapppdddpiipdisppsppiippipipipiiiyiiyuiiurrwwrwwwrrrrwrisippipiwwipippiytw079rrrtrrrrwiddpphhjhhhkkhhhkhhkhkjkdiiaiiaipiiipiippiiiiiiiuuuuuiiiiiiipiiippyipppippppdddddadddddpapdpdphappppppaddddddiuiyphfpdkzzzkzzccvvvxvvvvvvcccvcvvvcccvccccccvczzjwwywqiu0y000uuw0w0wtuuuuisiiipphhddsir0wuuuuuudsidiiir0uiuwwyuwuwuwuqruwrwwew9wew69wruuiiiu00yui080000iu00rr00ukcczkzzzzzzzzzzzzzzzzxzzkkkzzkzkkckzkzzzlkkzkkkkhkkhhhhpppiiiiiywiwqwqqq0096666966699996999993696690995999797qq69q969996666qq63qq76667646666646666999666693336665666655366696996669999009wqripkcddddkkcckzvvvvvxvcxvvxxvvvxvvvvvvvvvvvvvxvvvvxvvvvvvvvvvvvvvvvvvkczzlzzzzxcxxlkkhhhhhhkjhkjkjkkhkkhkkkklcclcccczkzlkkkkkhkkhhkkklkkkclzzzzccczzzzkfzzzkkkkkkhhkhkdiypkhiiiiiuiipiiipiippiiiiipiipiiiiyippahddkkhdpppappdhhhhkhhhddhhhhdhddkkkzlkzlkczzcccccccccccccvccvvvcvccccvcccvccvccccccccccvccvcccjcckpuyurrrru",
"vxvvvvxxvvvvvvxvvcvxxvvvvvvvxvvvvkpuuiidhdppdhppppupddhhhw626996666697699966555223222<2<1=218==1512522285688560000wwwwe0ww00000000000000w900w0w99985559566668669868598<>81218121111111111,,1,,:>%%*=====#&===%#%&%&&**,25552555653569wwww00uppppdsspddspdhkzkaddkkcvxccccckzzccccvccccccczzkklzlzkddsiiiipddddkdkdpdapppddsiiipisipsipiipiippiiiiiiiyyiititirwywrrwrrrurrusiddpippyypdippiuuwwwqwrrrurrryyhpddhhkkhhhkhhhhhhhkhhkapisaiappispipipiiyiuiiituuuitiiiyipiiiiaiiaippipippaphdddhddddphppapappfppipppdsddddiuppdddpdhkzckclkfvvvxvvvvcvcvcvvccccvcccccccccccccy7yytuw0y0y0rrrw00wuyiiydpyipdidssr00000uururrstuipiit0uuuwuuuyrrrrrwrwwrwwww00w9669ruuriu00000000iu0900r0t00rscczkzzxzzzxzzzzzllzzzzzzkkxklkkklkkkkllzkzklkkkkhkfhhhppppipiiiyiuuwwuwyw00992296666369698999559969999956997q9979996669999977666q7666q6366666636666966666666656666665656266669967970900999rrrtdckdddkllkaklvvvvvxxvxvxvvxvvxxvvxvvvxvvvvvvvvvvxvvvvvvvvvvvvvvvvvcccccvcckxzzxxzkkkhhkhkhkhhkkkkkhkhkkkklcklcccczlzkzkkkkjjkdhkzzkkkllzzlcccvccczkkkfzkkkkkjkhkhkhhpphapiyiiiiiypiipiippiiiyiipiiipipiiiphhhphkhhdddddppdddapdhadddadhdadhhdkzzzkclkkzzcccccvcccvcccvcvvcvcccccccccccccccccccccccvcccvccczzczdpupyuuuu",
"xvvxxvvvxvxvvvvvcvvvvvxvvxvvvvvvvxkiuiidkhhpppaahpspdhhhp052666665579999996366653212<22231288231111282255506566ww000wwe0w000000000000000w00wwww999995855906666969599598<8221181111111811,,112,==***=====%%===%#%&&&***,1256622566669qqqwe90uppddddddddddidkzkkkdkzcvvccccczzccvcccccccccczkkkkzkcccddddidisdkkkkhdpdppyaddisiipippippiiiippiiidpiiiyyiyiiiituruusrrruuurrisddddpdiyuddidpiiiiywurrrruturyihhdhhhkhhhhkhhhkhkhhhkkaipiiiipippppsdiiiiiuiiiiuuuuuuiyiiipiiyyiaiappiippppkpaddddadddppappppppppppppdddsdpiidjdjddhkkkklckkkxxvvvvvvvvccvcvccvcccvcczcccczzvvi0yuiuqu000urrrrww0upiiipiyyiiiutw0989r0uuwrrritudiiiurrruwruuwrr00rrr00ewwww0e689wwrrtrriry0yr0ui9890000r0u0ujckzzzczzzzzzzzxzklxzzzzzkzzkkkhfkkkkkkkkkkkckkkkhhhhhpdadppiaiiyiuuuuwwwtr009592636666395959899969999995999q799796699966666qq6666q6qq793666666666668696666365666553662626666966996690600wqwwiidhkddddhhhpkccvvvvcvvvcvvxvxvvvvxvvvvvvvxvvvvxvvvvvvvvvvvvvvvvvvvvvckccccckklzzzzkkkkhhhhkkkkjkdkjkhkkkkzlczzkcccczzzkkkfkhjkkkzzkkkkkkzzzccvcvccczkkzkzzkzkhkkdhhkkzapiiipppiiuipiiiiiiippiiiiipippipiipphhhahkjhadddpdadpdppdhddddddhhddddhjkzzkkkzzzzzlzvcccvcvvvccvccvvccvccccccccccccxccccccccccvccvccccchpppiipuu",
"vxxxxvvvvvvvvvvvvcxvvvvvvvvxvvvvvvcdiiishhhhhpaphpssphhhw652225565669999996656652222222281188211111582251565556e000www0000990000000000wwww00www90998995909986666959059061111111111111811,,111:========**%#&==*%%&&*=*,1<25522223656w0www000pdppddsdisddsddzzzzkdkzccvcccczzkccvcvccvccccccklxzkkzzkkdididpipddkkkdpapyipdiiddsdiiipipppiiiiipipiiiyiiyaiiiiiiuuuuiursruuriddsddpdpuuddidpiiiiiyurrruiuiuuphdkkhhjhkhkhhhkhhhhkhhhhiaaiiasppsspdiiiyyyyiiittiuuuuiiiyiiiiaiaipaiaippppfppddadddadapppappppppppppiiddsiidddhhdpdjklkkkzzkzvxxvvvvvvcvccvvcvcvvvccczcvczzzcvkyyiiwtu000ruurtrwryidiipyyyyy0rwr0000wwuuruuuutuipiiuururwwurwr090rrw99ww0rw90999wwrrrriuurrrrtr0<>9000r00u0rzzzzcczzzzzzzzzzzzzzzzzzzxzkkkkhkhkkkkkkkkzkklkkfkhhhhhhhpppiiiiyttyuuwwwrrr09296353666665995958599967957q797999999q69668q66qq6663q7q9963666666666666q66696666666666566562666668967696607w99wrurripappdahhkccvvvvxvxvcvvvxvxvvxvxvxvvvvvvxvvvvvvvvvvvvvvvvvvvvvvvvvcklcckzkkzzzzkkkkkkhhhjkkkkkjkkkkklklkzkkzcclzzkzkkkkkjhddkkzkkkklkkkkcccvczlzkkkkzzzkkkkhddkkkhapiyyppiippyippiiiiiiiiiiyiippppippiidahdpdhhhddpppapappdddhdpadddhdahjdhkklzzlkzkzzzzzcccccvccccccvvcvcccvccccccccccczccccccccvcvcvcvczzjhdppiiiiu",
"xvxvvvxvvvvvvvxvcvxvvvxxvvvvvvvvvvvjitispphhapiissspdhkh65322<266566799q7w66362<2112,,2<=1=1821151258222556655700990www000990000e00000wwewwwew090ww9990909969666829849081111122111111111,,,11,=======*%&##%===*%%&&=,,1<22554223535000qw00udkpppddsddddsihkkkdkdzcvvccczczzzccvvvvcvvccccxzzxzzkjkkkddidiiiiddddhdppppipiiiiiddiipipppdsdiddididiiiyiiiiitiiruiissuurspurisddddpdirrddiipiiiitwtrrruuuuuiiddhkhhkkhhkjhhhkhkhhkhkpipiaisppippiidiiiyyiiiisituuuriyiiippyipppppiiiipphpppdddddhddppppppppppappippsddsuidkpdppidhklkkhkcvcvvvlvvvvvvcccvvccvcvcvcvzccczzcvxzpudiwui0u0rutrrrrtidddpiywwiy0w000w0090uurrrruruiippsuuur00uwwt090wtw09w00ww9w9ww9w9wrrrrr0r0y088900000uu000rckzzczzzzzzzzzzzzzzzzzzzzkkkkkkkkhffkkkkklkkkkkkhkhhhhhhhhpppppiyyuuwuwuywrr009996666666998999999999759996699999699696969666676693666666366666666669966663636366636653562636696696666606699wrrwwryyphpphzkcvvvvvvxcxvvcvvvvxvvxvvvvvvxvvvvvvvvxvvvvvvvvvvvvvvvvvvvvkkcckkzkkzzzzkkjhhhhkhkhhkjkdkhkhkzkkkklkkclzzzzzlkkkkjkkkhkkfzkzzkzzzzzccczzzkkkkzkzkzjkhdkdkkpapyyiaiiuppyyiippiipypiiiiippipipipiikdhppahhapdappppphadddaddpdddpddpddddkkzzkkkzkzzlcccvvcccvcvccvcvccvccczxccccccccxccccccvcvccccccczzckapdyiiiu",
"cccvvvvvxxvxvvxvvvvvxvxvvvxvvvvvvvvzpiiiiphhappppssphhhp609662662696669q697355542231,222=1,<1223125155582886658000900w0000900000w000w000ewwwwwwww000097989969095665699098111118111111111::11::::===2====%%&===%==%&==112325255663235790qw0widkppppppphapddpppkdkklccccczczkzcccccvcccczzzzzzzkzlkczkppppidiiiddipdppppipdisddiipiiipidiipdiiipiipiiiiiiisryiiuuuuuuurrrrrdpippidhuwippihiiiiiyyyurruuuwwiihhddhhkhkhkkhhhkhhhhkhkdipaiappiippdiiyiiiiiiiipppiuiipiyipppiiidipppipppppdpphdddddddddddididppappppipppipakpgppiiafzhhkcvvvvxvxvvxvvvvcvcvvccvvcvccvcxcccccckcjihpwuuu000uiiuyyyyuipsuruu0t0tr000000rrirrrr0rtisssu0uuy7w0uyr090u0y0rw0ew096990ewwwtiuwyyyw720www0w0i09089yzzkzzkzzkzzzzzzlxzzzzzzzzkkkhkhkdpkhpdjkkkkkkklkhhhhhhhddpppappiiitiiuuuwwwuw96655699655666696995579979996999999967667666663667q66996976664343663666666666553262666565322626666666696606097wwwtwquutydjpkvvvcvvvvccjccvvvvxvxvvvxvvvvxvvvvvxvvvvvvvvvvvvvvvvvvvvvvvkkkccvczfkzzkfdhkkkhhkhhkhkhhhhkhkkjkkkzzkkcczkkkhjkhhkddkkkkccckxcclzzzzzzlkkkkjkkhhhkkhhhhkkhhpiuippupppiuipispiiipyyyiiiiiyapppiippphhdahhhpddpapppphadhdhpphhdddhhdhhhhkkzzzkzlzzkzzzccccvccccvvccccxcccxxcccccccczczzccvccccccccccccccchdiuppp",
"vccvvvvvvvvvxvvvxvxvvvvvvvvvvvvvvvvvpiipppfpappassurr09606966626369966696995225232312<,<,<<<222221151121288665600090w0ww09900eww00w000w0ewwwww0w0e00996669965665866862<>8811881111::111111111:=====2=2==%%&====&====81136552355636679qqw00widhpppphpppppddppakdkkzccccckczzkccvvcccvczzzzzzzzzzkkckjdpiiiddiiddipdapppppdspidddiiipipiipiiippiipipiiyiyisrrruuwuyyrryrrrrpdppdidhuyidpdphiiiiiiyrrwyuuuuyidddhhhhhhkhkhkkhhhhkhkkdipipiapppiippiiiiiiiiiiiiiiyiipipipiiiidipipppppppapppadhddddhdddsdsidppipppipppppiahahdphkzkkkklcvvvxxvvvxvvxvvccvvcvcccvcvvvcccccccckvkidpuiuuuy0iiippyipiipsuu00u00rrr0000rrutrr000rrisisu0iuw7w0uwi00rurwuww00w000900w0w0wiywwry09wr000wrr0riw95iczklkzklzzzzzzzlzzzzzzzklkkkjhkhhhphkhkdkkkkkkkkkhkhhhhhdpppppppiisiiiuuywruww006656666569886969999990999q699w9w9966q979966q66qq76qq66qq6363336766606q666533365655536535556666666666676969qqwwwwwwqwwidphkzvvvvvvzjzzccvcvvvxvxvvvxvvvvvvvvxvvvvvvvvvvvvvvvvvvvvvvcckccccczzzzzkkdhkkhkhhkhhkhkkkjkhkkkkkkllkkzxzkjhkkkkhkddkdkkkclkkkczlzzzzzkklkkhjkkkhkkhhhkhkjhpiiyiiuipuypiuiipippiiyiiyiiiiyppipipppdhhdhhhdppppppphpppdhhppdpadpdhhhhhhkzzkzzkkzkzzzzccvcvcvvcccvcccccccxccccccccvccczccccccccccccvckcvckhpuupp",
"vvvccvxvvvxvvvvvvvvxvvvxvvvvxvvvvcvvkiidphhpappauuw099769996666669696666966635523222<,,,1,233222122151225885558009990w0w9900w0we0000w0e0wwwwwe000097667589965666962<>><>111112111:1:111::111::=-8===11=*%%*=====&&&=,13356355555553679wqwwwiddppfpphhpkpppppdkkkzzccccccczzkccccvcvcczzzzzzzzkkzcckkkpppdiiddiddppppppppddidiiiipippipipidpiipiipiiiiyyyrrwwrrwwwwyrrrrueddpddiddiyiddppihpippiyrrwyruuuyddddhhhhhkhhkhhhkhkhkhkhapipiaipipippipiiiyiiiiiiiiiiiipipiiiiippiippppppphhpapddphdadadpddiddiiyiyiiipippiiphhhdhhzczkclccxvvxvvxxxvvxvcvcvvccvcvcvvvcvccccccczvhippipuiuuisiippiiiiipuuu00tturr000000uuur0r0r0usuuuttitw6wwuwrr0uuyuw0wew00ww90wwwwwrrrwwwy00r0080wtw0ri05whzlklklklkzzzzzzzzzzzzzklkkkkhkkhdadhdhkjhkkkkklkkkhhhhhhhhppphpppssiiityiyrruu0066666552689986665995999906999w999779966996676qqq767q96676634<36766666666935265626232555536266666666696960999wwwww9070idpjikcvvlzkccccvvvvxxvvxvxvvvvvvvvvvxvvvvvvvvvvvvvvvvvvvvvvvvvvcckkzzcccczfkkkhkhhkkhjkhkhkkkkkkjkjkkzkzzczkkkkkkhhkddddjdjkkkkkkzkzkzzzlkkkkhhhkhkhhkhkhkphjpipyiiiiiippiipisppisiyiiyiiiipyyiippippapphhhddapppppppapppppppdhppppdkhhhkkkckzkkzzkkzccvccccccccccccccccccccccccccccccccccvccccccccccccxckpipspp",
"ccccxxvxxvvvvvvvvvvvvxvvvxvvvvvvvcvvchhpppppppiprrw00rww9999656666699966693553341221,,2,,2221223222558114588555809900wew0000wwww00wwwwwwwewwwew000000995566999682<:-:>288111811111111111:111:::=======*%&%&==1==&&&&=12355353566336660wwwwyihhapphpphfppdppadddkkzccclkcczckcccvvvvcczzkzzzzzzzkkcckhppiiidiidiippppapapdidsspdipppippiiiiippipppiiiiiiyrwewwwwwwwwwruuuwshphpippiupddiispipppiirywwrruuissdhhhhhhhhhhkjkhhhhhhjhaipapippppppppiiaiiyiiiiiiiiiiiyiiiyiipiippipppipppdhpphdapdddhdddidsidyyiiiiiiippiipphhdhkkzzzcccxvvvxvxvvvxvvvvcccvvcccvcvccvcccccccczzjhpiipypiidddsdpppiiuiuui0000urrr00000ruuuuuuuruiuuuiiiww6ywiwr000wu0w0ww0000w0wewwwwrrrywwwy009090wwwri00yazzzkzzkzzkzzzzzzzzzzlkklkkjkhhhhdddhhdddkdkkkkcklkkhkhhkhdhphpahhpsspiiiiiuwwuuw0673632<229999669699999990999999969999q7797qq66q7q9q966q66463<36666666966666666265565555525536666666669606799wq9ww0q90usidpklczklkkzkvvvvvvvxvvvxvvvvxvvvvvvvvvvvvvvvvvvvvvvvvvvvvvvvvvcczkzcccckakjjkkjhkhhkhkkjkkjjhhkkkkczkkzzzkkjhkhkhdkkdddddkkhkkkkkkzzzzllkkkhkkkjkhkhhkhppdiiiiiiyiipppupippppppipiyiiyiiyiiyiipppphdpphhhpddpppappppphhppaphhhpaphhhhhjkkkckzzkzzzzcccccxccccccccccccccccccccccvcccccccccccccccccvccccczfppupp",
"ccccxxvvxvvvvvvvvvvvxxvvvvxvvvvvvvvvvvkippppppiirr00ww009996663656699966663553621221,<,2222,<,222222221141855569000000w0e0e0wwe0w0w0w0w00wwewww000w0999595999921:::23311111821111:111111=11::1:=*::,1=***%*=,:==&&%*:1266355266666700wwiutudjdahpphpdddpphpadkdkzzlzzzzzczzzvccccvvvccczzzzzzzzzccckkdpiididipipippappaddsdipdpiissppiiipiiidipiyiipiiiiwwe0wwwwwwyyruuueiddhppppiiippppipppidiiyyw7wwuuipddhhhdhhhhhhkhkhhhhkhhhdppppaippsipiipiiiiiiiiiiiiiaiuipipiyiiiidipppipiapppppphddddhpdhddidiiyiiipiiiyppppiaajhhppkzxczzxvvvvxvvcvvxvvvcvcvcvvvcvvcvvvvcckcccczkduippppiiddddaddddiiuruuu00turr000000yuiuuyiurrrruiirdww7rriwy00ww0wyewrw00000wwwrwrtwrwwry000000000wi00ydzzzzzlkzlkzzzzzzzzzkllklkkkkhhhhhhhhhdhkddkkkklklkkkkhhkkdhhhphhhhhddippiiiuwwut07665322<4699999999009999097909w996q99999q66q766q769qq96966363446666966966666365355666665326566666666666679699q9ww0wu00uiishkjhakkkhhhkccxcxvvxvvxvvvvvvvvvvvxvvvvvvvvvvvvvvvvvvvvvvvvvvvvvkkkkhkkdzkkkkkkkkhhkhkkkkjkkkhkkzzxklzzzzjjkkkhkhhhhkdkdkkhhkkckzzzzzkklkjkhkkkkhhjkhhpipiyiiiiyipppipipipppppsiiiiyiiiiyiyppppihhhpphappddppaapppppphppdhhhdahphhhhkhkkckzzkzlzkkzzcccccccccccccccccccccccccvcccccccccvcvvccvcvvcccccckpsupp",
"ccccvvvvvxxvxxvvvvvvvxxvvvvvvvvvvvvvvvviapppppiiwq00qww09899666625669665335556622112,222222,,<<2221582211258586900900wwew0000w00000wwe0w0wwwww00e00w9995998981:=:1123311118121111::::11:=::::11:**:,==**%%%=====*=**:2666252656637wqwwuiruusddphhphfapdkhpppdkddzlzzkkkzczzcccvccccvcccczzzzzzzzccckhddpiiipppddippppahhddidppipppipispiippipiipipiiiiiyrww00wrwrrrrruruwddippippiiipppiiiiddpiiuwwwwwrripddhkhhhhkhkhhhhhjkkjhkhpupppiippddpipiiiiiiiaiiiiiiiiiiiiiiiippddiippiipiaphhdhpdaphphdidddiiiiipiiiiiaipppippjkkhpikzzzccvvvvvvxvxvxvvcccvvvccccvvcvccccccccczkzhyipppppiiddddddiiiyuuusstrr00rr09009yuiiyuu0rrr0uuiritu9uyituy0wuuwwrrree000000e0rrrwrwywrww0000960w000jczzzkzzkzkkzzzzzzzzzlkklkkhkhhhkkkhpkpkdddkdlkkkckkkkjjhkhkhhhhphphpsdddpipisuuuy0602<<<<2399999099909999999699w99677999999q66q67qq667666663363436666666966666666663966665525666666666666969699999w0wt00turtpppppkkkhhhccvcxvxvvxvvxvxvvvvvvvvvvvvvvvvvvvvvvvvvvvvvvvvvvvvvvzzzfkkkkkkkhjkhjjkkkjkjkkjjhkkkkzzzkkzzzzkhkkkkjhhhhhkdkfkfkklkczkzzlzkkkkhjkkkkkkhkkhpiiiyiiiiiiiupiiuiipspppspiiiyiyiiypipipppdhhdhhhpapppppppfpapahhpddhhhhpddhhhhkhkcckzkzkzzzzzczzzcccccccccccccccccccccccvcccccvcvccccccccvcccccczdpups",
"ccccxxvxxvvxvvvvlvvvclcxvvvvvvvvvvvvvvvkppahfpiyq090qrr066696666566662556324565221212<21332,1,<21112582112586660999900ww00000we00ew0ww00wwwwww00ewwww99599981:=:11111188111111111::1:11:::1:111:*;::,;,*%%%==,==*==*,2366655566626wwwwwyutuddhdhphphhhhhhppppdddzkzzkkzzczzxcvvcvcccvvcczzzzzzzzkcvckdpiisiiidadppppdddhddidddppippddsiippipipiiypipiiuiwr000wrwrwrrrrwrespippiipiiuiipiipipiiiiwwwwwwrrdsddhhhdhhhkkkkhkhhkhkhhdpppppiaiidiiuiiiiaiaiiiiiiiiiiiiyypipiyiiiipppipiipahpdaddhhpadhididiiiipippiipppppppppkkkppakkczzcvvvvvxxvvvvxvvcccvvccvvccvvccccccccczjkkyypipppiiddiidiiipi0siuusttr0t098009yupyiiuuuuu0ruuriwu9uwuuuw0yuyyrrrrw0009000000wuwwwyy0ww0090990000rkcxkxlzzlkzzkllzzzzzzklkkkkkhkhhkhkphkhpkdkkdlkklkckkjhhkhkkdkhfpphphppdippipsiuuw6562,,<,23q0000909990900999990999999997996767666qq66666666466636666669q666666666555666653555566666636666696779999wqww00wr0wupjkkkklkhkkcvvvxvvxxvvxvvvvvvvvvvvvvvvvvvvvvvvvvvvvvvvvvvvvvvvczxzzkkkzkhhhkkhhkkkjkkkkkkkkhkkkkzzkkzzkckkkkjkhhhkhdkkdfhkkcckkkzzzzkklhkhkjkhdhkkhkdpppyyyiipiuiipiyiiipppppppiiyiyyiiiiiyiipiiahahhhppaappppphppphfpppahhhhdddhhhhkkhkczzzzkzkzzzzzzzzzzzzzczccccccccccvcvvcvcvccccvvvvcvccvvccccccxcjdpii",
"xcccccxvvvvvvvvvlvvxckcxvvvvvvvvvvvvccvcppppppyyrw0q00996666666626966225652227622222,2222221,,<<2212285115866569655900ww009000000000000wwwwwwwww00w0w99599e81*:1:::13311881811111:1:111::11:111+:;**,,,**%%==,=****==2365666266659wuiuiyiisdjddkhphpphddhapppdddkzzzlkzzczzcvcvcccvvvcvvzzzlzzfzccckkdddddpiddhhppppdddaddddidppipisdpddiipipiippiiiiiywrwe00wrwyrwrwwwwriduppidpiiyiiiiiiiiiiiww7wwwyuuisddhkhdkhhkhjhkhhhhkhhhdpuapiiiiddiiiiiiiiiiiiiiiyiiaiipiiyiiiiididipppipaahphadddpphddghddidiiiiiipiiiayipapppphpkpkfaczzzxxvvxvvvxxvvvvcvcvcvcccvvvcvvccccccckjckyyiiippdddduddsipdi0surtuu00r0098909yuyiypddruiur0rrwwy0rwuwy000wwwwrre0rw09wrrrw0wu0wwwr0w008900w0w000axczkkzkklzklklxzzzzzkkklklfhhhhhkhkphhkpdkdkzkkzczlkkkkhkkhkkhhhhphphddpppppiuuiq5<22<,,,,39000999990900799990999967999999q76qq66q7636666666436660q3666669666666366363566656336666666366696966699w9w0099rr0w7ikvcclckhhkcccxxvvxvvxvvvvxvvvvxvxvvvvvvvvvvvvvvvvvvvvvvvvvvvvczzzzzzzkjhkkzkkjkhhkhkkkkkjkkhhjzxzzkzzkkkjkkkkkhhdkhkddhfkccclklzzzzzkkhhhkkkddhhhkkkhpdpyiypppppppppppiiispspiiiiyiiiiypipyiipiipdhhhpppppppppppippppppdhhhdddkdhkhhhhzkkzkzzkzzzzzxzzzzzzzzzzccccccccvcvcccvvcccvvcvcccccvcccvvcccccczhpip",
"zcccvxxvvvvvvvvvcvvcccccvvvvvvvvvvvvcvvvhiphpit0wwwq7996353966665606556662223366232222328111,11111112118182888900999wrwwww0000000000000ww0000000ww00005509w9>:>1,1,1118188111::::*:::1,:::1:1:==::::,=,==&%=8===**::::22822226699wrrruuiiidhhhhhhphphhhhhhddhdhhhjzzjkczcccccvcccccvvvccccczzzcccczzzkpipiidphhkdpdhhdpdppddpppyddsdddddippppppipiiyuurwwww0ww0wwrtrwwww9sdtppippiiiiiiiyiiipiiyyiiiiiiiddhhkkkkhkhjkhkhjkhhhhhhdpipdiippspiyidiapipiiiiiiyiiiiyiiyiiiiyaiiippiissidddddddddddddiihipiiiiiipppiiiihhiddpidkhkkfilzvvvvvvvvlxvvvxcvvcccvcccvcvvcvccccczzzkvklh0ussdiyppiiippppiuriiuyyy0000099009uuypiiiyr000uurtiuyywwytrriirwyquwrw0wqwrr0w000ww00ww0r0errt000te8rzkkzkkkzkkzkzkzkzlzzzkkjhkhkjkkkhhhkkjhssdddiphkkkkzzkkkjkkkkjhhhddhhphppppipssw09659<<21>>20099999999000000909099966670670669699969996684363336696969669696676634666366633346655666666666666999990990000qwwwqdccxvvcckhkzcccxvvvvvvvvvvvxvvvvvvvvvvvvvvvvvvvvvvvvvvvvvvvvvvvccvzzzkkkkfkklkkfkkkkkckkkkhhhhkzzzzzkzzxzzlkkkhhhhhhhhhhkkkjkkhcckzcckkhhkhhhphjkkhapphdpyiaaiiippappiyiapiiddiuuuuyiiiiiiiiiiiipapdadippppppppdpadpdapkhphhadadhkkhkkkjkkkzklkzklzzzzzzzzzzzzxzccccccccccccvcccccccvcvcvcvcccvcccvcvccckdiy",
"zcccvvxvvvvvvvvvvvvccccvvvvvvvvvvccvvvvchihhpyw70w0ww996669996695906555354422233,322,21,18=1=,1111118111122568000969wwwww00000000000w0wwww0wee00wwww000905e9:111,,111212121111::::::::,,::11:::==::,1,,==&&==81=*::::>29282226609wrtrriuupdhhhfahphfhhhhhhhdddhhhkjkkkkkcccccccccccccccccccczzzkcczzzhppppiddhhjhhhkkdddpapdapppdiddiipiipipiiiiiiypituee0000ww00rrr00009issipiiiiuiiyiipiipyiiiyiippippddhhhkkkkhkhhkhjhhhkkhkhdspissippspyiiiiiiipiiiaiyiiiaiiiiiiiyiyiiiiiiiyiiiipdddsdsddsddihhipiiiiiipppiydididddiiphhkhphzzxvvvvxvlvvvxvxvcvcvcccvccvccccccccczlkkvflfwuiiiyupiuiiiippiuuisiuyru0y0000000uuyiipiyuruuriiiiwwwyywwuuuurruwtwwwww0r000000wrw00wwr0rr000090rr8uzzzcklzzllzzkzzzkkkzzkjkhhkhkkhhhjkkhkhsdiiidyipppffkkjkkkkjkkkhkhhhhhhppppppre09999082,><280999999009009099999999996666066766686999998q666663869997q696366996663366666436436366666666666666699699999000wwqwwudkzcvvcczkzxccxvvvvvxvvvxvvvvvvvvvvvvvvvvvvvvvvvvvvvvvvvvvvvvvvzcckkkkkkkkkklklzkkkkklckkjkjkhkkkzkzzzzxzklzkkkhhhhhhhhkkkjkhhkkkzzclkkkkhkkkfphhhkhpphdpiiiipaiappfpaiyipppdiuuuruiiyyiyiyiiiiipppdaddppsddssdpddpppppppppppddhdhhhhhhkkkzzlklkzzzzzxlzzzzzxxzzccczxcccvcvcccvvvcvccvcccccvvcccvcccccckkdpp",
"cvczvxcvvvvvvvvvcvvvcvcvvvvvvvxvccvcccccppphiww7w000999669999669569322252<<42223122,,21,1,1=11,=:111111122255690w9669ww90ww00000000000w0w000w0000w00050595e5>1>11211122211111:1=1:::1111:1111::::::,111==&%=,,==*=:1<12282212660wwrruiuiipahhfhkfpphhhhhhkdhhhadhkkjjkjkzlkkccckcccvvccccccczzcccccczkpippdiphkkhkhkkddappppppppiddidippippiiiiyiipiiuwe000000ew6ww099099tsrsiuuiiiiiyiiyppipyiyyipiisipdddhkkkkkhhkhhkhhkhhhkhkasidppppddiiipiiaiiaiiipiyiiipiiiiyiiipiiipiyyyystuipddddsddsdsphiihiiiiyiiippiiihidddddiipkkpdkxxvvvvvxvvvxvvvvvvcvvcvcvccvvvcvzccczzzzkckllyuiuiuuipyiuiidpiiuuiiuu00099000099uyiyiiyyuuurruiitwwwwiw7yrwuwuuw000000rq999909000000r0t00000000r09iczzckzkklkzzlkkzllzzlkkkhkkhkhhhhkjkhdddidiiiyiipppkkkkkkjkkkhkhjkhhdhppdppii0009999082<2890000000000099999999779900609969666696969669q66766637666966696993936665366663666363656366666566666636698996000000qwwuuiacclkkhkccvcvvxvvvvvvvvvvvxvvvvvvvvvvvvvvvvvvvvvvvvvvvvvvvvvzzzkkkkafkfklzlkkkkkkzlkkkkhkhhkkkkzzzzzzzzzllkhhkhhhhhhjkkkkkjkcccllzkkhkkhhhhhhdhhhhhhhdpiyiiiiipphppiiiipddiuiuyuyiyiiiiaiiayyiipppdappppddidappdhpdhppppphpfhddkjkhkhkkkkzkkkzzzzzzzzzzzzczzzccccccccccvcvcvccccvccvvcvccccccvvccvccckjdp",
"zcczvvvvvvvvvvvvvcvcvcvvvvvcxvcvccccccccpuipiwwwww0669666666622526634225<<,<2222,2<,,,1,1==,1=1=:112111112285890w9679w0ww0000000000e0wewwe0wew00w0ew00909905-115222112222111:1::11:::1181111:1:1::,1181,1=%====**=:1225222225690wwrriiippphhhhhahhphhkhhkkhhddhhkhkkhkhkkkkcccccccvvcvccccccczcccccclkkpppddhhhhhhjkhdphppipypapdididiipiiippiiiiiiiuuw0000000ww69w090996ririiiiuyuuuyuuiyyiiiiyiippddddsddhkklkkjhhjkhkkhhkhkkhddpspppdpsdiipdpsissiiiiiiiippaipiiiiiiiipppiiiiiruudddpididpsdiiihipiiuiiipppiidihddddddiihhkkcxvxvvvvxvlvvlvlvcvvcccvccccccccczcccxzzzcclkkpuiuiuyppiiuidiiuuururyrr0099900999yyiiypyyrrrrr0ruwwwwwiywywwtwww00009990099669000wwww0rwrr00r000000dczzczzzkzkzkzzlkzkkkkhkhkhhhhhhhkhkhhdddpiiiiipphkkkkkkhkkhkkkkhhhhhdphhhppyq0009995998800y000000999099900999960909707660999669696999666636663396686693696969666364366666466666563666666666663969669690600w9w007wikcvjhhkzccxvvvvvvvxvvvxvvvvvvvvvvvvvvvvvvvvvvvvvvvvvvvvvvvccccllzlkhhfzzxkkklkkkkkczkhkkhhklkkzzzzxzzzzklkkhhkhhhhhkkkjkkkkkckzzckkkhhhhhhhhdddhhhkhhppiiiaaipphpppiippppiiutyyyiiiaiiiiiiiiyiyipddpppdiisdpphppappppppppaphkdhkkkhhjkklzlkzzkzzzzzzzzzzczxlccccccccvcccvcccvvccvvvvcccvcvcccvccvccccjhd",
"kxzzvcvvvvvvvvvvcvcvvvvvcvccccccccccccccpyyit0wwqw06679963665<<<<2222<22<<1<2222:,,,,111,,,=11=,1111111128825690009660ew000090000w00w0w000000000000000669604-152822222281111111111::1111111::,:::::1221,1:**,,:*==:122232222590qwwriupiipddhhdadhphhkhhhkkkhhhhhhkhhhhkjckkcccccccvvvcccccccccckccvcczkphddphhkkddkkkpahapppppppidiiiipiiiipiiiiiiiutw09900w000w00w099652wrwriiiuuruurruyyiiypyyipppfppahdahkkkkhkhkkhkhkhhkjkkhfdsssppssdppiddppsppsyiiiyiipspiiiiyiiiippippiiyirruddddddsdddsdiippiiyyyiipipiiddddhdddhdpiplvcvvxvxvxvlvvvvcvccvvccccvccxvcccczcccczzzccclcduuiiyiadiiiipurutruurrru009590999wyyiipyyi0uurr00uwwwwwwiyiwruuwy000999969999900wwr00wtwwwr00er0005ykvxkxxzzlzlzklkkklzkkkkdkhhhhhhghhhhddpiiiiiiipdpppfkfkdkkkkkkkhaddhhhhpppiiwwr00999909990y0900909999699990000097900069979796966666667696646463666966866696693733646663636666635656666655636669966699909609qw0w000wpkczzkzzzkkvxvvvvvvvvvvvvvvvvvvvvvvvvvvvvvvvvvvvvvvvvvvvvvvccczkcckkhfzzzzkzkkkklkkzkkjkhkkfzklzzccxzzzlkkkkhhhhhhhhhhhhkhjccklclkkhhjhhdpphppahkhhhkaiyiaiipipphpphddidisiuuruiyiyyiiiiiiiiiyyiaapddidddidpphppddapppppppphkdkkkkhhhkkkkzlklkxzzzzxzzzzcccccccccccvcccvccccccvcvvccvccvcccvccvcccczkkkk",
"kcccvvvvvvvvvvvvvvvcvvccccccccccccccccccptiiy076w0099669666654,41<2<<222<,1<22,2:,,::11,,==,=11=::11211111455690096699ww09900900w00eweww000000000w00070598e4>85858552555131111111111118111111111,:1282811:;;182:=:112332222269qrrrripiiipdhhhhdahhhhkkkhkhhhhhhhhkkhhhkkkcklcvccvccvvvvccvcvccccvcccckppihidphhkddkzkjdhppyppappdiidpiipppppiiiiiutuw0060000990wqww0065<3wwwrtrruuwrrywuyiyyiyypipppphhpddhjjlklhkkhkkhkkhhkkkkjfdippppsppsiidsiaispiiiiiiiiippiiiiiiiiipiiippiyituiddddddddsdddiiidiiiyiippiiipidddhhhaddiyilvvxxvvvxvxvvvlvvcvvcvccvcccccccccczcccczzzlklkckurypyuddiissirrrr00u00000995999990iiiiiiyirtiuuuurwiiwwwriiwuiuwrwu099665766590rrt0r0wwttwr00000000uzxzkcckkkkkzkzlklkklkkdkdkhkhhghhhhddiiddiiidddddapkdahkpkdhhkkhddhhkhjhiywwwy00000rrt0099999w99909999999900000900000669q9699689969666966663634766969669969369766363666666663666666666266666666669966999667w990q090wpzkjkkzzcxvvvvxvvvvxvvvxvvvvvvvvvvvvvvvvvvvvvvvvvvvvvvvvvvcczkkcchfkkkzzkkzklkkkkkjkkkjkkjfzkkzzccxzzzlkkkhhkhkkhhphhhhhkkccckckkkhhhhhhhhhpphhhhhhkaiaiaippaphhhahdiiidshutruyiiiiiiiiiiiiiayyappsiddidisdppahpppappppaaaddddhhhhhkkzlzzzkzzzzzxzzzzzzcccxcccccccvcvcvcvccvcccvcvcccvcccvvccvvccczzzzk",
"zcccvvvvvvvvvvvvvccvvvccczzzcccccccccccchywiiq9600069699666652421<<,,<2,,1=<12,1::,:,,,=,,======:1111111111825997666690000900900000w0www000000090000996096w5>882525555<51212111111:11181,11111,1,:1112111=*:1821,::,2233222569qririipppiddhhhaahphhhkkkhkdhhhhhhhhhkhkkklcccvcccccvvvccccvvvvcccxcccckpphipddhkkhhkkkhapappppdppdidiipiiipipiiutrurw096990w969900w0096646ww9wrwrurwurwwuyyyiyiiyipaphpfhphhhkklkjkhkhkkhhhhhhkkhdsipiipdipppiddisspppyiiiiyiiiiiiyiiiiiwiiipiiyyiiuiidddidsspdppiiiiiiiyiiipiiiipppdphhhdhiiualcvvvxvvvxlvvcvvvccvvcccvcccccvccczccczzzzzkzkckwrypuuidddssi00ur9000099987559950typippippiiuiuuuuuiiwwwrwy0riu0uwu009959966690tr0r0wwwrwwr0000099ukzxlzzczllzkzkzklkllkhhhhhhkdadhhdiiddiiiipipidkdppdhkphpdhhhhhdddhkhhhpiywwwww900rrurry09985909990000099900000990900999999999766696636666634633669989666366996666335664364666665563666626666666666699606669qqq00699wiphhkzccvvvvvvvvvvvvvvvvvvvvvvvvvvvvvvvvvvvvvvvvvvvvvvvvvvzzkkcckkzkkkzzzzkzkkkkkkzjkkkkkkzkkzlzzcczzzlkkkkhkhhhhhhkkkkkhkcckckzkkkhkhhhhhkphhhhdhhkdipaaippphhhdphdisdidhruruyiiiiyiiiiiyiiiiyiapiidiisdipddpppppppipppapddkdhhhhhkhkkzlzzzkzzzzzzzzzzccxcccccccccccccvccccvcvccvcvcvcvcccccccccczlkzc",
"ccccvvvvvvvvvvvvvvccvvclzzzlcccccccccccchqthitq70000999755663322<<<,1<,,1=,,11,1,1::====,1======:::1111:1>1445895666690009099000ww0wwwwwe0000000000e090696e5>8885258525<2111121111:11111::,111::,111211=,:::295<1,:,1233988399qrrruipppipdddhhhkhhhfkjhkdkhahhhhhkhhhhkkkkkccvvcvvcvvvvccccvvckcxcccckdphiipdhjkddjkkhspdppppapyddidppppppiiiuurwww0069090096559690000969rw69wwwrwwrrwwuyiyyyiyyipappphphphjkzzkhhkhkhhkkhhkkjkkadiipipsippiisdisppppiyiiyiiiiiiiuiipiiiyippiiiiuuuipddddppidippdiiiiiyiiippiiipiidpphhphdhhiyavvxcvxxvvvvxvvxvvcvvcvvccccccccckzclzzzzzckckvcuriiuuddidssu00tr90uu09900969009wsuippiiipiutuuiuuwrw7wiww960uy000u09959590990wrt0rrwwwwtwr00r0099azzkzzkzzkkzkzklkkklklkkhdkhkhhhdpdiididipdpiisiddpppahadpddhdhapppdkkhpyyywyyq000rtr0950900w79099000999999990009q9009969999969699666673633222223666969999699667666366364333463663666666565626653663566697667q790099quikvcvvccvvvvxvvvvvvvvxvvvxvxvvvvvvvvvvvvvvvvvvvvvvvvvvvvvvcclkkcckzzkzzzzzzlkzkkkkkzjckkdkkkkzzxzccczzkllkhhhkkjhhajkkjkkhcklklklkjkkhhhkhhhhhhhdhhhdypafipapphdhddiiddsddtrrriiyiiiiyiyiiiaayaaapididididdapdpaapppppiiipddhkhhhkhhhzklkzklzlzzzzzzzzzczxcccccccccvcvcccvvvccccvvcccccvcvvcvccvcclzzzk",
"cccvvvvvvvvvvvvvxvvvvxclzkkkkkzlcckkkzzchteitrwww79999995553652221,,,1,,===11==,:1::1:=:========:=,,=,,,21<2596686528696966999660000000000000000ee0085565905:185331222218211111=:1111821:111181:1:2155><,==,2882:::12336966579weriuuppiipiihhhhhdhhhkkkkzkhhhhhhhhhhhkjkkzcvvvxvvcvvvvxvcvcvvccccccclkkaiihipphjddhlkdaasdsidippudpippaysiiirrrrww0070005996565566669980rrywww77wruuuuyuyiipiiipppphddddphhkkkkljhkkhkkhkkkkkjkhkpiiaaiiididididppipipppiiyiiiiytiiiitirriiiiitisdppahhhppippppiisiyiiwuyiisdsppddidddhhffpaaipavvcvvvccvcvvcvcvvccvvcccccvcccccccccczkzckclkkdypppyphpydsurw00000009399299969wyyypyiypiuuuuiut0iite7sqwt9q7900099999999995900r00wwwwwyyiw000riszkzzzzzzkzzkzlkzzckkkjddkdddphhhppiiididdpiipidddiipddddddddhhdpsphgdtuurrreqwww00000r0000r088990090999955999995999606069699996666666667332,3<3<<36367663366776676666337763666665636666556653656666666669366999390q99wwjjzcvvvvcvvvvvvvvvvvvvvvvvvvvvvvvvvvvvvvvvvvvvvvvvvvvvvvvvvcvcckclkkkckkzzzjkkkkkkkjkkjjhhkkkzzzxxzzkkxkkkhhkkkhhkjkjkkhkckzjzkkjhhhkhhkhkhhdhkkkkhhdhkhpdddhhhhpppiphhhprrtruiiiiiiiiiiiiiidhdphdddiiippddaddpppdisddddidddhkhhhhjhkkklkzzzzzzzzzzzzzzzzccczzzzxcccvccccccccvcvcccvcvcccccccccccczzkc",
"vvvvvvvvvvvvvvvvvvvvvvxczklkzzzzcczzlzzchrwiie9q99999799655652<2<11,,,1,22==112,,1::,:=:========:,,,,,,122<<666566556669666669666660800890000000090006605592:>81323213211111111111111111,111111,1:2225<<,==,2822,,11266676769ewrwiiupiippiihhhddhhhhhkkjjhhdhhhhhhhhhhkkkcccxvvvcvvvvvvxvccvvvvccccczkkpihiiphhkhdhlkjisddddddiiiddiippiiirrrrwww00090668989998666399669yurwwwwwwwwrryyyyiiiiiippphdhhddhhkkclzkhhhkjkjkjkhkkkkkhaipiiiadidididiipipipyyiiyaaiipiritiiririiuriwiippppphppppipiiptiiwiiwuuiipidpiiddddddddppiiiiaccvccccvccvcvcvccvcccccvvcccccccccccclzlckzkccd0ippaphapdirrr000r090002<259999wuiiipiipiiyuiiiitiiuy9iqqw7q99r99099999999990000r0000wyww0r009ujckzzkkzzzzkkzzkkzkkkjkdkdkdkdhhhhiiiiiididsipiiidsppiidddddddppiipphpiurrrrrwwww0000000rrr00r08900w000099999999899999606676976997966666663322<333437337666367696696766636636666666665656363666663366666669669999690w99wqhshjkjhkzvvxvvvvvvvxvvvxvvvvxvvvvvvvvvvvvvvvvvvvvvvvvvvvvcvcvckckklkkkzzlzkzkkjzkkkkjjkkjkhjlzzzxzzzzkkkkhhhjkhhdhhkkhhkkzkzkjkkkkhhhhhhhhhdhhhhjhkhhhhhhhddahhhphppsppppuuuuiiiiiiiiiiiiiiiddaphdsidspdiddddppppiidiisiiidshdkkhhhhhkkzzzzzzzzzzzzzzzzzzxzczzzzzvvccvcvvccccccvcvcccvcvcccccccccczlkz",
"vvvvvvvvvvvvvvvvvvvvvvxlvzzzzzczczkkkkkkhrwiit7697666679656322<<<,,,12=,==11211,:1:=,:======1===,,11,,112212666352256600966696665656666869996000w00006665694::513312322111111111:11::111:11,,11,::2125<<1,:1288212223699997qwwrrwtiippipiisghhddhhhkkhhjkhhdahjhhhhhkjkkzzlcvvvxvvvvvvvxvcccvcvccccczkkpisphpdkkhdkkkasadiididdipddiiapyiuuwwwe0we0006669590066096988669uurrrwwrwwrruyuyyiiiyiiipppddhhdhhjlzzklhkkjkkhhkjhhkkkkkdiiaiipiddiiiddpiiypyyiiiyiiiiiriitrirrriuwtwwiyppipppppipiipiiiiuwitwiuuiippiidiididpdppapiiiicvvcczcvcvcvvvvccvvccvccvcvcccccccccccckxkkzzck0iiadadapsirwr099r989002><56990quiipiiipiuuuuuuuiirriqi5606w00r9900999099990wtwr00090wyyw00090dvxzzlkzzzzlklzlkklkkjkjkkhkdddhhpppiiiidddiddiiididiipdddsdddiiiiigpsturywwrewwww9r0r00rrtut0r0000w00009996989856666999700969669999666663323223<33<4733366666697666973676676669666565635666336566666666666696969396906797iishpppkkvvvvvvvvvvvvvvvvxvvvvvvvvvvvvvvvvvvvvvvvvvvvvvvvvcvvcccckkkklkckkkkkjkjjjkkkkkkkhkjklzzzzkzkklkkkhhhhhkhdhhkjkkkjkjkkkkjhhhhhkhhkhdhhhhhhkhhhkkhhdhhhhhhppppsiiyuuuuiipiiiiiiiiiiiiihpphddsiiiidddapppppiiddsdiiiisddhdkhjkkkklzzllkzllkzzzzzzzxzzzzzzzzcccccccccccvvcccvcvcccccxcccccccczzzz",
"vvvvvvvvvvvvvvvvxvvvvxxvxzzzcczljhhdhhdhiiwitw9666666666635322<<,,,,,=1==2=1211,,1:=,,=======111,,11,,112128666665556699666896686666666975699909w66080698595>125323221121111111111:::11:,1,,,18,1:2125><11,1258222339999q9w9qw7wwiirppippddhkhhhhhhhhkkkkhddhhhkkkhhhkkkkklvvxvvvcvvvvxvvcvvvvcccccclkkfiipiphhkddhkjpiiddddiiipiaadppapituwwrwww00000969550e98099999999rrrrryrurrruuyiiiyiipiipsspdhhhdhkjkzlcckkkkkhkhkhkhkkjkkdppiiaipspsdsdipppiipiiiiiyyiiyitiiitirtiuwuutippppppppiiiipipisiutiututyiiiipiiididdpdpdaaiaiiccvcccvccccvcvcvvvcccvcvcccccccccccccckzxkkzzckuidadppppsiuuuu9528009695256900wuypyiipiyurrrrur0rwwier7w07qw00900000099999000000yy00wyywe099izvkkkzzzzzzzzkzzzkzjkkhkkhhkdkddppiiiiiipsididdddiisiidisddidiiiypdprwwrurrwwwwqw9w000rrtisse000000ww0009999995559966669960999999996966832<2133<2<3<3633368636696999663333766669763366666655666565666669666966699966606996yhhhhhkcvxvvvxvvvxvvvxvvvvvvvvvvvvvvvvvvvvvvvvvvvvvvvvvvvcvvvvccccckkkckckkkkkkkkkkkhdkkjhkkklkklzzkkkkkkhhkkkhhhhhkkkkkjkkkkkkkhfhpahjkhkhhhhkkhhhhhhhkhhhhhhhahphppiryyuutuuipiiiiiiiiaiiidappadiiididiapppapppipididddddddhdhdhjhhjllkzkzkzkklzzxzzzzzzzzzzcccvcvccvvccccccccvcccccvcvczccxzccczkzz",
"vcvvvvvvvvvvvvvvvxvvvvvxczzzczkkkdkdpapddrerirq366635363622221,1,,,:,,::=11121,,,,===========,,,::,1,,112<236667896669996666666666660068676999990989806686061:553222222111111111111:11::111,11111:21251<82228958332699009q00w9w9witripipddhhhkhhhhkhhkhhkhhphkjkjkhkjjkkzlzcvvvxxvvvvvvxvcccvvvccccczkffiiiiphkkdhhkksipdpidipipidsdpadpiiuwrwwrw00e00968550066e99999669rrwrwyuururuuiiiyiiiiupusppphhhhhkkzzczlkkkkkkkkkkkkkkkjkaipiiiaidddsippppiiipyyiiyyiiyyririiriwritquuispppppapiiiiiiipisiiruuuuyuiiipiiidiipppphhppppiicvvzcvvzcvcvvccvcvcvcccccccccczzlcccclckzlzzkkkdyaddpdppsiuuut95,2009590669900uiyiippipiuuur0u0yiwriwr7ew0w00r0r0000009999999w0rwrwrwyywe00ikczkzzkxzzzzkzzkxlkzkhkdkkkdddddidiiiiiippddidddsdippiidddsddduuiiiyrwwwrtrewwewww990rrtiiuut0000000000009999998666966699906009796796666322223322<33<36346666666699636663334666769835666665663656636666666669699999996w6995tdpphhkzcvvvvvvvvvvvvvvvxvvvvvvvvvvvvvvvvvvvvvvvvvvvvvvvvvvvvccczkkkklzkkkkhkkkkkkkkkjhkhkkkklkllkllkkfllhkhhkhhhhhkkkkkkkkkkjkhhhhpphkkhhhhhhhhkhhkhhhkkhhhkhhhdspgpyyiiuuuuiiiiiiiiiiipiipphpppdddiiidippppdpppiiidisdiiddddddkhjhkkkklzzzzzzzzzzzzzzzzzzzzcccccccvvcccccccccvccvcvccccccxcccczczlcl",
"ccvvvvvvvvvvvvvvvvvvxvvvzzkkzkkkjkddpphdirwwrrw766535556322<1==,:,:,:,::1=1=,<,=><;;:==========,,,,,,,11<<256666999898969666669666666660696999909989066695684:123221131118111111211:11111111182,,:2229222222959536669099799w9wwqqtrruiipidhhhhkhhhhhhkhkkhhhhhkkkjkhkkkkzkzcxxvvvvxvvvvvcvvvvvccccccckkpdpdddhkkhhhkkapispiipiipidkhaadpuuwwwrwwww0000666550665096666669rrwwwrrurrryuuiyiiyippppsipddhhhkkkzkczchkkjkkddjddjkzzzlkpiaiiidpidsdpdpiipiapipipiiiiiiririiriiiiwutisppaaippyyiiiiiipsttiwuiwuiiippppidddppahhppppiypzcccvvvzccvvcvvvcvcvvcvccccccczccccccckzzkzzadzkidhhhhhpsuuutw925859909999900wuyiyyipppyiuuuuuruirwrqiqiwqu00r0r000000999999900rwyyyw00w00izzzzvzkzkzkzlkzkzklzzkkdkhhkhjdiiiidippiiihsddsdddipdpipidddddirrruu0rwwwrrw9qwwwqwwq0rtiiiuru00000000000009889999699669990000096969976633322213222<333767663966366996663363366636966663563666666655636666366966669999606706yppppkzcvvvxvvvvvvvxvvxvvvxvvvxvvvvvvvvvvvvvvvvvvvvvvvvvvvvvvvcczlkkkkczzhkkkhkjzkjkkkkkkjkkklkkllkkkkklhkhhhhkhhhhhhhhhhkkkjkhhdhhphhhkhkhhdhkkhkhhhhhhhkhhhkhhhppppiiiittuuusipiyiiiiiiiiidhhhhsdidididpppappppiddididdddidddddjhhhjkklzzzzzzzzzxzzzzzzzkzzcccccvccccvccccvvccccvccvcvvccccccccczzkc",
"ccvvvvvvvvvvvvvvvvvvvvvvzkzzkzkkdkddddddiiwwriw95653533322,111,,::::,===,==1<<,,,,==:===========:,1:,,11<<<25669999669969666066906806000999999099999066965604:122221221181211111211111111211882,1:22292222285999656699990009wwww9rrwrirdudhddhhhhhkhhhhhhhphhkkjkkkhkkkkkczcvvvvxvvvvvlvcccvvvvccccczkhhdiiddhhkddkkkhadasdiipiiphhhafpyuwwwwwwwww0099968969966699666669rwwwwrirrruryiiiuiupppsusppdhhhhkhkkzlklhkhkkjjjkkkkkkkklpapaiaipssssappdpiiiiiiiiipppyytiirrriwwiwwuiipappyypiyuiiiipiiiwiiwiituiippippdidpaddddppapppydzvcccvcvvvcvvvcvcccccccccccccccccccclzklkzzhkkzipaahkpiutrww009092590985690wrtupyiiipyyuuu0ruu0irrw6ieww0uw0r0w0900009995997wwwwwwyww00uszczkzckkzzkklzzzkllzzkkkdhhhhdddiiisipiippdiddispdsdiiipidsddsiirw00y0rrwrrew9www7wwwwtiisiuurr0000900900000005999999969990009099999797335<42322,2222246736666663679798966666666676663666526656556636655656633666669669996906ypiipcvvvvvvvvvvvvvvvvvvvvvvvvvvvvvvvvvvvvvvvvvvvvvvvvvvvvvvvvcczkkkkckzkjjkhkjkzkkjkkkjkkkkkllklkkkkkkhkkkhhhkhhhphppdhhjkhkhhdphpdhhhhhhhhdhhkhhhhkhphjhkhkkhhdppsuiyuiuuuuuiipiiiiiiipiipdppphdsiipispppppppdpiiidididdidipdddjhhhhkkkzkzzzzzzzzzzzzxzzzzzcccvcccvvcccccccccvccccvcccczcccccccczckc",
"cvvvvvvvvvvvvvvvvvxvvvvvzzkzlkkhjdjddddhpuwerte7665553322<111=1=,::,:,:==,===,=,=,=====:========1,11,,12,2325333996699669866669680600800909099099909655952605:118212211111181211282112311181182,1,8289222255559566266976wq9w999q9rwwrrrsishdhhhhkkhkhkhhhhaphhkkkkkkjkkckclcxvvvxvvvxvvvvvccvvxccccczkkddhdpddjkddhkkhsassiiiipppkkaadaytuwwweuuw000999960066695w999096wyryyerrriuuuuyiiipuippssdppdhphpkkkkkkckhhkhjkkkddkdkkkkkjpipaippdasiddsiipiiiiyiiiipiiyrriitiyueiwwyytifpapyyayiyiiiipiitrrqiputiiippppididdddhdahhaaiyyzvvzzcccccvvccvcvvccvvccccccckccccccckckklzkkzzipppahpissur000008522585<560wrwuiyypiiyw0u0u0iutriie6iewq0utrq9999909999599wwwywww00yww0szczkzzkzzkzzzzzklzkkklkkhkdkhhdiipdddiippippdiidiiiiipipiidddsdr0000rrurewweww9weww7qwwiiiittrr000009909000000099909999989q0090069690007663<2233221232<43733663666369699976666663336733266666366636665536356555663366666606976tpiihcvvcxvvvvvvvxvvvvvvxvvvvvvvvvvvvvvvvvvvvvvvvvvvvvvvvccvcccxzxkkkkckkkkkkkkkjkkkkhkkjkkkkkkllkklkkkhkjkhkhhkahhhppdhkdhhhhdappphhhhhkkhhhhkhkhhhkhphkkkhjhkddpppuyiyusuuusppiiiiiiiiiiiiphppddpppiidippppappddddidididdippdddhkhkhhkkzlklkllzzzzzzzzzzzzccccvcvccccvvccccvcvcvccccvvzvcccccccczkzk",
"ccvvvvvvcvvvvvvvvvvvvxvvxxcczzkkkfkfkaahpu0uuir0656665552<<,,:::::::,:=:==:,::,111==&=========::1<1:11111<221<23336666636666767q8999999969999q9999q66666643673<=42<222,12222=,,222,222131,<2,2,,,<233326255677665559900q999099079q69riyippppdhpahdhhakhdhdpdhkhjkhhkhhkhzkzzlccccvvvcvcvcvcvccccvcccczkfddddpfzchhhkkkiddidiiiiiphkkkkhiwwwwwwip00000009999999990w00099yur00iurriiiuyppiiiiipppippdhhhhhhhkkkcklzkkkkklkkkhkjjkkjhpppppsppppspsiipppiiyiiiuuuuttiuuuurrwrrwryupdupssuptuuuusspiptuuuiiiuiiiidididididddpddddkppiuhvxccczcvvccvvcvcccvccczzzzzccccczzlklkkklkkkklhydakyapssiir00u9964::489980rwrruittuur000000ut0ytiwww0wtwwtq79q79799963477wtwqw000099rszzklzzlzzzlzzklzkklklkhjkhffaaiiiipipipiipiipdpiiiidaiypipdpisiryyyyyryywwrw090wrwww0yyiuiuiiryw000970ew6790990909099999999099997669999631321313211223233366666333606996369999996666669666666666q6636663666666363343466666666666wuyihkkkzccvvvvvxvvvxvvvvvvvvvvvvvxvvvvvvvvvvvvvvvvvvvvvvvvvvckkkkkczzzzkdkjkjhkkklkklkkkkkkklklkjkkkhhkkhhhhkhhhddhdhdaippppiddiddhhhkhkhhhhkhhhdhhhfjkzkklhhhaduyiiiyiyiyippipiiiipipiiypapppaddiididipididsdididididiidppapadhhhkkhkkkzzkkckzzkzzzzzzkkcccxccxczzccczcxxvxcxvcccccccclccvcvxxxzzkc",
"cvvvvvvcvvvvvvvvvvvvvxvvcxcczzkkkkkkkkhhduuusit09556625521>:1::::::::::=*:::::::1:=&=========,::111,:1221<1221233366667q666qq3669999999q6866999q96966963666606<<<2333222122,2,,<<22,21323333332,<<22366552566q9699999976000000996q97riiyipphhhhhhhphhhhdhhdhhhkkhkkhhkhkzzzzccccvcvcvvvcccvcvccccxcczzkkddpphhkzkhhkkhdpdhdiidiiphklkkheiiwuuwupt0000008986999000099085wirtuurrtuuuuippipiiipppiipdahhhhkkkkcklkzkfkkkkkjhkhkkkkkhpipppsispppipiipippiiiiiiuuruisuiiuuuuyqwyyuipuuurtuuuuuuutppiriuirruuisisiiidddiddhadddaddpppuihzczkkccccvccvcccccccczzzxzccccxzzkkkkzlkklklkfyipkidpuuisu0920095>14999000960r0rssiiu0tu0000twwiq0y0wwwyutw0qw9666999wteq767w0usdsdjkkzkzlkkzkkkzzzkkklkkkhjjaffappaaipipipipipspddiiiuupiippiidpisurrwwwrrrwrw000wrtww00wryiiuuyrywwe0099e0w0000ww00009099999990999969996966223231232212132123366665466699966966998663666996666666666636566443334334<433636367966q066qwqikkzzccvvvvvvvxvvvxvvxvvxvvvvvvxvvvvvvvvvvvvvvvvvvvvvvvvvvcckkzczlzkkkkddkdkkkklkkkkkkklkllkhhhkkjkhkhhkkhhhhdddddpddiipiddddsdhhhhhhhhhkhhdhhjhhkklzkkhklhhduyipyypyiiipiippiiiippipippappddddiidiisidddppsididdsidippppdddhphfkkhkkkkczkzxzzzzzzzzzkccccczcczzzcczcccccvczcccccccccllcccccccckk",
"cvvvvvvvvvvvvvvvvvvvxvvvvvcczzkkkkkkkakadiuuddyy9556665221<:::::=::::,:::::::=:::=**===1======1=111:,,121<2122236666666q6366666699899999899999996969966666669662=<222<,22212,22,<,121222322332<,222356663353696699999979000000ww600quiypssphhhhhhhphphdphhhhhhkhhkhhhhkhklkzzcccvccvvcvcvvcvccccccccczkfddpdpfkkhhhkkhppdiiiiiiiphcckhhrpiwwwwyiu0000009598900009980w99yiu0turuiyiiuypppipippsdipahkhhhhkkkkzzzlkkfkkklkkhhkkjkkkkppippppppippiipipiiiiyiituuuruuiutuuurwrwyuuppurrryyyutuuuiiuiruiurwisiiiiiddpidddddddadapppppiuizckdhcccccccvvccccccczzzzzccccczzzlzzlkkzkklkcidpdidisur00r000r944589860w95900ruuuuii0tstu00uuyirwyyuw0www679tw963323q967iippdhkccczkzlkzkkkkzzkklkkzzlljjhjhhhdppppidiiiidiipppddsiiityidipppppiiuuwrw0wwrywre00riitw0900ripiuywrrrw0000000w00w000w9990999990006979966966633321321213121321333666355536669696696666666369666q66666666336566334343443434336666q66666q06q0rphjzzcvcvvvvvvvvvxvvvvvvvvxvxvvvvvvvvvvvvvvvvvvvvvvvvvvvvvczzczzzklddkkdkkkkkklllkkklkklkfkkkkhhjhkkkkhhkhhphdhdpdpiiiiiissdddhhhjhhhhhhhhhhhhhhklckllkkkhkhiuiiiyiiiiiiidpsppiipipppipppaddssiipspidsdispdisddiididpppddddhhhkkkhhccckkzzzkzzzzlzzccckczzzlzzkzzzlzzzzcccczzzccccczzzccccccczkh",
"vvvcvvvvvvvvvvvvvvvxvxvvcccczzlkkkkkkkkhjiyuyppir965525621<<,::::::::::=::,:::::==*&&===1====1=811,,,,211<<21<236366q6677q666663699989999696696q66696666636660662<2=,<2<222,222<,,2122231212222<22336665665667966999999900990qqwqwrwuiipsshhhhkhhdhphphpkkkhhkhkhhhhhkjhkzzczxccccvccvcvvccvvccczzzcczkkddppafkzhhhkkhppddiiiirupkcckhdriywwwwyiiu000000959900090000ww0ysiiuuuisppiyuiiypipppdddddhhhkhhkkjkkzklkkkhkckckkkhkkkkkfpppspiipspiiiiipipiiiiutiuuuuuuwurrrwwyqrytiiprywwwrtuyyrtppiiuurrrrtsiiipdiiiiiiiiiddapppppppdiupkkhhccccccvvvcccccczzzzzzccccczzzkkkklzzlkkhcddiaiapdii0uuiu00958006:260000urruuuury00uut0tuiuiywiwu0wqq979765667989655qzvcccccckkkkkkklzzlzkllzzklzzkkkkhjdhsapppppidppiipipdsidddpssiippidpapiiturywwwrryw0wwisiu0000yryiiiurwwrrr0000000w000009999769990900096979963655222232232222231232336666666366696969699666365666626666666666636363336363636366666766066066009wwriykkkccvvvxxvvvvvvvvxvvvvvvvxxvvvvvvvvvvvvvvvvvvvvvvvvvvccccczzkkkkkkdkjkkkkkkkkkklkkkkllkkdkjkkkhjhhhkhhhhphpdapaiiiiiiipssdhhhhkddddhhkhhjhhkkzcllkkkkhfhpyyyiiipippdppdsipppipipayiippdddidspiidipddddidididdiddppppappddhhhjkkkkkczzzzlzzzzzzkkcclzzzkzzkkkzzklkzkzzzzzzzxcccczzzzcccccckpi",
"cvvvvvvvvvvvvvvvvvvvxvvvvcclzzkzczkzckkkddyyppipiu09655632111::::::::,:::::1::::===**=====*===1=,,=1,,12<,<1112236346766q76q66666969996999969666666666664333600663,:,32<32222322112122223223233322266665655669996969900w7w7700ww9rtriiuppppghjkhhhfppphakkkhhkhhhhhhhhkhkkxkccccvcccvcvcvccccccczkccclkhdddddkkzkddkkdidddddpipihkvckhdiiiwwwwipsu0099999900w0999090w00ysuuuiuuspiiyypiuidsddsddddahkhkhhkkzkczkkkkfkkkzkkkkjjkkkkhpipspuppipiiuipiiiiiiussruiirrrwrwwwwwrryuipprrrwrrytuytsspuiirrrrtiiipiipidiiddsaddhppppapppddiupfzfzzzzxcccvcccccczzxczzxcccczzlkzlkkzzzkkkcppyaihiisdisr000966900<:>4600rtrriurywyrutt0u0utwuw0y0wutw0979q796676667tsgzczvczkkkxxxzkkzkkzzklkkkzlklkkkhhhdadpipppiddidpipispppdddsidsappakkspiuyuurrwryyw0eusdiuw090yriiiiuuutrrywr0r000ww0009999969999090609669996966522<2232312222222232646666633969666696969693636666636666666666336663666666633666969669666q666660wruihhkkccccvxxvvvvvvxvvvvvvvxvvvvvvvvvvvvvvvvvvvvvvvvvvvvcvccczkkkkkjkhkkkjlflkzkkkkkkklkkkhkkhhkhhkhhhkhhhhpphppapiiiiiiipspddhhhapppapffhdhdkhkkclkkklklhhsyiyiiippiiiiddsppiipipppiiipdpdpipppiiidsippdpiddisdispppappadaddhkhhkkkkcckzzlczlzzkklkkccczkzzkkkkklkkzkzkkzzlzcvccxzccccccccckhi",
"cvcczvvcvvvvvvvvvxxvxvvvvvczkzkzklzkcklkjdyypyipdiyq96568211111:::,::::,1:::111,11=****=========,111,,11<<<12123633336666666q66669666699696q96696666966633466699q32=:<33222223222222213333133388223526666566996699999990wqqq0qqwqwrruyipsphhhkhkkhkhhhhkkjkhhkhkhhhhhkkkkkzzccccccvccvcvvccccccckzzcccfhdddddakzkddkkdppdpidpiiihcckhhiiiuwwwwipsu00099899www0969059w00uiuuusiuuiiiiyppiiipdididdddhhkhhkkkkckzlkkkkkklkjkkkjkkkjkhppisppspppiippiiiiiyyrssursirwryruwryrrrypppiuyrrrrytuuyuupipsurrusiiiidiipipuidddppdapppipppidiywpkzzzzzxccccczzcccxzzzzzccccxzzzkzzzzzzkklkzpdppiaisiddi000t066998>52290wrwuiuuyyrr0000000000y00uyu0w095535q9665667ihkkkkjckklkxxzkzllzlzzkzzzzzzkzkzkhdappsdpppyppiipipisdsddssddiidhsdallhaiiuyuurwywww00tidsr0wywwripiiiuuuuirrrr0e000000000999090990009066999996363332222132323132331233336656699936666996q996966669665666666666646666646334346433566696606660600667riiidhkccczxvvvvvvvvvvvxvvvvvxvvvvvvvvvvvvvvvvvvvvvvvvvvvvvvcczzkkkhhkkkhkkkkllkkkklkkklkkhhhhkkhhkkhhkhkhhhhhpapppiiiiipipidddhddahppphahhpdkkkklclllkkkkhhpiiipiipdspddsspppipippaapppadasspppppidipdsdppdiiddiidpppppppppdhhhkkhkklccczzcckkkkkklkckkkkzzkkkkkkkkdkkkkkkzlcccxckzzzkkkkzcxzhh",
"cccccvvcvvvvvvvvvvxxvvvvvvcczzllkckcklckkduiyippppiur66652<2111111,,,:::::::11::====*====**==::1::11=112<,<2112366666666366666666666669666666666967663633638666q863==<3<222223233122312322223333223566665659999999w90909w0w7qqw067wquiippphhkhjkhhhpphkkkkhhhhhhhhhhkkhjkkkkkcccccccccccvcccckccczccckkadddddkkzkdkkkadpppppiiiikzkhappiyyewwwipdir000989w0w00090999000iittutuuuuiyyipppiddiidddhddhhkkhkkkcczzklkfkkkkkkhhkkkkkkjhapipppppspipupiiiyiiirssursuryrryyrwyrqyusppiruurrrryruuuupiiitrtiiiipipiiiiiyuddppppappippppsds00wackzfzxccccxzzzczzzzzzzccczzzzkzzzklklklklcdkdhpaypiuissiiu0998226099900w0urr0ywww00000000w0yw0ywt2000qww96256wyphhkppcckkkzzzkkkkkkkkkzzkkllkkkkkzkkhhpppipppppppididsddsddppddddipddalkkpppiiuyuwwrww0wwssirwyuuuuiiaiaiuyuuirrrrwr0we0w00909w09w9w90080669779698q33632221313122223122336535635693666669666969969666966666666686636666663364333643336666q066666600669wqeiihzccczvvvvvvvvvvvvvvvxvvvvvvvvvvvvvvvvvvvvvvvvvvvvvvvvcczkkkkkkkkhhkkjkkkkzkfzklkllkkkhkhhjhhhkkkhkhhhphhhhpppiiiiiippiddpddappipppppfhhhhkkzclkkkkkkkddsiippppipiipasisippppsaadppadpdsppsiiiidpspdpdididdidiapppappppphhkjkkfkckccczzzkzkkkkkkklkkzzkkkhklkkdkdkkkddkkzccckhkkhphhhhzzzkh",
"ccccccczcvvvvvvvvvvvvxvvvvczkzzzkkckckkkkpyyiiipypddt95221<11::,11,,:,::1:::::::===&====***=:::1,:=11111<,<12123666666666666666666666966699669q69666666366666006qqq,;<<312222=2333332333323383833336666655599995w99w000000qq70772990upiiipphhkkkhhhhphkjkjhhkhhhfhkhhkjkkcklkccccccccvvcvccccccccccxckapdddidhkzkddkkkppddppppppkkkhhhpuiyiriyipsiute000w00000090959090uiu0iuutuiyiyipiiiipsdisddddahjhhjjkllkklkkkkkkkkjhkkkkkkkkkdipppppppppppiiiiyiuiriuruutwrrrrrrrrrqrtuppiurruyrrwrrytuiupiuiitiiiipipdiiiyiddaapppaippappsdds09uckkzzcccccczzzczzzzzzzccczzzzlzzzzkkkzkkzckvkkdhpyyidhki0u0095>2096669900rrr0w0000008980070ww0w0r5wudghhdiiipphhkiakkzkhzkzzzzzcczlzzklzkkzzklzzlzlkhhdppipipppppiiiiiddddppiidsiadppakkapipspuwwwyww0wusdiwwtuuuiipiiiiiutuurrrrerwwww000006090w00w00000909996663366333331222328232313236564366636666q696666966699666666666666q666667606465364633366666666666q0666970qq0iijcccccxxxvvvvvvvxvvvvvvxvvvvvvvvvvvvvvvvvvvvvvvvvvvvccczkkkllzkhkjkkkkkkkzlkzfkkkkkkkhhhkkhkhkjhhhhkhhfhhpppppipiidipdpppdpdpapiiiipppshhdkkkzkkkkkllhddsippdiidipisaspsppipdsddsipapydpppsppidipddidpdidiididdppppppppddhkhhkkklccczzzzlklklkkkkkkkkzkkakfkkfdkkkddadphkzkkhhpdpppippphkhp",
"gcczzzkjkcvvvvvvvvcvvcvccccccccccccczzlklfyyiipppddii074<>>12<:11111:11:::=::1::::;;;*==;**=::,,=:,,,<<1122,,<22733666346663666696699669669366696666666433236q006www6<,:2232222=22,123212566653633326662266969qq9q000000wwwqwwww<6wwrisiisghhhkhddhhhklckkhhhhjkhhhhkhhkhjklcccccvzvcvcvcczzcccczzzlzzkkdippphjkkkkkkkhdddppppppkkkpddiiyiwwiippssiu0000r00trrr0089909wyiuuuuuuuuuyyipypppippiiippadhhhkhkkzzkklkkdkhkjkkhkkkkkhhkhhddidpsppppiisusiutuurrruyrrrwrwwwywwrrruuppirrryrwrwrrurupiiiiiiidiipiipisiddddisdsdppppppppdhsu00idzkkkkkkkcczzzzzxcczzzzxczzkzxzlkfzkffklzkkklkkkksrusiddi898<20086660090rr090099t00080usrwuw0wt07uiphhpippppfhhphhphkllzzlzzzfzzzkzzlkzzlzzzzzzzzkhdpppppappipippisippssdiddidddsdiiddadiyiipiuwwwww90pdpwwwspyyppiiiaiiiuuuuuutrwwrewre000we0000000000008999996663663622212233312235366646666666666666996696999966666636666666666666636336433433633556666998986966900000hkcccccxcccxvvvvvvvvvvvvxvvvvvvvvvvvvvvvvvvvvvvvvvvvvvczkkkkkckkkkkzklkkzzlzzzkzkjkkkkkdhkjkhkhhkhkkhkkkhhhhhpphpipididdipdppppiipisppddhhhhhzcczzkkkkkkdhdaippispppiddidipiipppiiippiippspiipsdppppapdpiidiiisipdddappipppahhkkhjkkzklzzkkkkkkhhhkkhkjkkkfhhhhkkkdjpkhkhkkkkhkhfhhphdapphppf",
"hczzkkhkzcvvvvvvvvvvvvvcccccccccccclzzcclfpipiapppddpu075>>11<:111:::111::::1:::::;**==*:**:=;:::,:,,<12122<,223636666366663666666666366996999666q66663332266990776976<=1231222<2222223222555355665556665666966q9007000000wq90wq39wwwtspsipdddhhhdhhkkzckhhhhkhkhkhkhhkhkhkcvccxzzcczczccczccccczzzzczkadpppidkkkjjkkhhddpppppapkhkphddurriwwiipisi0r0t00rre0000099900yiiuiuuiuuuuiyyypppippapipppdhhhhhkkkkzzkczkkpdkkkjhhhkkkkkjkhsidispissupiusuususurruuyrywwwwywwrwryutipiuqrrwrrrrrtuutupidiipidiiipipiidiidddddppdddhaapphdsu00tskkkkzzzzkkkzzzzzczzzzzzxzkklzzklzkzkkkzxkckkkzkkzdhsuurrw6490990999ww99w0990098000009008qwq9qw07yyihhphhhppphphphphkzzlkzzzlzzkzklkzzkzkkkzzzzzkkjdaddpapipippdippppdsdppsididdddpdidsiyiiipuuwrwwwwypdiuwyisyyiiiiipiiiiuuuuurrrwrrweww0eww000009000000999969666636522522222232<<<<366633666666666666669939669966666666666666666666666663366334344336676699969990600wrshhhcccccccccvvvvxvvvxvvvvxvvvvvvvvvvvvvvvvvvvvvvvvvvvvcckkkzckckkkkkkzkzkzzkkzlzkjzkkkdkhhhkhhhhjhhhhhhhphphhhppipipisddpppdppiisipppddhhhhhjzckzzkklkkkdhdpiisssdpisddsdidiipisipspspdddppipippapppapdpddiidppipdddhpppppppphhhhkkzlklzczlkfkkfhkhhkhhkhhhhhhhkdddkhkpppkkhhfhkhhhhpdppppppp",
"dzcjkddkccvvvvvvvvvcvvvccccccccccczzzzcckkipppapddddpiyu52>211:1111::::1:::1::1::;;***=****;:**:::=,,,,2<212223343633443666q666666666663366666660666665324<36999q766906<=211=22=2,<2222155253565666256762696696q0999000w000099w96qq9qryisisiddfhhhhkjklcjhhhkhhhhhhhkhjhhkzzvcccxccccccccccccccczzzzzzkkdippihkkjkkkkkhhpappppphhhhpdddirriwwihidsiu0u00t00000000999wytsssuuu0rruyypiipippppppiappdkkhhhhkkckkclkhhkkkkjkjjkkkkkkkjddiddppppppiiuturruuurrururrrqrrrwywryuytuiiiyyrrwyrywruruipidiiiidiipiiiipididddsdiddddappppdpurrr0ihkkkkkkkffkkkzzxzzzzzzzzzzkkzzlkzzzzkzzzczkkkllkzckdiuys09660009090rw990uutit00r000000006qw6qw07wuihfhhhphphphphhpfkzzzlkzzkkzzkzzlzlkzkkklklkkkkdaaappippppipidppippdspdsdisiidipiiiiuipiiuw0ruw0wuddiyuuuspiipiiiiiiiiiutuuuuywwwuwwweww00000000000000q09866996666555222211222<2<3356636666660666q69966969999996669666666666666696666666643446633556666696666966077wpdhhfkcccxccxvvvvvvvvxvvvxvvxvvxvvvvvvvvvvvvvvvvvvvccxvvvkfkkzckckkkkkkkzkklkzzkzzkkjkkkddhhhhhhhkhkhhhhhhhhhhpppdpippidddppppppipppppdddhhhhhkcczkzkllzkkkhhppispsspiddpsddiipipdppppsaspppppippippppppppididididssddhpdppppapkpkkkkzkkkzzzkkkhkahhhfhkhhhhhhhphpdddkkppphhkhhhhhhhdhppppppppp",
"ikcjkddkccvvvvvvvvcvcvvccvvcccccczzczzkkkhyppippddisdpdir9511>1:1::::=:::::::1::*:,::*==:;*::::::=:=,,<2<<<<121226334333666766669666696966666666666666632<336699q9360q96===,11122,2<233265225652<525555<23666966799900000000007w6q799qiyisisisppshhkkkzkhkhhhahhkhkhhhkhkjzzcxcxzzzzzzzzcccccccczzzlzzkpdpppphkkdhjkkkhpppiipppphhhpdgiuirrtrihpiiduu0rrr0r0r0r0090900riuuuurtuuuuyyyiyppppppapapddhhhhhkkzkckklkkkhhkkkhhhkkklkzkhhdiidupppiiiiuiuuryuwrrururrryrywrrywruuuiiiirrrwryrrwurryiiiidipdidipiiiipidsiddddddppdpppppdiuuuuurshkkkkhkkkkkzzzzzzccczzzzzkzzzkkzkzzzzzzcckkkkzzfckdks0069925005090009660r000000009r00uu7q07wuwwuidhhhpdppphhphphphkzzzkzkkzlkzzkzkkkzzllkkllkhkhpappppspiipsidisippsddpiippddsdpidiiuiipyywwwwrwwyssurwuuudpiipaiiiipiituuuuurrrrwwrwww0000900000600000qq996669936665252222322122355567666706660q6696696996q36669936666666366669666696633666633434333666669969967wyupppppphcvcxccxvvvvvvvvvvvvvvvvvvvvvvvvvvvvvvvvvvvvvvcccvvcckzkccxcckkkzlkkkzzkzzkzlkkkkkkkdhhkhkkhhkhkkjkhhhfhhhfddddppddddppphappppipddahkhghkkcczlzkzlklkhkdpipdpaippiddpddiiiipdpppdssiippisdspsppppphapidppsdddiddddhhdpppdhhhkjkkklklxzkkkhkakhkhhkhhkkhhhhpfpddddhapphhhhhhhadddddappfhppp",
"ikcjhhdkzcvvvvvvvvvccvvvcccccccckcccczkzkhuppiapdspiddddsw51<>111:1::=:1:::::1:::,88:*==:;*:::::::*:,<213111211,24622433366q666636666696666966666q6666642223669666359qw92======1<,<2222255225554<569995<55569996996900000q7q000939769riisstipppfsdhhjklkjhhhhhhhhhhhhjhkhjkccccczzzzczzzcccccccczzkzckfhdiddpakhkdkhkkhpppppiphhhhhphhiiriiwiihiipiii0yrrr0trr0tww000rtituurruuiuuuupippappaappppdhhkhhdjkkcckclckkhkkkkjhkhjkkkjkjhdsddpppppiiuusiuuiturrirrrrryrrrqywrrruisiuuyrrrrrrrwyrryuppiiiidipsiiippipisdsddddippddddppiiurtriiuphkkdhhlzzzzczzzzcccczczzkkzzlkzzzzxzzzzxkkkkkzzczhzh05028092500099000000089000000000000q00wiiiiihdahhpdpphpphphphkzzzlzzlzzzkzzkzzzkklklkllkhhhaspaiiadiiddppippippddpippspdsdidiiiiipsuwrrww0ryidurwruyypppiiiiiiiiiiuuuttuurrwww0eww0000000006000000w096666666666522222223322223666966660696q606q66699997q6q66666636666q6666696666666666363634334334669966990wrudhdpiuihzczzccxcvvvvvxvvvxvvvvvvvvvvvvvvvvvvvvvvvvvvzzzzlllkkkzzccckkkkkkklkkzkzzkzkjkkkkdddhhkhhkhhhfkkhkhhhhhhhhhhddhphphhfhhpapappppphhkkjhkhkzczkkzzcczzkhhdipppdipisadsdsiiiisssappasspdiipdsdihpppdddddsdiddsiipddddddadpkpphphhkzkllzkllkffhfhhhhhhhhhhhhppppdpaipppphhhhphhpddddhpadhfppp",
"dkchhhdkkccvvvvvvvvvvvvcvvcvccccczlkkkzzkhypaphpsdisddddsw51<,:11:111=:1::1::::1,8081**=***::::::=::,2222121132,276224343666666q966336696663666666666633232366666666699783,====2,<2<<23222<5224<77yuii0755366999996900q007q9099635969wiiiiiiiippdsdhkkkkhhhhhjhhkhhkhkkhhkkccxcxccccccccvxcccccczzzkkkfhssddphkhdhhkkhhpappppaphhhhpshiiiiwurihddiipiu0rt0u0r000wwr00yiiurrrruuiuuuiypppdpppppppdhhkhkhhhkkkklkczkkjhkkhjjkjkczkkkkkddidipiiiiiiustuuusuryyruryrqrrrryrrrruisppuyyruururrrryuuppdddiidpidipiispdiddddssdpddddappyrtr0riirshkkkkklzzzxzzzzzcccczlzzklzzlkzfkzzzzkzkkkkkklccfkzky6000098000090000rirw00ww0900urr006006wiisuipddhpppapdfhphhphkzzzklkkkkzlkkllklklklllkkkfhpaipiaiiipsipipsipispsdsppsddidiiddipppstrewuwwwyisiuwutuiyipiypayyiiiiiuuuuuurywrwwrwwww00e0009000000000096669999965652322222332223336669066q660666069693396966666636566666666666q666663663344643243333369696990070riyrdhhfzccxccccvvvvvvvvvvvvxvvvvxvvvvvvvvvvvvvvvvvvcckzkkkkkllkkcklkkzkklkkkzzkkzkzjkzkkkkdkkhkkhhhhhhhkfhhhhhhkhhhhhhhhhhhhhphphppspppddhhhhkdkkcklkkzzzkkkkhdpippdssissdididisdppassahhhaddpdddspphaphhddididididdiiddkhdddhdpkhphkkzlzkzzzkfkhhhhhhhhdaaddddhfpppppiippkhhhhhhpppahdddddppppp",
"dkkhhhdkkzcvvvvvvvccvvvvvvcccvcvcclkzkklkhyppiapiipdddiyt0111<<11::111:::::::::1:188:**=;**;**=:=:::222,221133323993<4336696667qwq9666363996q666636636342223666633566990e63<,=12<<,22<2322552223uiipppiy956669999790qrq00797q996,3666quiruiiiappddddhhhaahdhkkhhhhkhhhkkhkkcvvccczcvccccvccccczkklkkkkhpdipdphkhdkkkkhhpippppddhhhhpdhiutiwwrdsiaiipiir0u0r000000yw0wuisuutr0ruuuuuiyppppippppapdhhhdhkhjkzkkkklzkkkkkjjkjhhkzzzkkkhhdppppipiiiyiiuuruuuruuuurrryyurryryrryusiuuuutturrrrrrwuupppiiddddidipidiissidddisidadadppprrrrryiaiphhkhkhkkzzxzzzzzcxccckzllkzzlkzzkkzzzzzzkzzzzkkhkhhjhi900880t80000rruwtw00000690000trr6w09tittyippphdpdpddhphpkphkzzklkklkkzzkkzzkkkklklklkhkhpiaiaiiidiididppppipsdspisiddddidiippiyyurwrwwwuppiwwurruuipipppiiiiiiiyuurutuurrwr0wwww0wwww000999000099966366996696522221222332<22666696666q66669q669999996666666666666666666666666666536436333233433466699669666667wwkkkzzccxcccvvvvvvvvvvvvvvvvvvvvvvvvvvvvvvvvvvvvvccckkkkklkkklkkkkkllkkkkzzzzzlzkjkkcdhhhhhhhhdhdphhhhhhhphhhkhkkhhhhphhhphpappppspdpdddhhjhkkcczlkkkzzkzkkkddsdipdidssadsdddspsphskhkhafddsidddidpdadhdddididiipdiiiddkdhhpdpdpkdhkkzkkzzzkkhkfhddhhhdpppppdppppppipapaphhhdhhhpppppphhpppppp",
"dhjhhhdhkkcvvvvvvvvcccvvvcvvccccckzckclkkayiiipaddidsiu002<:11::1::12:==::1:::::*::=**=*;**;;**=:*::222,222233336q76437366669qwwrrwq999696696696663663432222666633567096q66q922=<,22,2253552229quiiyyipiq96566699690rrw7qqq7wq97,3997uiyrrtiipipddpppaadhdahhkhhhhhhhkhhjkkccccccvcccvccvcccccckzxkkkkddiiiiidhdpdpkkjhpppapaahdphhpdhpitiwtiihphiiisiu0tu0trrru00000ysiuu0uuuuuuuuupypppyipppahkhdhdhhhkkkcckcczjkjkkkhkhkkzzzkhkkkddppipppiiiytusuitiurwuuyrrwyyrrrrrrqrrtispuspuuurrrrruwuspdsdiipsiiddididdddddsddddpppppiuyy000ryppspdhjkhdhhkzzzzzzccccccczkkzzzkkzzzzzxxzzzzzzzkzjkcfidzkr959090099900twwwtw00r0>0i0880rr6q00tiwwuidppdaphppaphahfppkzzzlzzllzlkzzklzzzklkkklkhhaaiiiaiiiiddididipsippddppppsdpsdddiisiyywewww0isppr00sswuiyppppiiiiiyaiyiuuuuuryrrrwwewwe0www006906006009696666699666654<21<2233323366699666066366666q699939q6966q666666666666666666666364364343344334436669669060q007rrkcczzzzcccccvvvvvvxvvvxvvxxvvvvvvvvvvvvvvvvvvvvvxccckkkkzzkzkkkkfkkkklklzkkzzkzzhjkjkkddhkhhhdddiphhhhhhphhhhkhkhhhhfhhhpppppppppssppdddkjkkkcckzkakkzzzhkkdpppppidiasdspiiddpppdakhsaaaddiisdddppppddddidiiidippiiddkddhpadfdhpphhzzzkzzzkkkffdpdahhpppppppppipippppapkhhhhhhhpppppapphahfpp",
"hhkkddhkkcvvvvvvvvvvvvvvvvxvvvxxccccczzkkhiyyppiddpadi02221,,,,21::1:::::::::::::::*****&:,11,===::1122634<33600rw7635363932yu7rwiw6wqt56769q666666655522226666523366969666336<&,,21222231332,5uiiuuuuiut62599669900wwwqwq996769<769qrwyruippiyissdpyypkhhhhkhhkkhdhkhkddkzcccxvvvcccccccvvcvvcclkcckhadiipdpphaphkhhhapppphhppppkhhhhpipiuiiphihipidpiir0r0r000t000tusuuuuuiuuyuuuuyypppiippaddhhhhhhhjkkklcklklkkkklkkhkhkkkkkjkkzkdpsipppiypruiiriuuurruuirrrrrrrrryqyyyiaiiituuuuuuuuusuutuiiipppiiippppiddddaphdapahdsppiww0rryyiahhrihdhdyppkkkkzzzzzlcckkkkklkkkzkkkzzzzlzzzzzzklzklzkkkfhi9000895w0w9rrr00uurr0ru82,,rs90iw9tiypdpkiyaiyppppahpaiphkzzkllzzlzlkzklkkzzzzklkkhdppppiiiaiiiiiddididddisppppipdddddssiiirrwwrw00idpuuuuuuuwyipppppiipiiiiiyittururuwww0wwwwww0www00999906696669669636666663<4223334436666696qq7q7q7q6966969966666966q966666662266966666666655555336554<2226666669999q936rddccccccxckcccccvvvvvvvvvvvvvvvvvvvvvvvvvvvvvvvvvvvccvvkhfczkkkkkjhjkkkjkjlkkklkkckkkkkkddhhhddppiaphhhhhhhhhhkkjkhkkkkfhpppfpppppppppdhhhdhkkkzzkzfkfzzzzzkkkhddspappipppapphhdpdhdddhhkdaipppaapppphphphdisdidpiiiippkdhhddkhhdddhhhjzzzlklkhhhhphhhphphiipiiiyyiyipddsdahphdapaapppadppjhhzc",
"dhjhdhhkkccvvvvvvvvcvvvxvxxvvvvxvcccczkkkpiiypapddppdy02221<<,1231112:::::1,11:::=:=:::*11898211=::123696663990wrww622533736ruruwtw7w0w76666696q6635552522225655<233666667q433<*=,1,122132112,6tuyiyiiyyi73566699900ww9999997wqw3699qwwrrriiiipiruiuyyiphhhhhhkhhkhkhkkkkkzcccxcccvcvcvccccvcvvcckkckhppiidiphhhphkhhhhppppdappaphhhhhpiiiiyippdihsdiiiirrrrrru000r0riiiutuuuiyryuuiiyiipiyippddhhhhhhhkkkkkkckckllkkfkkhkjkkjkkkkkzkppspssipiyiurryrrurrrryrirrrruuyyyrryyiyiaiuuyttuuuytuiisusiiiiippippipdpdspppppapppppsdiywrrryuidhdiissddippfzkzzzzzzzlzkklkkkzzzklkzzzzzklkfzzzzklzzzkhdkhd0000690w900y08r00uurr0098889080w66tsdkdpaiyppypppfhphdphfkkzzkkkkkkzzkkklzzzzzklkkhdpppsiiiiiiidpiipidsiippiiiiiipdipdiiurryrrtuwwudpiuwwwuiiiiiiipiiiiiiiiiyaiiuuuuwwwwwwewwwwew0ew0099090989969996666666666622224363666667796666666q698998999896679q96666666666666666666666363636565652225266699997999wwrdjjccccccccccccvcxvvvvxvvvxvvvvvvvvvvvvvvvvvvvvvvvvvcccckahkddjjjkkkhkjkkzkkcckzkckkkjkjhhdhdhdpappdpphhhhhhhhkkhkjhkkjhhhdpphppphhppdpdhhhhkhkjzczzzkkkzzzzzkfhddsppppppdpdpphhppdhadhkkkdppiiippppppafhkpidpidisipippppdkhdkkhhddddhhkzzzzzzkkhhahhhhphhpppppiiiyiiipsidddphpdpppdahphhadcjccv",
"hhkhhhjcccvvvvvvvvcvvvvvvxvvvvvlcccczzkkkaiiippaddpddpy02<,<122882223111:::,:1::==:=::;;99ww0099:::28369966900qqrwq63239366wiuyiwiiwi9iw696666666666625222266255<22255666q7336<:=:<22<1112,2326tiiyiuiiyr93336699000www999999www6906wwwuwruippipirrupppihhhhhkkhhhhhkjjddkzcccccvcccvcvcccccvvccclklkhphdiidphdhdhkhhhhpaddddppphhkhkhhipiuipppdispiidpiiuuurr00r00trisiuuuuiiuuiyyiiiiiiiiidddsphhhhhhkkkklkclclzlkkkkkkhkhhjkjkkkkkdisppppiiyyrrryrrrrrrrruirrryururyrwyypppaituuytyyyyrtutsssiiipipippippdspdpppadpppppihpitw0ryyuiddsgirsdddphkzzlcllzzzzzlkklklzkzzkllkzzlkkzzkkkzzkkzxkkkfka009055ww9w0i85uruur00905909900w069sdakkpkiyppppppppaddphkkzzxkklzzkzzkkkzzzkzzlkkhdpspppiiaiiiiiidpppiipiipipiipipipipiirwryiyaywussuruuruipiiiiiiiiiiiipiiiiiiuuuuuywwrrw0wwew000w0000900800666996966666666332222366663666669666q66q66669699699966q6q6q6666666666666666666666635666662552426566q99999797wskczcccccccccvvcvvvvxvvvxvvvvvvvvvvvvvvvvvvvvvvvvvvvvvzckkdhhjkkkzkkhkhjkkkjzklzkczzkzjkhhdpapdppddphadhhhaphhhhhhkhkhkhkhhphppphppadpsdhhhhhjhkkczzzzzfzzkzkzzkhhdhpppyiaddppphhhddhhhdhkkdppiiippppppphpppdisdididipipppkphhhfhdddddhhjlzzzzlkllhhhhhhfhppppipiiiiiiiiidpdpddhdpppdhhhddddvvcvv",
"hhkhhhjzccvvvvvvxcccvvvvvvvxvvvlcccczkkkkaypppppsdpdhddy21<12229652211:1,1111:::==:::*::000www00:122380q0966900wrwq73397667tiiuitiiyi7it66666666666655252222655<<<22333646q63662=,,22,,212,,2,3riiyyyyipe9236969900qww969999wqw96q067qwyrrruipiyiuiihfpphhhhhhhhhkhhhkkhdkzccccxcccvccccccvccccvcccclhddidippdhhpkkhhhhphdddappphfhhhfaiiiiippppdiihdippusiur0rrwt00tisiiuuuiipuiiyyiipipiipsdiiphhhhhhflkkkckkkzkkkkkkkhkhkkkkklkkzkpippiipyuyurrrrrrrrywwyrrrrrrruuryqruiypiiiuyytytrwwyuuuiuuiiippipippppdidsppppppppppdshiiuriryuiaasdiydkppkkpkzzczzzzzzzzzkkzkzzzzkkllzzzkzzkzzzkzfkzzzkdpap9080480w00800yiurr000800900riiq099udaphphpikappphphpdhhhhccccxzzkzklzzlklkzlklkkhadpiiiiiiiiiiidiiipipiiipipipippipiiiiiyuyiipdywustrwuuuuiiipiipiippiiiiiiiiyiuuuuuywewrwwew0w0099w000e00006669689866663666642232466666436697666q666696696666969996q99666666666262666666666666666365655225526369699699w9wuhjzcccccccccvcvvvvvvvvvvvvvvxvvvvvvvvvvvvvvvvvvvvvvvcccckkkckkkkkkkhhhkhkkkkckcckkzzkjhhhappppapppahdhdpdddhhhkhkhkhkhhhhhdpphphappspsddhhdhhhjkcckzzzzzzkfkkzhhjhhppppppaphddhhadhhhhhkkkhaaiiippapapaphphidiididipppppppahhhhhhddssdhhlzzzzklllfahhhhhhhpppppppiipppiiippppdddaapdppdppddvcvcv",
"kkkhhkkcccvvvvvvxcxxvvvvvvxvvvvxccccckkjkppapippsiddkddp32122288552<11::,<<<<:::===::;:1000w00001<28960q0969600qrwr9936763qiiuuiiiiyi7ii996666666666525232326225<<<4<35666777666::,12,,222,2<<<6yiuyiiui73259966070qww09q97qwrew609609wrrrruiiiutriiphpphhhdhhkhkhhkjkdkkkkccccvcvvccccvccccccccvccclhdddididdadhkhkhhhhhdddppphhhhhhhhpiiiiihhhdidididiidduuyyywwwwussiiuiiipippyyipiiippiiddiiphhahhhhkkklklkckckkkkkkhhkhkhjkkkkkhhppiiiyyiyyuuuurrrrwwrrururrrrrrrryrrtupiiiuuuuytyryttiuuuiiyiipipiipdsdiddppppppppphppiiwwrrryiippshiydhiikhhkkkzxzzzzzkzkkkkzzzxzlkkzzzzlkzkzzkkzxzlkkpy9pp0080609090500siu000000uu9<900990069ipipipiiappphphhpkphhkkccckkzzlkzlkzkzzzzklfffssiiiiiiiiiiiipiidipiippiippipipppipiiiypippidyyiiuwiyiyyiiiiiipdpipipipiiiyaitiiitrwwwtw0we0099900w0e00086066666666666666666<333669636466600q7q66666666696698699869696666666666263666666666666665666325226556699997070wriphccccccxcccvvvvvvxvvxvvvxvxvvvvvvvvvvvvvvvvvvvvvvvvvvczczzckckkjhkkkhjkhkkclkclzklkkkhhhhddddddddphaphhphphhhfhkhkkhhhdhddfphphpppppddhhhhdhhkzzzkzkzzzzzkkklkjhhhpppppppppadhhhhhhkhhhjhkhppppippppppphppididdidipippppapdhhkddddddddhkkzzkkklzkahpfphppppddsipisdpiiiipphppdpppppdddppadcvvvv",
"khkkhjccccvvvvvvvxxvvvvvvvvvvvxvvvvccckzkpppppppsdphappi3222332255242211<<,<<<:,===::;,20w00r0rr282866990q990wwqrwwq936666wityyiyyuyi7iyq9996976663665252223555<22<<556667q666633,,11222331,2<,27yupdiww33356996090wwww9967wwrww60970w7wrwrruuruiisiippfhdphhhhhhhhhkdkddkcccccccccccvcvcccccvccxccckhppdiiipdphhhhkhhdhhapdpppfhkhhdhhpiiiighiidpsdiddiipduyuyywrt0ysssiiuipppuiiiyiipiiiiiiddipphhhhkhkkkkzzckcklkkkkfhkhkhkkkkkkzkdpppiiiiyyyuuurryriuwwyuuutrrryuyrqryuiiiiiuuytuyrryuuutuuiyiiiipiiipiddddspppaappppppiyiwyrryyipppdsiuddpikhhpphkxczzzkzzzklklzzcckkzzzzzkzzlzkzzzxkhlzkp0ap000w8y906w0y00uur00r0r90<:8r0<0qq62ukapypiipiaphpfphphdhhcccllklkzzkzkklzzzzkkaaassiiiiiiyiiiypipipiiiiiippspsppppppiiiiipppiiuyywwwwiyyiiippadppippipiiiiiiiiituuuturwrrwwwww09900w0e00096060q66666666636666323636667633360606676967q6q6666966698996699966666966626666669696666666535355552656669990qwrihhkkcccccccccxccvvvvvvvvvvvvvvvvvvvvvvvvvvvvvvvvvvvvvvvvczczkhjhkjkjkkhkhhkkhkkckklkkkkkdhkhphhhdddddhphpphphhphhkhkkhhhhdahhphhfhhhpdpdhhhhdhhhhkzzkzzzzzzzkkzzkkkjhaappppyahpdhhhhkkkkhhkjkhppippppppahfpppdidiidippppippppdhhdkdkdddddhklzlklkkzkhpfhhphpphpdidiidipdipipipahpapppadddddhhcvvvv",
"kkkhjkcccccvvvvvvvxvvvvvvvvvvvvvvccvcczzkpppapphddhhfkpp321232225885552>,<12<22<1=::::2900000rr02223660q0q9q0wrqwrrq793366wiyypyyiiyp7iiq96666qq66563222323365552<<<<35676667q363,=,222332<<2<,267wwuwq755253696900wwww0977qrrre37960w9wqrurrritiiiiippphphhhkhhkhhhkkdkdjzcccxcvcvvccvcczccccccvcccchpdiiddppdphhhkhhahappppppdhhhhhfpiiiiidhsidsspddiiidpyuiiywt0wyippiipipipiyyiyyypppiiiiisihhhhhhkkkkklkcklkckkkkkkkhhjhkhkkhkkkdpdpspyyyryuuuurirrrwwrruuuyuytuyyyuuippipypuuutuyrytuiuuisyiiipipppipisdddpppppppppppiywwwruruipppgiidiuppdkkfpakkcczzzzlzkklzzxzckklzzzlkzkzzzzzkkkkzxzkhhd0w900y009w0r0t0urrut0059<>9099u00060hkpifhpppppphphhdhhhhlcckkzlkzlkzzzzzzkkkkddssiiiiiiiiiiiaiiipiiiiiipipipppippiiipspipipyy0w00wyyyiiyyiipppippippiipiiiiiiiuuuuurwwwweeww00000we00008966066666666666366633338669693366676067q666666qq66989799969866996696666666666666666666666555535532656666690wruudkxllcccxcccccccvvvvvvvvvvvvvvvvxvvvvvvvvvvvvvvvvvvvvvvvczzzzhhhhhkkhkhkhkkhkhkkkckkkkdjkdhkkhhhhhdhhdppahpphhphhhhhhhhhhdphhhpphhpappssdphhhhddhhkkkkzzzzzxzzzzkkkkjkkdapppidaddhkhhkkkkhhkhkhappppiippppfpppiddidiispiiippppdadhdkdkdhdhhkkzkkzlklkkhphphpppihidiidiippippppppppppaippadpdhkvvvvc",
"kkjhjccccccvvvvvvvvvvvvvvvvvvvvxcvcccczjkpiphpahddhkzkkh322392215885882:<<12222211:,:,2000000w00,<23690q9999wwqrrrrrq96366yuyyayiyyip7pi999669366666655232266555<<<><556766q76q7q,=,1222222<32<2<<<352226552399909wqrrqwq9weriww3996007wqwrrruiisirwyiiihphphhhhhkhhjkkdkjzcccccccccvccczzccvvccvxcckhdddddiddhhhhhkhddhdpppppphdhhhkfpyiiiidhhiddddsidiipiuudpywwwwyupiiiyiupuuypiiyipppiiiiddphhhhhhhjkkklzkckcklkkkkkhhhkkkjkkkkjkdppppppypiyrtuuryrrrrrrriuiuuuttuutuuspppppstuuuuuyrytiitisiyiipiippppdppsdhppahpphppiywwuiuuuuidhpsripyyhkpdkkaphzcczzzkzzklkkzzccklzzzzzkzlkkzkzklzzlkhhkfhww908w900w880iutuiu0080u98098uu53q66ykfpkkpappfpppkphhhhkkckckkzkzkzlkzzzzzlklddsiiuiiyyyiiiiyidpiiiiiiyyiiipiiiiipiiidipyipap0wwwyiiydipyaaiippiiiiiiiiiiiiiiutuuurywww00wuwww000w0098098968996663666666367633386669666666666q6qq6q6q6697996999999966696666666666626666669666665353525525626286990qrudppkcccccccccccccxcvvvvvvxvvvxvvvvvxvvvvvvvvvvvvvvvvvvvvvvvczzzhkhkhhkkkkkkkhkhkfkkklkkjdkhddkkhdadddddhphppphphhphdhdhphhddpdhhaphhhhhpppddjkddphdhhkkkzzkzzcczzzxzkkjjkkahhppphdhhhhhkkkkhjdkkhhapapdippphpppppsididdiipipppddppdhkdkdhhdhhzzkzzzzzkzlphhhhppdhisiidihiisdppiiphpaapppipdppdhkcvvvv",
"kkckkkcvcccvvvvvvvvvvvvvvvvvvvvvvvvvcccckppdkhhhpdhkjhhh0889899<<<6894<2,>880<5818==;<000u00009:22<38999q8660wqwyruuy76450uuuiyyiyiyiiii9q999666666652225255555232,,12223336667688&=<<23<22222222<,<222381882866666wwrw7www7yw0w379960qqqerrwwustiuiipphphphhfhhhhhhhkhkdkkzzzcvccxcccxxzzzzzzzzcccckdddppppdsddkkkkkdhhpppppphhddhhhapiiiiphsihiidsdsiiiiiiiiyw00ywuddpitwuiuuiiiyiiiiiiiupppidddhahhkkdhkzkczkkkkzjkjkhkkhkhhkhkkkkkhpddiyiyipiuuuruuruuuruuuupuiiiiyiyppppppiyyyyiyuuuuiiiyppyiiiippisssspshppaddhpapshsuwyiuiyriiddpdsdiuuiyphhhhdhhjkckkczkkkkzlzxvkkkzcczzzzzzzlzlckzccckkzsr0wwwt000000wrrtu000009uu5<quq8,3:2q5gpipipfihpadddhpfddkzzzzlzzxzllkkzzzzzzkhdiipdiiitiiiritiyiypiiipypipipiiypipippiiiiiisiu0yywryyidiiiissiiiiiisipiiaiiiiiuurrrwrr0000wwwwww000000006990989q6666669q66666666669666363666666666q6669666696967669966966666669669666696666356666665222<<696296693sshpddhkczcckccccvccccccvxvvvvvvvvvvvvvvvvvvvvvvvvvvvvvvvvvvkccccckjkkkhhkkphkkkhkhhhhhhhhhhdhhhkkkkkhadddpphddppphhshhhhhhhhhhphfhhpphhdahhpadhhhddhhhsdhjkxczkzzczzkkzkzkkkkkdhhhhkhkkkhkhjjkkkkkjkhddddiippppppappppiididpiidiiddpdakhkdkhhhkhjhhkzzzzzlkhphhppdsiyipppippiyipdiyppapppiipdpdppacvcvvv",
"kcklkkcvcvvvvvvvvvvvvvvvvvvvvvvvvcvccccckhdhkfhpddjkkdhh9288909<2896662<<<950<55111:><990009282,,,68qq9q6qq6qqwrrrwyr07669uuiiiuyiyiyyii9999999666636322222<255522,,<1223366q6q6q8;=2<<<222222113<<1<22281123366637qwwwwwwwwyw6736996900qrrrrriiiruuiiphhphhhkhhkhhkkhhhdkkzzzccczxccczczzzzzzzxccckkdpdpsspsshdjhkjkhhkhppppahhhhhhhhdpiuiphdhidddidippidpiiiiy0wwwypdiiuyuiuuiyyiiyuippiipppidhdddhhhahkkzlkzlzzkjkkkhkjhkjjkkhkkkkkhipipiyiiyuuuruuuruurrrrruuiiyyyyyiipppipiyuiiiiiiuuuiiiipiiypiiipisdhhhpppdddphpdsitewtututyuisapididiiiiyihjkkhdckkhjkcczccczzzkkkzzccczzzzzzzkzkkkkkkkkgt000w0w009000rytrrrrr00rw0660uw989=,75iffppphiphpddhpppdkkzzkzkllzzklllklkzzkhdaiiidsiirrrrruuipypyipyiiiiiiiiiiipiiiiipididir0ww0wyyiisiuiuttuiiiiiipiiiiiiiiiuyryyrrrwwewwrwwrww0w000099690956696q666666666666666666366666666666q666q6698666966q799679666666666666969763666636666265636566552960qpidpzkccczkklkckcvcczcccxvvvvvvvvvvxvvvvvvvvvvvvvvvvvvvvvvvvccvvvvczkkjjkhkkhhjkkkhkkhkhhkhhhddhhjkkkhddddpphpppppphphhhhhhhhhphhphhphhhhppdpddhhhdddhdddhkkzzzkzzcckkklkzkkkjhkhhhkhhhhjkhjhkkkkkkhhdddsdsippphhpphppppdidipiidddsddpddhdkdkkhhkkkjklklzzklkhphhpidaiipppiyiiiiiiipiiipipipypppiphxcvvcv",
"cckkkkcccvvvvvvvvvvvvvvvvvvvvvvvvvcvvcvcchhhkhhhddkkkkkpw9559q91<005488<45945<54111::<2595<<,,,1,289666660wqwwqrwwwywrw99wuuiiiyiyyyiiiiq9999966666970669521222<,2<<<<22666666q7q6=,<<4<2<2<21<,<<1<1222122223666679wrw7wywwyw67369669q0wqwrrristituippppdhhhhhhhkhjhhkhhkkzzzcvcccccccczzzzzzzzckkkdpppiiipidddkhjkkhhkadfpahhkhhhhhhppiiipddsdipdiidiiiiiiiiyywwwwwpiiiuuutwryiyyyiiipiiipdddddddhhdhhhkkzzzkljkjkkkhkhjkhhkkkhkkhkjhpppiiiyiiurrrruururrrrrtuuuiyyyyyiiipiiiiuiuiiyuuuuyuiiipiypyyipppdsphsdddphddpdpssiyyiititiiddddddiiddpiyipkkzjhhkzzzczkkzcccvxvkkzzzzcvzzzzzzkzzzkkkkkcur00000w09800tuutrrr0t00i06wywww99q*;727ikwpiiipdpphpdhpkdkzzkzlkkklkzllkklzllaadiidiiyywurrrirtiyiiypiiiiiiiipiippiipypypidiu07wwwruiiiituuwuuwuuuiiidpiiiiiiiyuurrwwrwwwwwwwrwww00w00980999859966999666666666q66666966366667666666q6666996996679667666q66666q6866666989666666666365666254600yy0697ppkccckkhddhkkccccccccccvvvvxvvvvvvvvvvvvvvvvvvvvvvvvvvvvvvvvvvvvvvvkzkkkkkjjkkkkjkkhhhkhhhhhhhhkkjhkkadppppddpsppshppphkhhhphpphhhhaphahdhhddahhhadsddddhzjzzzzzzcclkkklzkkkkkdhhhkhkhjkkhhhkkkkjkdkddddddiippppapphiipidsiipiiidsdddaddhkkhjkkkkkkzlkkzxzkkppphdiiyiyiiiyiuyiiyuiiyiiiiippiuiipikccvcvc",
"ckckklccvvvvvvvvvvvvvvvvvvvvvvvvvvvvvvvvvkkkcckkkkkkhkhhd055190580095996580<5<5<111:><<>:::<1==1<2924600w0wwwqrrrwrwwyww9wuiyiuuyiiiyiyiqq9969666679wwyw0099552<,11<112336q6q66677,=<<<<<2222222<<,<212112222366666wwewwwuwwyq7766996q90wqwwrriiiiiuyippdddfhkkhhhhhjkhkhkjzcccccccccccczzzzzzzzckkkhpupiiiiipddkkkkhhhkhhppdhkkhhhhaaiiyuppdddidsiddiddipdiipyywwwruiisstuuutwuyyyyiyiiiiipsdiddhhahhdhdkkkzkckkkkkkhkjkhkkkjkkhhkhkahpipippiyyurrrrrrrrurrruuuiiiiiiyipiiyiiiiuyyuyyrruyryuuuupyiipipipphpphddphaddapphiwyiiiruyyiippaiiiddhpiiuyidkccphzcccckvchddiiikczczzzzzzzzzlzkcczccczk00rrrr0t0000wuurrrr00000t06tiw00qq9:,95q6h7piuhpppapadpkdkkzzzzkkllkkhhhhhkkjhppiidiiyiyruuutiiiiiiiyiiypiiiiiipipipiiiyyidsuywerrrwipiiuuwwwuwwuuuiidppiiiiiiiyuurwyrwrwe00ewwe000000890899699966669996366666666666666366666663666666769666669696679q9669q6qq66666666999966666666252666267yiakki0wpddzxkdurrrdhklccccccccccxvxvvvvvvvvvvvvvvvvvvvvvvvvvvvvvvvvvvvvvvvvvvvcccckkkkkkkkkkkhhhhhhhhhhhhkjkllhdppppdpppsppdppppappphphhphphpddhddhhhhhhhhddsddsdkkkzzkzcvcxlkkkzzzzkkjdhhhkhhkkhkkkkjkkkkkkdkddddipppppphphihipdipdpippsdiddpdddhdkhhjkkkkkkkhkzzzkzpkdddddiyiiipppuuuuuuiuiipiipppppppupdcvvvcv",
"kkkkcccxcvvvvvvvvvvvvvvvvvvvvvvvvvcvvvvvckkkkckkhhkhhhhpdi06567589079558880,2>2>11,:><<>:::<<:,1<669qidpsrq0qrrryrrwwuu09wuiypiyyiiyiyiiww669965669qwwwwtr000955,22111233366676666;:<<<<2,222,,,<1,1111112222537669qwww7wiryiw77969q9q0qwwwwrwrudiiiiiiappphkkkhhhhkhkhkhkkkcccccccccccczzzxzzzzcckkhaiiyyiiidishkkhdhhkapppddkhhhhkhhppyiiddddddidipipiippiipiyww0tiipssuuuiyyuiyyiuipppiiiiiddhhhjhhdhhhjkckclkkkkjkkkjkkkhkkkkhhhjkhpsipiiiyyurywrutruuuruuuiyiyiiiyiiiyiiiuuyrrrrrrrurwyuuuiiiiiiiippdddhgdddadadpppitqwtiytrryiupppdiipddsyiuyyiphkvzzzcccvdiu09070dkcczzzzzzzzzkzkckkkckdi0wuur0000990tutw0rtr9590q000wqw0w993299q6dezhihpppphdhhddhkzzkzllkkkhhhahhjkhppiipddiyyyruiiiiiiyyiypiippppyiipppipiiiyiiidiw0ewrwwuisiiuwwwwwwwuuuiiiiaiiiaiiiyruwrwrwwwww0w0000090006669808985666q99q666666966666366q6366666666666666786686996996999966q66qq636666666096669696635556669qpkzccchihzkpppprwrryphkcvcccvccvvcvvvxvvvvvvvxvvvvvvvvvvvvvvvvvvvvvvvvvvvvvvvvvvvvvvvckkkcllzkkhhhhhhkhhhkhkkhckkhdpppssspippppdphpappddddhfhhdhhhddhhhkhhhhddspppddkkzzzzccczkkkkcckkzjkhjhkkhjkkkkjkjkjkkkkkkdddddiipisdpdpphiididdidiiipdidhppdpdhhhhkkkjhklkhhklkkkdppddpppipiiiiyuutuiuuuyyiuuiuiuuipiidcvvvcv",
"fkkkcccvvvvvvvvvvvvvvvvvvvvvvvvvvvvvvvvvkkkkclkzkkhkkhhppppu006<5250w995660<2<2<11,,,<88852::,,,26qudhdaduw0qrrrruwwruw99ruypyiuiiyiyiyure9669630qwwtwwq0rrrww093<1,,22346q66q6666,;,:<<<,,<2,<,<<<<<2<<12322236667wwwwwwiwwwe7wq699070qwwwwrwrrsiiiiiiipppfhjhhhkhhkhhhkhkkcccccczxcccczzzzzzzxczkkhpipiiiiidddhkhhdhhkppppphhkhhhhhdapiyiddpididppdipiipiiiiuy00wuiiiiiyusiyuiiiiyuuiidiyiidddhhhhhhhhhkkzkzklzkkjkkkkhhhhkkhhhkkhhjhpippiiipyurrruuuuuuuruutipipiiiiipiiiyuyyyyryurrrurytuuuuiiiiiiipsisdppdddddpdpppiwwwyuuwrruiupapdddsdddihpipiippkkcccdpprwypidpdikcczzvxzzzzzzlzzkkkcju00tutrw008990uiiw0wr09990wr095wwti9932396<weihifpppapddhddkkzzzkljkkhkhhkdhhhhppiipiyryyyuutriurryyyiyppiyyiiiiiiypypiiiuppiye0wuwwwiiiiywywwuiuiuyuuiiiiiiiiiiyywurrurrwwwwwwwww00700009090699696669696666666606664666666667666666666q6q9979939979699997676q67669666666666666666653566660ijzccckjiydwrrwrwwrrrrikkccccccccccxvvxvvvvvvvvvvvvvvvvvvvvvvvvvvvvvvvvvvvvvvvvvvvvvvvvkzlkkkckhkhhhhhhhkhhhkhhkzkkddpppippippppdhpppaippdahpppdhhddhhhhhhhhdddsppsdkkklzkzcczzkkkkkkckzzkkkhkhkhhkkkhkkhkkkhkkdkdddddpppdihphpiddidiidiiddidddphapaddhdhhhhkhlllfhklkzzdppppiipiiyurw0uw00rurr0r0y000uyyyuiidkvcvcc",
"kkkkcvcccvvvvvvvvvvvvvvvvvvvvvvvvvvvvvvvxkkxckkkkkhjkkhhpidpyu0<2590yw0865959<55111,<200008::<<,69rshfdpdpuwwrrrryywruw7wuuyyiiiiiiiiyuiie667665wyiuuywyr0qrrrw08331<<33667666q6qq,=::<<,,<,22,,2<1<2<<11233<<3579qqwwwwriywiw77796q097qwwqwrrrriiuyyipappdhkhkhkhhhhkkhhkkzcccxccccxzcczzzzzzzzxckhhpiipyipiidihkhpddkkppppphhkadddhpiyyiipdiddipiiiiipupiiiiiywwwsipuurrtiuuuiiiiyupiiiiyipisddahhhhddhkkzklklkzjkkkkkkhhkkkjkhhhhkkkdppipiiyyurrrruuuuruuuiiiiyiiyipiiyiiiyyyryrrtyruyryytruiiiiiiiiiipidppppdddppapiiiwuuiiituiippphdddddddsphhhfpipyypjjpuykkkkkdkdydcczzczzzzzzzkzkzzcksw99rutw0099900tiuwrr009000009550qiwq63:26<;<qwhypipppadhddddkzzzzlkkkhhjhjhhhppiipipiyyyrruruiiuuuyyyiiiiiiipiiiiiiiiiiiiiiurwwwweruuiuiyriwwwwiwwyryyyiiiiiiiiyuywrruuwrrurwww0000667000908669996q66699666696q966663666666666696q666q67q796969639979999q6q6q67q969966666666266666555366660ikkkjdui7604ritrwrrrwrrfzcczzccvcvvcxvvvvvvvxvvvvvvvvvvvvvvvvvvvvvvvvvvvvvvvvvvvvvvvvvcclkcckkkkhhhhhhhkkhhkhhhkklkhdppippipsiippphhppppahhhahphhhadhhhhadddhdppdppphhhkkkzzzlkkkfkcckkjkkjkkhhkkjkkkkkkkhhjkhjkdddddiiidphpppphsiisidiiidiipsdppppdddddhkkhdhjkklhhklkcdipipyiuuyytrrwr0wwrrrw000ruuuiyryuaddhvvcvv",
"kkkkccccvvvvvvvvvvvvvvvvvvvvvvvvvvvvvvvcvkcxcccczkkkhkhpdppdsiy74800yiy864959>598811<90iur8::1<:66rshppkdpiuwqqrwyrwriu6utipyiiuyiiyyiuire66666560uytwwu0w00r0wwrq32333366663666q7<=:<<<<<2322322<1122<11222<<<369wwew9wwiweiw9qq669999q7wqwrrrrrryyiiipppdhhkhhkhkhhhkkkkfccvcxcccccccczzzzzzzzxkhkhpiypiiidiidhhkpihhhppppphkjhhhhhppyyyiapiidiiiiiiyiyiiiiiiywyupdpuiwwtiuuuippiiiiiipiisddsdddhhhhhphkkkckckkjkkkjhhhkkjhkkkkkjhkkkppsiiyiyiutrruiuuurrruutsppiippipiiiiiiyqrerrrrrrytttyrrsiiiiiiiiiipippppadapppipiwwwiwwuwriuuuppssdsiiidippppippyw0wruidppppdddaydvvzzxkzzzzzzzkkzczdu950ruww00900wwtuw0ur00r0r00990wwqwwwq2:3w><<r7hyyippdphhdkdkkzzkzlkkkhhdaahjapiuipipiyryuuutiiiuyyyyiyyiipyyyiiiyiiiyiiiiiiw00wtrrrwuiuyyruuwiwwiwrryyiaiaiiiiiuyyrruuuurwrww0we0066666000e0609096969666666999966663636760666666066q66q6qq969899999699q7967q7qqq76699066636633666653665365yphkpy06769s0psqdtrwwrtpkzcczzxccccccvxcvvvvvvvvvvvvvvvvvvvvvvvvvvvvvvvvvvvvvvvvvvvvvvxlkklkllklhkhhhhhkkhhkhkkhkkckkdpppisppppipaphphpppppdhhpphhhddhhkhddddddpsdpppdhklkkzzzkkkffkkkkkzkzkkkhkhkhkkjkkkjkkkkkkkdddddsididsphphihihidididiidpsdipadhddddhkkhdhkklfhhhkzchipiiyuuuwuuiuiuiustiusuusiidsddpppahadcvvcc",
"fkkkccccvvvvvvvvvlcxvvvvvvvxxvvvxxvvxvvcxxzzcczzkkkfkkadpaddppi700uuuuy09829925925599rutyy6<,,,=39ihjdddshprwwrrwrrruurwryipiiypyiiiyiiyu99859rw00uuurw0ww00w006q9933223663968996w2:=,,2,,,20iiyew2,,21=21,,,,2600y0w0ww0rrrr00809999909000ry0uurrrwrppspppdhhhkhhhhhkkkhhkklcclccccccccxcczccczzddkapiiiiipiippdhhiyphhpddidhkkhdhhhpiiyidsidipipypiipyiiippipiuuyiaiuiwtrutyiiiiiiiiiuituidpddpkddhkdpkkkkkzkkzklzzzkzkhkkhkkkhkhkkhhhppiiiiriyrrrtyuurwrrruruyipiiiiiiisssuuitrwriuiuywuuirtptirruiiiiiipdphphhppphpywyyyyyyy0ryyrriippppyapppiipppiyitwiiiisppippddd00cvkxckcczzzzzzclckz00000rrtr09700yuir6657000eww99w066wr969063590sirrukiphhshhhakkkklkkkkhdhhkdhkhapiipiirrrtrrtirturtruuuuuiuiuutuuiiiyiyipai090wrrwrruuuwuwuurrrrryyrrrryupisiiiiiyyiuuurrrrrwr0000955999000909098656666667996qq7q7q76334696696333666663679qqq66q666qqq6q77qq66q66766999955595859366663566666wusw99659779eewiwiiyyyiykkccvxxlvvvlvxxvxvvxvvvxvvvvvvvvvvvvvvvvvvvvvvvvvvvvvvvvcckkkkhkhhjkhjkkkhhhkhhhhhhhhahhhkjhjzhpddiddddiidddddddipsddhhsppphddhhhhpdaddpppppapffklzczzkkhkdkhkkczkzkzkkkkhkfkkkkzkzlkzlkkddddisdssppddppppppippiiidippppppphhpdkkdkdkkhhkkjhhhkkhdsriiipuyyyiyyyuypdiiyiyiiiidddiiiiphfkvcvvv",
"zkkzccccvvvvvvvvvxvvvvvvvxxvvvxvvvvxvvxvcczzcczzlkkkkkkaddddppi7000wwyyywr098999wrtruuiudyq9228897udhdhhshpuwrrrrrrruuu0yyypypiiiiyiyiiyu09990ry0ywuurywqwwww00676q76223666699996q6:=,,21:<7wuiire7<122,11,,,23700yuuuww0yr0rt009998999000y00yu0rurrrppippadhhhhhhhkjkkhkkkkkcclcxccccccvczzccczzkdkkpiiiiiipppphhhpiakhiddidhkkddhhapiiyidddidppipyipiiiiyiipipuyyiipiiuuyywruutuitiutuiuuisiddahhpppkdhkklzzzzzlkzzkkzkhjkkhhkkkjkkkhdppiiurirwrryrurrrrrruuuuyiipiuyiiuuuusuyrrriiuyiwyrurruiirtiiiipipidphhpphhppaaipiyyytywiyyyyisiapppppppppayyyywwwwwtytwuuyyyippurkvcxccklzkkzlzlfcki900000rrw09700rwi066669000rw0996569q969996622980iiirshppphppkckkkzlkkkhdkkhhhhpiiippyurrrrurruuuuuuuuutuuuuuuuutiitiipyyiw69ewrrrrruwrrrruw0yy0r0rr0ruuiiipiiiiiyyyurrrrrryr000000995599099008999899767699966666636666366q6966666666673697q667q666q67q76qq66666666q998998859595966666626666600822929q9qwrriwww7wiphkkccvvvxxxvvvvvvvxvvvvvvvvvvvvvvvvvvvvvvvvvvvvvvvvvvvvvckckhlkfkhkkkkkkkjhhhkkhhhkhkhhhhhkhhhcjdiiididiididsddsdppiddhdshaadhdhhhdppddpppppipahhkkzzzzzzkddkhkkkkczzzkkkkkkkkkkkkkkklzkkkkkdddpdpshpddgpppiipsppipsdpppaapphapphahdkhhkkhkhkkhkkhdpppipiiiiyiiiiyiddddpiiiippiiptiihkhkkcvccv",
"kzlccccvvvvvvvvvvlcxvvvvvxvvvxvxvxcvvxvxcczzcclcckkklzzkdddiappyurr0yypdsdi050uupiisssuwqrwe0wuiiissdddhhhpirrrryrrruurwiypiiiypiyyipypir99960yyyuwwuuuwqwwwq009699w6322963996690092==111:2titwytre5111,21,,<356y0uuurwu909900r099999900000yu00uuuwwripipddhhkhhhhhhhkkhhhhkcxccccccccccczzzcvzzkddkapipiiiiiipphkhppahhsddsdhkkdphhhduyyddsidpiiiiiippyyipiiiiiuyyipiipsyuywwurtuituttuiwyipppphhhhhhhahkklkxzkzzkkzzlzkkkkkkhhhkhkkhhhaiiuurrrrrrryrrrwyyurtuuiiipiiusuusssturrrrriiuuuruuirtitiiiiipipipipdapphhappdpdiwuiiiiyyywyiidipppppyiaaiyihkzpyyyyywwyyyuyiips0dvklkczlzzkzzkkkzk7790trwww000rrr0uuu9009900ewwe096699669q909909q6qhayyphhphhhakclczzzzzkhdkhhhhappippiirrriuuruutiuiiuuuutrwuuuuuuitsippiiiu90eerrrrrrwwr0yrrrrr0rrrrwruuuiiiyiiiiyiyyyiwrrryr000909099999009899999867699999967q66666663666699666666636676979636666676q6q7q6q6366666699995555895869966626696629952696699qwwrwyiiyiikkkccvxvvxvvxvxvvxvxxvvxvvvvvvvvvvvvvvvvvvvvvvvvvvvvvvvvckkczkzkkkhhkhkkkkkhhhhjhhkhhhhhhhhhhhkkzkdiiididiisddsddiiipddddspphhhadkfphphdappppppphhkkzcczkkkkkdkjkkczzkzkkkkkklkkkkklkzzkzkhkdpdsdispphpddpppsppspsisdpppddhdhhhppkphdhhkkkhkkkkkkhddsippiiiiiiiiiiiiddddspipipppppiiphhkkzvvcvc",
"zzzzcccccvvvvvvvvxvvvvvvvvvxvxvvvvvxvxvvcczzccczccczzzzzadpdpapiiiippdppdgdy0yppsssssir09900wshdhhdddiddpirwwwrywrrruyuwyiiiiyiiiypyyiyi095559w0uwuuuwru0wwwww0099qq9212699699996502*&::::2wiwyirii92211,,,1236600uuuyww09999000099990000yy000y0urwwwyppddhhkhkhkhhhhkjkkkjkcccccccccxcczzlzxzzzkkdkaapiiiippppphkhdphhdidppphhhhahkhiiuysdddipiiiiiiiypiyyiiiyiiyiippipuwwwryuuwusuyruiituiippdphhppkhpfkkkzkzzzkzzzzfzjkhhhjhkhhhkkjhhppiyiiiruryrrrrrrwwruuuuiyiysuuuuuutuurwrwriiiuurrrirriiruutiiiiiipphhhppppppapirwwytiiiwuaaiyidapppppaaiaiijvvvckiyyiipiiyiiiyid0iclkkckzkzzkzzkkkc59y0ttww00rryrryrur0rw0rww0w0we99www690qqq000rw:<ipipdhhhhhhkzcczzcczjhhkjhkhhppipiasiruriiiurirtutitiuuuuwwutuutiiiyiiissu0wewwwrrrrrwwr0rwr0yyy0rruuuiiiiiuuuuyrryyywywwww0006990995500000909999996q99q7996q66q66q466666697666996633336979q66q76q6666666q67qq6766q9909998565956962666666669985699269977wwwwippphhkccxxvxvvvxvvxvvxvvxvvvvvvvvvvvvvvvvvvvvvvvvvvvvvvvvvcczkkckkzkklhkhkkhhjkhhkkhhhhhkhhhhhhkhdklkkhiiidiidiididsppdiididsdhpphddhhhhppddpppppppppdlzzzzkaaddkkkhhkzzzzzlkkkkkkklllkkzlkzkkkhjdddipppppdpppshppippppiddpddahhhhhhppphdhhhjhhkjkkkhhddiiiipipiyiyiipusddddsiiipiipiisipppkcvvcvcv",
"klczccccvcvvvvvvvlcvvvvvxvxvvxvcxvxvvxvxccccccccccczccllkippappidddjdhdppdpyyudpsissdsurwq00uddidpipiiiir790ywwyyrurryrwyyyiypypiypiiyypu08820uuuyuwwuwuwwqwwww9q9996212666996666506;&:=:18qwiuyriiq<<12<<,255760yuuuuu00009990000000000000ry0uurrrwrushhhhkhhkhhhhhkkjhhkkkcvccccccclcczzzzcczzdkdkkdiiiiiiippphhhhphhpidpiphhhddhhhsuyiiddppippiippyiyyiypiiiiiyipiiiauwwwruuyyiiutttsiyyiddppphhhahhphkkzlzzkllzzzzzkkjkkdkjkhhhkkhhhppiiiiurrruryrrywwrrruruyuututuuuusuuyyrrwuiiiyiirrirruiriitiiiidiidpadppppafpiyruiiiuyypzvvkdpppipipdaphpipkvvvvvzppphppdpiipiij0pvcclvzzzczzzzclkc00u0urr0w00w0rr0www0uwrrtwww9erwwuww66qqwqww9q0,2pjhiphhhdhhkkccccccckjkhkhkhdppppparruruuuuuuuuuiiiitutuuruuuuuiiuiiiiisiuww0wwwwwtyryrr0ry0rwrwyuwruuitiiiuuuuyurryywywwww00700009999990090999995977qq7q696666666666666666666696632366769973679666666667q66q6qq66q90009995959996666663696695525898qq97wwirwyuipkkkxcvcvvvvxxvxxvvvxvvxvvvxvvvvvvvvvvvvvvvvvvvvvvvvvvvcckckkzkkzkkkhkhkhkkhhkhkhkkhhhhhhhhhhhhhhjkkhiiidiiiiidddsiidiidddsifphhhphhhhpphadppappppppkklczkkfkkjhkddhzzzzzzkklkkkzzlkkzzkzzkkkkhhddsssppdppgpppspspiipddsdddhkhpkhpadphhddkddkhkkkkhhhdiiiipppiiyiiiiyppdpppipipiiiiyiihjjkvvcvcvc",
"zcccccvvcvvvvvvvvxvxvvvvxvvvvvxvxvvxvvvxvczlcccccclcccckkdiipappsdsdahdhydpyuipppiidddsiur0wyddidpdir00w069uppyyrruruirriippiyyiiyyiiiiyr99950uuutururwrwwwwwewww9q65<,2366696660699,*:=:299qiiytiiq2<<2,2266667000u00000r0900000000000000u00uu0irrrruphhhhkhkhkhhhhhhjhjhkcccxccccccccczzzccclkkddjkdppiypipppphhddhhppiispphhhdddhapiuipadpipiyppyypipiyyiiiiiiriipippuuuuuuuwtuiiuyiiituidddpahhddhhhfkkzzkzkklkkzkkzkkkjkkddkhhhkhhhapiyiutruuurrrrrryryuuuttyruyiuuuusuutryrrwiiiyyiuriittiririiipiidiphhhphpipppiihlvchippvvvvvvfyiiiippdhpiihvvvvvvvchpppppdddppps0dvxccvcccczzxzcklcir00wr00000wwrry0wwwww0rtr009wwwwww669999wq9rq720hhyiphhhhhhpzccccccckdhkdhhhdpppppppuuyuiiyiiiyiiiusiuiutuuuuuuuttisisiuuw9wwwwwwww0r0r0yy0yry0wwwwrutuiuiiuuuuurrrwwwwyy0w5000000599990000099999986q77qq966qq66q66666q69666866969843666979666666q666663q6767666q66990099959956999666666669995599999qw9qrirppiypkczvcvvxvvvvvvvvxxvxvvxvvvvvvvvvvvvvvvvvvvvvvvvvvvvvvcccckckzkkzlkkkhjkjkhkkhjhhhhhhhhhhdhdkhhhkjkjhhhiiiiididippppddiiididpppfpphkhpphdddpppppppppakkclzzzkdkkdkkjzzzzzklkkkkllkkllkkzkzkkkkhhsddippsdshdpsppsppppisdddpdhkkpkkpddhhadddkdhkhkkkhphdiuyipppiiiippiiipphppiiiiiiiiuisjkvvvvvccvv",
"zklccvxvccvvvvvvcvvvvvvvvvvxxxvvvvvvxvvvvcccccvccczzcckkkdyppappdsdsppahpppiiiidpiiddipppyuyihhdhddiu7wwrq0sjdiyrrrruuuriiiyiiiiiiiiypyir99990uuwuyuuyuwtwwwuwtwq7q752<22366966569692:==:12qtyiiwir62<<<<2666699000uuy0urrrrtrr000000000uyrrrruuurryrushahhkkhjhhhhkjkhkkkkkcvcxcccccccccczcczlkddkkjdpiiipiippphhhhhhhdipdiphfhdppasiiuissappppiipiyiiiypiiiiiiiippsiipuuuisuuwyyuuuuiiityshddphhhhdhhphkkkzkzzlkkzzzzzkkkkkjdkhkkhkhapapiyiiuruurrrrrrrrryuuuuuyrruuuuyusttuuurwwuuiuiririiriitiritiiiddpdahppfhpipipjvvvvcvccvvvvvvxfapiipapppipcvvvvvvvchpiipdsddipis9dcclcccvvcvcvczfzcz09yww0999wtiuyr00ruw00rrr0000ewww0699q99w06r9626r77shjhhhkhkkcccccccjhhkhhkhappahppuuuuiiiiiiiiiiuiiuiuuuuituitiuiiiurwew990wrrtwwwry00y000y0wwwwwwruruuuyuuuuurrr0wwwww0w000000095999590009999599999q76776q6666666q6999966666699q6663679666636766q66666q66q6q66376999989985699369966669669855999906999wriyhkhipzckcvcvvvvvvxxvvvxvvvvvvxvvvvvvvvvvvvvvvvvvvvvvvvvvvvvvcvckkxkkzkfzhkhkkkjkhhkhhhhhhhhhhhhhhhkkhhkzjhsiiiiidiiddspisiiididdpppfhphhhppphppppppppppahhkkczzkkjddddkkzzczzckklkkkkkxllkzzzzkzkkhhdsddidspppppppippippidddppdhhpkpkphpdhdhkddkkhhhjjhphsiuiipppppipppiippppdpiiiiiiiyiyphcvvvcvcvcc",
"kkkzcccvccvvvvvvvxvvvvvvvxxvvvvxvxxvvcxvvcccccvcccccczzkkiiippppidddhdpppiiidddddpsdpipdddpyipdppphhiuijh09ihsyyriuruuutyiipyyyiypyyiypyw00wwruuywytuuwwwwtwtiwwqwqq6<<22336666669628:%:,>1qiwwirirq<2<<>279523900uuu0u0rrrrurr0r0r0000r0yuruuuurwyrrriphhkhhhhhkdhhkkkhkkkkcvcvccccccccccccczkhkddkhpiipyiiipdpfhphhfkhididhhkhhpddapipishsppipiiippyipyyiiiiippiipiiidrwrtsstuurtyuitusurphddpphhphhhhfklzkzzkkzzlkklkkkjkkdkdhhhkhhhpdpiyiiiryrrryrrywwrrrrursurrutturuspuuruiwuuuuuiiritrrtirrrrruiidipddhphpfpaiikvvvvvvvvvvvvvvvvvkpppddhhkphvvvvvvvvlpiphhgdddpiut9dvcvccccccccvczkccc99iww0990rtsur0970uu00rrrwr009ruuwwwwq69w06q6q6667iishhhhkhklcccccccdhhhdhhhphdhhhpppppppiiiiiiiiiiuutuuutsuiuituuuwwwwwrwrwwrtwwwwr0yr00yrrwwwruwrrruruuuyrtuurwrrwwwwww0000e0009907990000895989909999q76667666666q9669q96q9666976236669999636q666666667qq766q7qq79986695999669962963639965598999929wqeiiwihkakvvzcccvvvvvxvvxxvvvvxxvvvvvvvvvvvvvvvvvvvvvvvvvvvvvvvvvvvckzxkkzkakkkjkhkhhhkhkkhhkfhhhdhdhhhhhkhkjzjhiiiiiiidddppsdddiidpsppppppphhpadphapppppappphakkkkkpkkdddkkkzzcczlklkkklkkkkkkzkkzzkhjhhddddsppdhpppppsppippppidppddkppphkphddhdjkkkkjhkhkhpdiitipiipiippppipyypppiippipiiiiiipkzvvvvvcvv",
"cckkcvvvzcvvvvvvvvvvvvvvvccvvvvvxvvvxvvvvvcccccccvcccczkkiuiidddidiidddddsiuyddippppppddipdppppdhpppiyphiywpsrwrrrrryrrrpyyyiiiyypyiiyiiqqtirtwitwywwwywyuwywuwwwwq7<,<323362666552981&#1112qtwiqq6,:11:<<23667q000000tr00uuirr0uuu0u0u0uuyyyyiytrwrrrsskhhkkhhhhhhhkhkkhkkkccccccccccccxckkcclhkdkhkppiypyipiidkpphkhkpdiiphkjjkhhhpiiippppaiypyppiyyyyyppiipiyiiipiiaiyuuiiiurrwruiuiisrisssdppaddhddpkfkzzlzkzzkzlkkljkjkkkjkhjkkkkhhhdtrruyyrrrurryyrurryurususuuuuuuuiiiiyyrrrrruuiiipiyppipiiiipiitiidhdddihhipkvvvvvvvvvvvvvvvvvvvvkdpdhhpzvvvvvvvvvzhpkppfphhpiptejczccvvcvcccccvcvzcy00twwwwwispt090u0w00we000ww000errrw36rrq62e597366erphhakkhhkcccccxckdjhpphhhhhhhhhiiippipipiipiiiiusistuiiuuuiuuyyww0wwyuurrrrwwwewwwuw0000rwwrrrwuuuiuuwyrrrwwwwe000wrew0000000909099695909859995q79836666666q6666669976q9869997866336q76666q6636666669q9666qq779888999995969999699669999997999997qwuwtyiihkhdhzcvcxvvvxvvvvvvxvvvvvvvvvvvvvvvvvvvvvvvvvvvvvvvvvvvvvvvcczxzzkzfkkkhhkhkhkhkhhkhhhkhhhhddhpahhkkhkkkhiipdiippuppspiiddpspppppppahkddpdppppppidsddipkkkpppkdkkdddkzzzzlzzzzkkkkzzkkzzzzzkkzkffphppdpsdddddsiiddidiiiidiidpdppapfhhhsddddkdkkkhdkhhpddidippdpphihsiiyiippppipyyiipiidpphzvvxvvvvc",
"ckcccccczcvvvvvvcvvccvvvcvccvvvvvvxxvvxxvvvccccccccccczzkiipdiiiudppddddidiiyipdyppdppdppdddppdhppppiwwwqwuhjuwrrrirurrrriyipiiyiiiyypyiu7wqrtwrwyuuuwutywwwiwwu0qq6<,<333335656999982=&=1=21269665<,,,:<236626qu0ut0uiu0ruiiiu000uu0u0uuyyuyiyiirrerruhhhhhhhhhhhhhhkhkkhkzcccxcccccccccccckkkfhkdkhapiipiipiijkppfhhhpddidhkkhhhdhdpiipppaapppiipipyiyiiiiiiipiiiiiiiiyyuiuiurtrruiuiisyispppppddhdhhdhhkzzkkllkklzzzzkkjkkkjdhkkjkkkhhdtrrruyuuuurrywuwrrrruussututuuuiyiiiiyrrriiuiiippyiiiippppppppidddidddjjppaxvvvvvvvvvvvvvvvvvvvvjipdpapcvvvvvvvvvckkapppppppiiwqjvvvkcccvcvcvcczxkcy00wwwwrwisdww60wwr0000e00wrwrrrw99w39rw932w336675eiphhhhjhklccccccjdddhhkkhhhhhhhhpipiiipipppipipiutiiiutssssuuyrwww9wwwwwwrwrwwwwr0wwr00er0wrrrrruuwwuuyywrwwwe000ewwwww0090999090999999909999098qq999676666666636669966699666968676369q6669qq66666666999q66qq77q989998699699999876695999699999997wwtuyuiphhhhcvcccvvxvxvxvvvvvvvvxvvvxvvvvvvvvvvvvvvvvvvvvvvvvvvvvvvvcccczzczzkkkjkhhhkhhhkkhhkhkhhhhdhphphhkhkhkjhdidiipispdpdppiisppppppphhphhhaddappappdpdiddphkkkpphkdkdddkzzzzzzzzlkkkzkllzzzzzkkklkkkpfpddpiiddsdddiiidiiipiiddipphpppfhhpiddiddkakdkdhhapdsdipdpdipidiiiiiiiiippipiyippiipppdkcvvvvvcv",
"ckkccccczcvvvvccvcccccvcvccvvvvvvxvvvxvvcvccccccvccccclkziiiiiiiydiyddsspisiyuikppdddiiddppphdddhddsir0q70uhpuwrrrrirrryyyyipiyyiyyiiyiii699rsrruyutyutytywyyyww7q072,<3832666665665881=*=:,,,,2<<121::1<269637q000r0uiuitissiuyuur0uu0uuiyiiyiyurrrrriphhhhhhhhhhhhhjhjhkhkcvvccccccccccccckkkkhhkdhdpiipyipppdkpphhhhpsiidpfkhhhpdapaippdsssppiiiiiiyyiipiiiyyiiiiiaiirrwuiirrwrriiiipsusdppaihddahddhhkkzkkzklzzkkkkkkkkhkjhkkkkkjkhkdpuuriuyuuurrrwrruwurrruuuuuuuuuiuiiiiiirwrririipiiiiiiyppppaahpdddiipdhvvhkkvvvvvvvvvvvvvvvvvvvvzpppdapzcvvvvvvvvvvcckapiiiiituw0svvvccvcccvcccczvzvi0r00e0wruus0089w00099000ew0wrrew00q6wr939qw976wwqipdhghhhhhcxccxzfpppdhkkkhhhhhkhdpididpppiippiiiiusiutuuiuuuurrwwrwwwwuywwwrrrrwwrrwrr000ewwrurrruuiuwurrrwww00000000wew0509009007999999099959098q7679999666666666669q7667967996866666966669q766666666qq66677q77q89009898598989996699976799990099qwquuutypppphzczvvxxvvvcvvxvvvvvvvvvvvvvvvvvvvvxvvvvvvvvvvvvvvvvvvvvvvvcccccckkkhhhkjhhkhjkhjhhhhhhhhpphhhhhhkhkjkkdpippssspppdppsddppppippdhhhhhdappappppppdsspppkhppfhkdkddhkczzzzzzzklkkkzkkzkzzkkkkzkkkhhphdpiddddidipiiisiiipdiidppppppppppiiiiidddddhkkkaispidddpppppppiiiiyyiiippiiiippiippppfzvvcvcvv",
"ckkcccvvkcvvvvccvcvcvvvvvcvxvvvxvvxcvvxvvccccccccccccczkjdiiiddiiduusdiddipiiyyispiisdddddiipdppdiuqwq0w790trwwrryryrrrrpyypyiipiypiypiyt97wetrtwtyytyyywwwwwywwqw962,22233666662965892=%=,13,=1<<232>,2<1366690r0tuuuuiruudiiuuu0u0u0ruuyiiipyiirrrrripddhhhhhhhhhhkkkkkhjzcxcccclccccccccckffkhkdkkhppppiidiikkppkkhhpdiiihhfhhhadappappdaaspppyypipiiipyiypiiiiiiiiiiuruuuurruwruiyipsrudiipidddhhahddkklkzzlkkzzlzzlkkkkkkkhhhhjkjhhdsuertiiiutryrrrywruryrruwrruuuuiiiiiiiyrrrriiiiiippyiiyppppppphdhddppkcvvzccvvvvvvvvvvvvvvvvvvvvzppddapcvvvvvvvvvvvvvchpiyytywui7ikcvcvcccvccvcczxzviuu0000wtuui0956w99009ewwwr9wwrrrrew6ww69wwwew6ee6ihdhhjahhkccxcxkpppddfkpphphhhhhdihiddipiipiiiiiiuuuuuuuurtrrrrwrwwweyuwwwwewwwtrw00rr000ewwrrrurruwuiwrwwwe0000000000w0000009999999599999999009966368968q66676633666666666666999667669669699q66766669966q66q7q7q00909996669969699999966659000099qwwwtuuwiipihhkfxcvvxxvvvvvvvvvvvvvxvvvxvvvvvvvvvvvvvvvvvvvvvvvvvvvvvvvvcxzzzkkdkhkhkkkhhkhkhkhhhhhhhhhphhhhhkkhhkhhpiidpppsppsppddippspppphhpphdppddpppppppididppkhhphkkdhidhkczzzczzkzkkzkzkzzzlzzkkkzkkkhhhpdppdsiddidipddiiiiiidiipppiippppiididddddddddkdhpddddsdhppddphppiiiyiiiiiiyyppiipphhphlxvcvvvc",
"czkkcvcccvvvvvvvvcvvvccvcvccvvvvxxvvvxvvcvccccccccccxzkkjdiiiddiyiiuddisdsidpyw0uuisddddddipsdddiw76900qwq9000wrwwrrrrrriuidhpyiiypyyiiiw9069wwruuwuyuutyuwwwywwwqq72<<2223666662992299,%=:,22::<<252::3<,,6999900ttu0iurtiipyuu0y0u0uuiyiiipyiyiruryrihddhhhhhhhhhhhkkkhkkcccvccccccccccckkkzkhhhkhkdddidpisipdkphkkhhddiipahhhhpaasiiapppaapiiiiyiiiiyiipiiiiyiyiyiiiiuwrrrurrtrryiyiisuidpidpdddddddkkkkkzkzlzklkkzzzkkkhkkjhhkkkkkhhdsyruuiytuurwrrrywuwryrruuuuuutsiiyiiiyytwriiiippiipiyiyphdiphhkhdhdhkxvvvvvvvvvvvvvvvvvvvvvvvvvvciipfapvvvvvvvvvvvvvvvzpiiiuiiyr6ikvvcvcvvccccvczxzcy0uwwwrwisuu09590900090wwwrrwwwww99966999ew9w93q7<ehphjjhhjkkccxckppapadhpiphhhkhddhdihpppppiipipyiiuuuuuuurwryrrrywwwerrwywwwwwrrww0wwww0w0rrrrruuruuuywr0w0000w0w0000w0w00000067999599799988999996368666666667663666666664336669969666q666667663636666q969697q77w0000999699969699969996669900r000wwqtyuwuihhjkkkcxxvxvvxvxvvvvvvvxvvvvvvvvxvxvvvvvvvvvvvvvvvvvvvvvvvvvvvvczkkzkhkhkhkjhkhhkhkhhhhhhhhhhphhhhhkhkjhjkhpiidhsppsppsppppspssppphddppadpdppppidspdppdpdkkdddkkdddadkkzzzzzzkzzkzzzzzkkzkkzkzkckkhhdddiihiddidipiippiiipppipppipiiiiiidididdddddiddhhhpppdppkpsddddidiiiiippiiiiiippiphpppkxvxcvvcc",
"ckkcccvccvvvvvvvcvvccvvvcccccvvxvvvxvxvxvvcccccccccczzkkhiiiiddiipiuiddiddddpp760wuddddiiutwtuiiuuw0rur909900r0wwyyryrryuyphjdiyypyiiiyyq7q66w7ruwtuuuutuuywuwwwwq965<<22228665626956992&*%&,,:,4422::,2,,<69997r0rr0ruuuiiipiyuuuuwuuu0iiypiiyiirriiiihdahhhhhhhhhhhkhjkhkkccccccccccccvckkllkhkhkkkdddddiipiddkphkhkjhpiiiphhhhapaiyiapppaapaiiipiipiiiiypiiyiiiiiiiyiuurwrurrwwwyuiisstidpddpdddpdddddkkzzkkklzzzlzkzzkkhjhkkhhhhkhkhdprrryiiiuuurrruwuwuruwrurrruuuuyiiiiyyiiriiipipiyyiiiiihiddhppphhdhkxvvvvvvvvvvvvvvvvvvvvvvvvvvvzipphphvvvvvvvvvvvvvvvckkppiiiiwwpxvvxccccccvcvxzxkvyrirwwrwsisu0986r00w960ewwrre909066933669w96qw266<6sphjkhhhklccccfppppppkkpphhhkhaphshipiipiiiiiyyiuutuuuuyrrrrrrwwewwwwwyww9wewwwewwwwwwe0wewwuruurruuyw00900wew0w000000e0e0000099999999975999999933666q766666666466663336<<463399666969966696666366666666969qq77qe000999996666999909090099900r0r0wwwuwuuwihhzcccvcvxvxvxvvvvvvvvvvvvvvxvvvvvvvvvvvvvvvvvvvvvvvvvvvvvvvvvvvzzkkhkkhkkhkhkhkhhhkhkhhhhkhhfphhhhhhhhkkhkhiiipppspsphspipsphhappaapdpddppphhpdppsdsdipadpdddkdddiddhkzzzzzzzlkkfzkzkzzkkzzzlkkkkkhhddhhihsidipppippiiiiiippippyaipaiiiidddaddkdddpddhddddddppgddhdddiiiiippiiiiiiiiiphhhhkcvxvccvv",
"ckkzccvcccvvvvvvvccvcvvvcccvvvvvvxvcvcvvvccccccclzlkzkkhhpiuiddiipiidsiddpypddu900uyiiyptyywqwuudpiidhu00q70r0wqwywwrrrryuphhdyiiyiyiiiiw0w7699rutyuutuuiywuwwwwqqq62<<,22266666255655592,=*,,>,<251,>,1,<399639r0rru0uuuiidpiiiwur0y0yyyyiipipyrrriyppahhhhhkhhhhhjkhjhhkkkccxccccxccxckkhfkkkhkhhkdkddidiidiidhphjkhhhdspphhhhhpiiiiiappdfadiaiiiiipipippyypiyyiiiiiaiuturrurytryuuyiiitidpdhdddddddddhkkkzkzlkzlkkzlzzkjkkhkhhhhkkhhhdptrruyiiuuururruwuwwrrrwrrwyryyiyyyiyiyrriidiippyyiiyipdsdipfppphdzvvvvvvvvvvvvvvvvvvvvvvvvvvvvvkiippkzvvvvvvvvvvvvvvvvvckkkppiwycvvvcxvcvvccccczcxviuie00ewissu0069r90w090wwwr00000ww993699qq667w69q660phhhhkhkkccvvkpipppppkpphhhhhdpihisppipypiyyiiyuuyutuywrrryrrrwrrwwwwww9w99ewwwwwewew0w0wrrruuurruurw099909000e009900950000000e099999959999995966669996q366q66666666364<3633667669699969699q36q666366666669w97q0e009999609660990909090090000r000wwwywuuiidhkccvvxxvvxvvvvxvvvvvvvxvvvvvvvvvvvvvvvvvvvvvvvvvvvvvvvvvvvvvvvzkzjkkhhhkkkhhhhkhkhhhdhhhhhhhhhhhhhhkkhhkhiiiphppspspdspsphhhpppppppppdpphpdpdsddpssdipdpppdkkdipddhkzzzzzzlzkkklzzzzfzfzzzzkkzkhhdidigdiidiipipiipiiiipiypipyayaipipddddddddddddadddpddddddpddddddiiiiippppipiiiiippijkcvvvvvvvcc",
"cckkccvcccccvvvvccccccccvcccvvccvvvxvxvcvvcccccczzzkkkkhkdiiudduiiiuddidpddpdksrww000yipiiuuwyiphddpdjdr000q9qwuwwwryrrrpyripyrpiyiiiyyiu0w0997euuuuiiiiwtywiwiwwwq722,<122556556699659qghw992><<562,,1:>29q636900ruuuiuuuiippiiuuuuu0yuyiyippypiryyyidhhkhhhhhhhhhhhkkkkhkcccvxccccccccfkkkhakkhkhjkkddidiisiddpphkkhkhdpipphhhhpaiiyidpddaadpiipppyyyiiipiiyyyiiiiiiiiiuwrrrrrurruuiidiwyippdpahddddhhhhkzzkklzkkzkzkkkjkkkkkhhkhhhhkhdiurruiiituuurrywwwrywrruruuyyyyyyyyyiiptrriiuyipiyyuuipdhshppppkphcvvvvvvvvvvvvvvvvvvvvvvvvvvvvvzipppklvvvvvvvvvvvvvvvvvvxlkpppihvvxvvvccccvcvczkxzvpust000ussiie060r00w060wwrr9erww090w9ww9qw662wq6q965ykhdkhhcccccckhppappkpphphfkhhphshipippyipypiyiurrwrrwwwwrrryyytrwww00ww9wwww00w00rrwe0w0wruutirtuury0999990090w00000000000w0009099959959999895666899966666666366634363546333669q969q96966q666766646966667999779e9989909696669900990000y00r00000qtiwwtikdphccxvvcvvcvvxvvvvvvvvvvvvvvvvvvvvvvvxvvvvvvvvvvvvvvvvvvvvvvvvvczzzkhhhkjkhkkjhkhkhhkhphhhfhhpkhhhhhkhchhhjdpihppipsppddpddhjhhdppippaapdpphddppidpddipdhdppkkkadddhhhzzzzzzzklzkkzfzzkkkfzlzkkckhhddidididdiiipiippiiiiippiaapyiiapppdsdddadkdddaddpdpddhhhdpdpidsdiipiiiipppppiiiiihijvcvvvvvvvvv",
"kkklzvccczzcvvxvccccvcvccccccvcccvvvvvcccvvvczzzzzdjdkddhpiuiiiriuiuduppiphkkkpp00w00pddikdiypkdppphkghi99ww9wwwwwwyruwruuuiuiyiyiyiiiiyyw7wwwqriyyiiyihuuwuwuwyw9992>,<<2225635666325ykipw<www*<221=,=1<159999090trtrruyippyiiyuurrrurwwuutwyuyyiiuypkpdhhhhhdhhhhkhhkkkkkkcccccccccckfhjkhhhhkhkhkhhhdpppadpppadhkkkhhpiiiafhhphpiipaauaddhhdppyiippiipiypiyyiiyiiiiiiisurrurw0ruuyyipyyuddspdpadhhddkddkzkzlkzkkzzlzkkklkkkkhhhhhhhhpipiuruurytyryuuuyrrqrwyyrwrrrrrrwrrriiiyuwwyiiiayiyyyyipsdppppkkahhlvvvvvvvvvvvvvvvvvvvvvvvvvvvvvpipipcvvvvvvvvvvvvvvvvvvvvvkpiihuzvxlvvvvcvvvvczlllldwue809rrpsw0000w000000wwwr0w90tw998t99t6926qw625668uhhkkhhkzcccvzhpppahpphdaphhfppiddsidpiiiiuututrrrrrruuiiiiypipsuww09000000w0w0099wwwwrwrruuuuuutwrww00600ww00w0w00096690006000999909650006699636669996997q66635<2343623344555699q6996q963977636696363369qwwwww000e06599696699900000009www0uu0060wuiusdkjdkccvvvxvvvvvvvvxvvvxvxvvvvvxvvvvvvvvvvvvvvvvvvvvvvvvvvvvvvvvvxvkkkkkhhkkkhkhkkhhhhkkhhhhhdhhhdhhkhhhjkhhhhdaippddppphppphhhkhdhddappdiidddippppppppppadpipfkkdddddkfhkkzzxzzzlkkkkllkfkkkzzzkkkkjhhhdididipidsiiipppiipiippipiiiippddddddddisddsidddakppfhhpphpppppyipiipiiiiiipipiipdkcvvxxxxxcvc",
"lkklzzczczzcvvvvvvccccccczcccccccccvvccvcccczzkzzkkkkdkdhdiiiiiriuuydupipphcccpp0w000pdddddppppkiiipphiiwqw9w9wewyyrrrwyuuiyiyiypypyiypyy77www9wpiiiiuihiuwywuwww09w2,<<,2225555366667ihapw2yww,12811==11<28859090rrurrryypiiiiiuurrrrurtyutwuutyiiuikkphdhhhhhahkhkkkjhjhkkccclccccclkkkhhhhkhjhhkhhhhhdppppdppdakjkhkhpiiphfhpdjpuiispisdpdhaiiiiyiypiiyyiiiiyiiiiaiiisuuurwwwwuuuuuupuuudhdpddhhhhhdkkkkzzzkkkzzzzkzzlkkkkkakkhhhhhhhpiirwrrryutyruuyyrrywrrrryrryrryrrrriiiurwwyiiiiiuiiyiidippppadapkzvvvvvvvvvvvvvvvvvvvvvvvvvvvvvvpipppcvvvvvvvvvvvvvvvvvvvvvzhhhhyhvvvvvvcvvvvvckkllli0w9596ruddew00www00900wwwrwr80w9559w09i9q9992><5768ijkkkhhzccvcclhpppappahhhhdhhpaihhippiuiiuuuuywurryuuuuiuiiiipysyww979000we0000w000wwwwrrrussuuurerw000900w090000009099000w00099999996568066966476q9996696q66663<53367<362<462799996696996996636q766663699w997q0000099096696999rr000009000000090wuusssjzddkzzcvvxvxvvvxvvvvvvvvvxxvvvvxvvvvvvvvvvvvvvvvvvvvvvvvvvvvvvvvccckkkkhjhkkjkkhjhhkhhhhhhhhhddhhhhhhhkkkhhhhhppipdppppppppphkhhhhdadddippddaddpdappappapppiphkhddpddkkkkzzzzzzkkklkklkkkkkkzzzkkkkkhhdddidiipdiiiippppiiiiiiipiiiiippidddsdsddpddsddddppppphhhppdpppiiiiipipiiiiiiiiippphcvvvvvcvcvc",
"kkkklzzzckcvvvvvccccvccczzzzccczcvcvvccccvcczzkzkkkkjkdkdpiiiiuruuuyiidiipakzkdptw00yddddddkdyyhwwwuiiiiwwww99wrwywryruwruuuiiiiyiypyiyiirrirewrpiiiiyphirwwwwywq66q2<,22,22336569656wipihw4wwt22222,,11<<12<<90900rrruryuippiiiuuurrurwwtywyuiipdiipfkpadhdhhhhhhhkhkkkkkhlcccccccccckkhkhhhhkhkhkkhhhhdpppaddphkkkkhhdayiihfhhdppuyippiiaahhdsiiiiipiypiyppyyiiiiiiiiaiuiuuur0wuityuuptuiphdddhhhhhadhdkkkzkklzzlzkzzkkzlkkkkakhhjhkhppiirwrrquutyryttyryrrrrruyurrrrrrrrrtipiwwwipiiiiiiyyiphhdippaadpzvvvvvvvvvvvvvvvvvvvvvvvvvvvvvvcpidphvvvvvvvvvvvvvvvvvvvvvvcckjhyuhvvvvvccvcvvckkllkw866865wwuu00wwwww00000wwwwww89w9959w09w903q6<><6q99ihhkkkhzcccvvzkapppppphhddhhhiiididpipytityuyytyuuuuuuuiiiipipiiuyw059000w00009090ww0wruyrruuuuww0rwe00000006609900000900ww0009989996686096800666q799966976663624434365365<333669q669699996663267q66666697979wq000009909999600000r0r009000000950rrruuigjdddlvvvvvxvxvvvvvvvvvvvvvvvvvvvvvvvvvvvvvvvvvvvvvvvvvvvvvvvvcvcclkkkkhkhkkkhkhhkhkjhhhkhhphaddadahhhhhkkhhhhhppipdspippppphhhhkhddhddppididdddadddppppppppipahpipdddfkzzzzzzzzllkklllkkfkkzzklkkkkjhhdpiddididdpiiipppiiiuiiiiiiiiipppdddsdddiddididdddappphhppdppdppiippiipipiipiiipahdkcvvvcvccccc",
"kkkkzzzkcccvvvvvvcccccvczzzkccclcccvcvcccxcczkzzkdddddkdhaiuiiuw00u0iiiiipaphkppsir0wyiddiddywyywtetwwrwrrwwqwwrwwrrruwrrruuyyiipyiyiyiyiipdirwwpiiiiiipiruwwyww03672,,22223555627622wppph95wie82211,,11,<21<<50990rtirruypiiiyyuuurrrrytiwwuippdddsppkphdhhhhhhkhkhhkhkkhkcccvccccccckfhhkhhjhkjkhhkhhhhppdddddkhhhhhhdaiiihpdphpiuiiiiiapdhhaiiypiyyipiiyipyiyiyiiiiiiiiiiturrtuuuiuiiwyssdpddphhhdhhkkdkzkzlkzkkzkzzxzlkkkkkkhhkkkkhdpppuuuuryutyytuytyrryrryutuuyywrrriiiiiiywwyiiiapppiyipphspdhhhhzcvvvvvvvvvvvvvvvvvvvvvvvvvvvvvvzpippzvvvvvvvvvvvvvvvvvvvvvvvcckhpyicvvvvvvcvvcckzkkhw55656500w050wwrrw0u000w0wwww50tw999905e696w9223996ushhkjhhzcvcvcckapippppahhhappaiipsipiyyuuuttuwytrsssuutyiyiyiiidiiyw09000000009w00wwwryurrrrruyrwe0ww00we0ww99099900000wwwe0090996999666606600666969q99q66q6663242423645632633666666699996666633963666697q9q99w000009909099000000000er0r00000960twwrrrsssjcvvvlxvvvvvvvvxvvvxvvxvvvvvvxvvvvvvvvvvvvvvvvvvvvvvvvvvvvckcvlkkckkkhkhhkjkhkkhkhkhhhpdapdpddhhhhhhhhkkhkhhpypspppiispppdkjhkhhdadddpiiidddppddddppppapppppppippddakzllzzzzklkkzkkkkkakkkklkkkkkkkhddddididiiiiiippiiuiiiiiipiippppdddsdssdsdddsdddappdkppphfpahpapppiippippipipipphkjcvvvvcxvcvcv",
"zkzkkzzzzzzvvvvvcvcccccccxzzzxzzzzzzcccczcczlkkzhkhadkppddiiuir7u0u0iisspiiippppdssrwwwtuiiuwwwyutwuwtwewrwrwwwewwwurrwyyyyiiiiiyiiiiyiiiiiptw97iiiiiiyirwrriwww0569<,<22225556657624wikhi83tiw28111,111:111<2599990rur0yppiiiiuuuuruurrwuutipphdhhpphhpddhhddhhkhhkjkhkhkjkccvccccccckhhhhkhkhhkhkhhhhhhdpahphpkhhhkkhhhiiahhppppiyiiipiippahpiypiiiyiipyipiiypiiiiiiiiuiissur0uiiiiiipwuipsppppadhdddhdkdczzzkfzkkkkkkzkzzkkffkhhjkkhdidiuuuuruusyyuutyyrrryyutuyrrrrwquiriddiirriiiapppuurphpkdpdhkfhvvvvvvvvvvvvvvvvvvvvvvvvvvvvvvvvcpiphvvvvvvvvvvvvvvvvvvvvccccckkpjiyavvvvvcvcvccczhsiw556565twrw56wwtww0i06600ewwu60r955519209r099969q99skkhkkdhzcvvvvccdppippppphhphpppipidiiiyuuuuyuuuuuuuuuuryiiiipiisiiyuyw900000099900wyryiuutryyww0rwwrew0ww0ww999900wwwwww0060000998908098606809869969qq9q69696343<432262565<6627666666669666393636666666q79q9q7www000000w99090000000r0r0www0w009rtrrrwudpphzvvvcvvxxvvvxvvvvvvvvvvvvvvvvvvvvvvvvvvvvvvvvvvvvvvvvvvvvccccxkkckkkhhkjhkhkhkkhhhhkhhphppadphhhhkkhhkkhhkhdyppppssspappfkhkhdddhddddiisdddppdaddapppdppppppaddpphkfkkzlzzzkkzklkkzlkkkkzlkklkkkkhhhpidpippipiiiiiiiiyiyiiiiiiiiippphddsddddididddddpppphhfhppaddhppdiiidpppipiiipdhhkkcvvvxvcccvc",
"zkkzzzzzzzcvvvcvvcccvcvczkzzzzzzzzzzcczzzzczkkkkhhppdhkpapiiuurw00u0iusipiiiipddddduw00w0wrwyyuuywwihiiwerrrwwwrwwyryruwyyiyiyiyiiyiiiiiuiidiu96yiiiiuiywrruwiwwq6792,<<<<255666566350yfps29wi9,11111111:,11158858990trryppiiiiuuurrruuuuuuyihkfppppphhhahddhdkhhhhkkkhkkhhccccxcccccczfkjkhkkhhkkhhhkhkhhdpphphhhhhhjkhppiaddpppiuipispiiipphpypiiiiiippyyiiiiiaiiiiiiyiiissirriuuiiuuiwwsiipppppddhdhhdkkzzzlklzkkkzzkkzkkkkkkhhkhkhhdpiiurriruuutyytyrrrrrruyyrrrrrrrrrriisdisiripppiupuuydghddhdhkklvvvvvvvvvvvvvvvvvvvvvvvvvvvvvvvvvzfpcvvvvvvvvvvvvvvvvvvvccvvvckkpji7fvvvvccvvvcczziiiw569696rww6580wwrr0r656900uew6wrw99020909096796669qgjhkzkdkkzcccvvckdppppipphhhpppipisipuyyuytuuuuururuururyiyiyipippippsw96060900009wruyuiuuyrrrrw0ewwwrw0w99w0099000wwrwww0066000099900069006599666q66999676966633<533674463536366363666q9896999369q6667697q797wwwwe000009w0000w0e0re0009wwr0q0000rwwutudjhhzvvvvxvvvvvvvvvvxvvvxvvvvvvvvvvvvvvvvvvvvvvvvvvvvvvvvvvvvvccvxkkccjhkhhkhhkhhkkkkkkhhphphdpdphhhhhkhkjkhhkkdpispppssshhhfhkhhhahdhhdaddddhhhhaddappdaappapaiiddddhkkhkklkkkzkzkkklxkkahlzlkklkkkkhhhpdpidiippiyiipiiipiiiiiiiiiipppppdipidsdddpsddhappphppphhhhddddppdidiappppippdhkhhjcxvvvxvvccc",
"kkkzzczzccvvvvcvvccccccczlklzzzlzzkzzkzzzczzkkkkhhppphppappuuuww0900uusipiipdsdddddsyy0rw0wipitwyyuphhpyrwewwwwrwwyrruwryyyiiyiyyiiyiiiippdhhhtwyyyiiiuurruuiwyww99q2,<<,<2236566556660ipi28772=,,,1111,,,,<289858990rr0iiyyyiiiuuruuuuutuuuihfpdpppphpphddhhhkkhhhjhkjkhkhkcvcvcccccckkkhhkhhhhhkhkhhkkfhhphhdhjkhhkhkhhiiphappiuuiasiiiiiiadpypipiipiipiyippyiiiiiiiiiiisisiyrtutytiiiwisppupippapdhhkhkkkzzzkklzkkkkkkzklkkfhhhhkkkhpdiiurrrrusuyutuyrrwrrryurryyyyqyquuisddssiiippiiippuidhpddaddkkcvvvvvvvvvvvvvvvvvvvvvvvvvvvvvvvvvvccvvvvvvvvvvvvvvvvvxcxzzccckkdhpuizvvvvcvcccckzkiidu960900uw916990wruwr656066w0w60u0rut2t0088899636697shdhzkddzcvccccchdppppiipdhapppppiidiyuytwyuyyuiurrruuuuiiiipippppiiisuw69990999wwwriyyiururyyw00wwwwww9w999w990e0wwwwwwwe0000009998008060899998666669q9669663342<43<665264<66463223668999997966697q7qq699q7q7ww00ew0000w0000w0ete0r0r00r00000000r0wrrrshdpklxvvvxvxxvvvxvvvxvvvvvvvvvvvvvvvvvvvvvvvvvvvvvvvvvvvvvvvvvvvvkzcckhkhhhkjhhkjkhkkhkhhhpdhdpdkhhhkhkhkjhhkkhipippppphhhhhhhhdahhdddddddhhhhaddddpddddapipppiaddhhhkfkklkkzllzkklkkxkkhhxzkkkzkkkkhhapddpipiayiyiiipiiiiiiiiyiipiiipppidppdsdidspdhdppphhhhpphhdhdppdiiipdpdppipiphhhhhhkcvvvvccccv",
"kkkzzxccccvvvvcvvcccvcvclkkkkzlklzzzkzzzkzzlkkkkhhkphdappppiiww70900irsiiiiidddippsddurwu00djiwyywypjkiwrwww0wrrywwyrrywriyiyayyiyiiipppdhhkczdriiiyuiiiiiurytywww992,<<,,<2266662<56557ii12<2:=,,11111,:,::189895900ruuyyyyyiiputtuuuuuiiiipppidiphppphhddddhhkkhhhkhkkhhkkcvcvcccccckfhkkkkhhdjhhhkhkjhhppdahhjfdhhkkhhaiphpppiuripsipiiiphhaipiiiippipyipiiipiiiiiiaiiiipppur00wwruiiwssaupppppddhhhjkhjzkzkkkkkkkkzlkkkkkkkkhhkhhhdpddiirtirtputyuuyqwqrrryurqwyqqryrittshddsidhfaiypdppudppddhpphcxvvvvvvvvvvvvvvvvvvvvvvvvvvvvvvvvvvvvvvvvvvvvvvvvvvvvvlzzkkcckkkpkyyhvvvvvvvvvcczjhiisi0809wwsrw58660wsuwr85605560w66090rw,e0000999999632sgdhckhkkcvccccckappaayipdhdhpppdiidpuyyywywttutrrrrrsutyyyiiipiyppyiiir66990000wrruiiiurrrry0009ww0eww99990www000ewwwewwwwww065968980006006599986966999q6966663<4<5<53<235263464264866999997763366666666677qqqw000www0ewwwwwwwr0000er0000r00000rrrrrr0iiiikcvvvvxvvvvvvvvvvvvvvvvvvvvvxvvvvvvvvvvvvvvvvvvvvvvvvvvvvvvvvvzzcckhkhkkhkkhhhhkkkjkjhphaddadhhdhhkhhkhajzkhpippdpphhhhhhhhhdddhhahhdddhghdddddpdpddaaiippiiasdhkhkkzkkkzzkkkllkkkzkkallzkkkzkkkkhhhpdpppppiiiiipppiiiyyiyyyyiiipidppdiiisdddidpdhhdipphfppphhhddapiidiiddapppipdhhhdhkccvvvxcvvcc",
"fkkkzzvzzzzvvvvccczccczzzzzzlzkxkkkkzkkkkkkkkkdkkhpphhpaihdiirw909r0yyiddiupddiiddppddyit09upiyyqyuiiiuwywwwyrrrrrrrrrririirryiiddipiippzccccczzpyihiwwiiiwtyuw796539=,,,1,<26936699626581:@*::,=,11111:1::::22895890r00rurruuyyrwuuyyiuiiiyppiipippphaddhphhhfkhkhkhkhhhhkkccvxzcxccckkkkkkhkhhhhhhhhhhkhhdphfkhhhhhkkfhpiiphppyuyppppiiiipaddiiiiiiiipiiiiipiiaipiiiiiiiipiiiy0y0yriiiyipspddssddhhjkhhhkkkkkkkkkzkzkzklkkkkkhhhkhkfpiddpuyyyptuuutuutyrwqwruyrwrwwrwwyiiiddddiidhhhhdhjhippddccczppzvvvvvvvvvvvvvvvvvvvvvvvvvvvvvvvvvvvvvvvvvvvvvvvvvvvvvcckgdjkkjkkhpdzvvvvvvvvvvczvkysyii80rw0wrw522566000r0954w990we66w96uu9r0s000099r598sidhhkzkdklccccvchppaddpytshsihdpdiiiiwwwywuuuuuurrrrruuspyiyiaiypppiiiy756999wwwwrruiuiurrwuurw096000990w0ww990r000wwww0w000099666909990e099665566677q7666q63634<<3233454266636633366669696969636697q766697q7qwywwwrewww0rr000w00rr0tr00w0000q00wrewirriipkcccvvvxvvvvxvvvvxvvvvvvvvvvvvvvvvvvvvvvvvvvvvvvvvvvvvvvvvvvvvzzccczjkjhhhhhkhhhjkkhhhhhhhhpphhhhhkhhkkhhphkkpipppppphhdhhhhhhppahdhdhghhhhhdhddppahaippiuiiiidddhdkkkhjjkzkllklzzzczkklklzklkjkkkddddaddddpiiiiipiiipyipyyyyyyyiippppsiddsdiispdssdddphppapdphddhhsidiiidphihiiigjkhhccxvvvvvvcvvx",
"kfkzzzzxzzzzvvvvcclzczxzzkzkkzzkkkkkzklzzzkkkjkdhhppphhpiddiywww5809y0ddddidpiiddddpddppuq0uyyyytyyyyyytwwrwwywyeeerwrrrriiiiphfkhhhhpphcccccxzzppiphiyiiywwwuww96638=1:,22,26622625562628*@*::,811111::::::>,2252990r990urruiiyruuuyyuuuyyiipppppppddddhpphhhhkkhhkkkkhjkjkcccczccccczkzkkjkhhkhkhkkhkhhhhpphhkkhhhhhhpdsiiippsryuiupppyappdhapiiiiippppipipipiiipiiiiiiiiipiiyrrr0riiiyppppppshshsdhhkkkkkzzzfkkkkzzzzkkkkkkfkhhhhkfppsdpiuuyiuupuuuuuyywwyryyyrrwrwrryiiiiddsdsdhkhhhhhdiupdkcvczkkzvvvvvvvvvvvvvvvvvvvvvvvvvvvvvvvvvvvvvvvvvvvvvvvvvvvvvvczhdkhhppapzkcvvvvvvcvvcpplhydiis6wuy00r0551569006wt095w2456680rwerr8r0iw900990598ippddhkhdkcvcccxchpddppdyishsihppidpiywytytwutyuwrurruuuuyyipiiiapiiipyy0696669wwyrutussurruruwww990ww099990999wrwe0www00009099966690999009668995366666qqq7766333<<<3336363666666633699q7696999633636666639699q9w00wwwwww000rwr0wr0000r0tw00wwww0qiiwriwwphkccccvvxvvxvvvvvvvvvvvvvvvvvvvvvvvvvvvvvvvvvvvvvvvvvvvvvvvvvvvkzcczzkkhkhkhhkhkhkhhkkhphppphhhhhhhhkkhhhhhhkkiiiipppphhhhhhfhhdhddddaddhhhhdhadhpddhddpiiuupiiddhdhkfhhhkzlzkkkzzfzzzfkkkkkkkkkkkkkdkddddppppiiiipppiipiiiiyypyyiipppppddididddpdddddsaphpphdhhdddhhiiiiiipshhhiphhkkcxvvvvvvvvvxvv",
"hkkzzccxzzzzvvvczckczxzxzzzzzkkzkkzkkzkzjzkzjkjkhhhpppapdhirwwww09090yddiiiiiiididpddddpsuwuyyqywtyyyyuqwywrryryrrrrrrrrrrryphkzzjjjhhdhccvcccxcfpphhiyitwwuuyww96228=1,1122253265252252<2:+*::,81111::::::=,,12229990900ruruyiyuuuuiyiyyyyiiffphppphhhhddhhhhhhhhhjkhkkkhkkcvcxcccvclkkkjhkhkkhhkkhkhhkhhhhphhhphppphppdpippppiwrupppppiaipdkdpiiippiiiiiippdspiiiiiiaiiiiipiiyrrrrriiiuidppdppsdddhhhhhkkzzkzzfhkzzkzzkcckkkkfhhkkkhppsdiiuuppuipuuuuuyrwyrryyrwqrwuuuiiipsddddsshhhhhhhdipdkjzccccccvvvvvvvvvvvvvvvvvvvvvvvvvvvvvvvvvvvvvvvvvvvvvvvvvvvvvvvzhkkkapakzlcvvvvvvvvvvkipzarppid0tur09w05816660068w858r855u0erw968r9u0s00009r85990hhhhdhhkkccccccckddappditshphhiphspiieywwywwuuuuuuruusrsuuiiypiiyypippyyr06690wtuuisiutriruwrwww090000999696990www0www0000999957909999909969995866666q6766663344<<243644666666663336966w766639363666333636696qwy00w0wwe0t000rww000000tt0qw0qqw00qiieriiiphzcvvvvvvvxvvxxvxvvvvvvvvvvvvvvvvvvvvvvvvvvvvvvvvvvvvvvvvvvvvvckkjjkkhkjhhkhkhkhhhkhhkhhhhphpphdhhhhkhkhhhhhkkpippppiphdhhhhhhphhdddpppdddhdhdddaddddhpppiiiiipddhkkkhkkkkkzzzzkzlkzzfakkkkklkzkjjdkkdddddpppiiiipiiiiiyppiiyyituuiipppdsdddddsdidsddddpppphppaddddhidiiiiihshsdsphhhcvvcvvvvvxccvvv",
"kkkkzcczzzzzvvcczzkzzzzkkkzklkzzkzzxzzzzzkzkkkkdpphpdappdiirwuuw00r0u0usiiidpiyiuuidzkkphpiyuyuiyippkpiwwwryrwwrriiipidiiiyipjzkcjcckhdhcccccccckdphhppiuuuwwwwwq7623:1:,11<<2525555255518,*+:2,:1111:1::::1,12255955090ruuruiiyyiiiiiyyiiyiihhpppppdahppddahhhhkhkkhkkjhhklccxcccccczlkkkkhhhhhkhkkhkkhkhhhphhppappphhppiiiipiiwruuppppiiiadadiiiiipppiiiiididpiaiiiiiiaiisppiirrryyipiipdpppdpdsdhhhkkhkkzzlxfkkkzzzkzzlkclkkkkkjhkhppiipiiiypuipiupiuurwrwwwyrrrwwutuiiipsdddddishdhhhhhppdjzzcccccvcxxvvvvvvvvvvvvvvvvvvvvvvvvvvvvvvvvvvvvvvvvvvvvvvvvvvvckhphppkzcvvvvvvvvvvvvvlhkcpyyyiswiur090066560008609>28r990w56w90w0r9r0r00099r25599idhkkhhdzcczcccckdpdppaaiiiishhihiiiuwwtywwutuuwuuuuuuuuuuyiyiiiyippiyipuw69wwruususiuuriiuuurww990009699969090wwwwwew00009099990909099089699995366333696q6634232<233633666643363336666q66669663367662366679q7wye0rwwwww00000rwwr000000u00w0wwwweiiweipjkkkcccvcxvvvvvvvvvvvvvvvvvvvvvvvvvvvvvvvvvvvvvvvvvvvvvvvvvvvvvvckjzjjjhkhhhhhhhhhhkhkjhhfphhhahhhhhhhhkhkhhkkkzpiiiipapdhpphfhhhhhdaadppdsiddadddddidadppppiiiiidhdkhkkkkkkzzzzzkzzkkkkdkllkkkkkzjdkjkddadpppppyiippipiiiypiiipiiiipipppdddsdsddsdddddssahpappapsddididiiiidisshpdihhhkccvvvvvvvvvvxx",
"hkkkzzzzkkzccvcckkkzzzkkzkzzzzzkzzzzzkzkjzkjkkjkfhppppppirywuuww9509rrssdisdddiiiiijvvzdhdpipipsippkkhiwrrwwrrrriidddddddppphcckjzzczhddzzlccccvhpppkhdpuuwywwwwyq736;1,,12<<3325552255528,&@,1,1,1,1:11:::::1<15505900urruruyiidiiiyiiipiyppdppppppfhphhadhhdhhhhhkhkkhhhkkccvcccvccckkkkkjhkkhhhkhkhhkhkhhhhhhipdsdddipsiiiiypitiiidppiiiidddpiippppppiypiipppaiippipiiiaissiiuuuwispiisppspdpddhhkhkhkkkkzzzzkhkzkzzflzzkkkkkhhjkhhdipiipiyppippiiiiiuyrwwywwqrrwuuiiiiippadddssddhhhhhhddhkzzzkzzvccvvvvvvvvvvvvvvvvvvvvvvvvvvvvvvvvvvvvvvvvvvvvvvvvvvccvzjhppppcvvvvvvvvvvvvvvvlcccuyiiuswwrww0w959600009800:59u000059w9ww00502999098t<25880iskkdddzlccxcccjapppphpiiiihfppiiiiyywwwywtwuuwruruuuruyuruiiiiiiipyiiiiw660wriuuuuutuuriisyrww0990096900600000w000ww0ew00009999999900w669999966333366696666432<<2<4636632443243<3432696623666566963366669997wr0rrr0wwwtw00www0000000009qw0ewwwiwwiuwdkkjzcvvvcxvvvvvvvvvvxvvvvvvvvvvvvvvvvvvvvvvvvvvvvvvvvvvvvvvvvvvvckkkjkkhjhkhhhhkhkhhkhkkhhhphphddhhhhkkkkkhkkkkkhiiippphdhhhhhhhhhppahhppsdiddadppdppdddpppiuuiiphgkkzkkkkkkkzkzzklzkzkkhzzzkkzkkzhhhdjppddddapaipipipiiyiypypypiiiiiippididdisddpdddsdddpppappapdsdiddiiipidddihidddddhkcccvvvvvvvvxv",
"hhkzzzzzzkzcvvcczkkklzkkzzzzkzlkzkkzzzkzzkkkkjkkppppipppiuweuwwq00uwiuiudiidkjdiipdjcckppiippphjdkpppkpuywrrwrurrttddpidddhhjcvccccczhkdzkccvccchhhhhkhhutwwytitiww99>2,112225555552525511,=@;1,11,11::=11::,1<<<2099t000rrruiiiiiiyiyyppppipdkpphpphphpddaphhdhhhhhkhhkhkkkcccxcccccxzkkkkkkhhkhkhhkjkhkhkhhhhddddppspipiiiyiiiiisipiipdddpdkapiiidipiyiiiipiiiiiiiiiipisissppiruuuuppsipppspdpddhhkkhkhhkzzkzzkkkzzkxlkckzllklhkkkkhdppiippyydppdpiiiutyrwywwwwqqruusuiiiiipddhdshhhhkfkkhhklkzzkkzcvvxvvvvvvvvvvvvvvvvvvvvvvvvvvvvvvvvvvvvvvvvvvvvvvvvccccjhhkpkkcvvvvvvvvvvvvvvccvckriiisrwwwwwwe969608609608115w0u0wrturw00w502999099r2599900ihkdhdklccccvckdphpahpiitipppppiiwwwwwywwyyuwuyrruurruuruiiiipiyiipyyiur00wwtsutuuusuuriuuir7w996008990000000w000wwwww00000009967900006966696666336666696663343223363463224<<232326669636666523676636799w9wwwrrrr0trwwrwwt0000000000909wwwwwwwiwidiipdkzkcvvvcvvvvvvxxvvvvvvvvvvvvvvvvvvvvvvvvvvvvvvvvvvvvvvvvvvvvvvckckkkkkkkhhhhahhhhhkjhhhhhhhpahhhhhhahjkjkhkjkkjhpiipphhahpdhhkhdhppppfpppiiddhddpdappdpppiiiuiiidhkkkczkkkkkllzzkzzkkkkazklzzzzzkkkdkkkhadddapppipipipiiiiyiiiyitwuiiippddsdsdsddipddddsppiappppddididdiddddddhsddpjhdpkkkcvvvvxxxvvv",
"khhkzzzzkkxvvvvclkklzzkkklzfzzkzzzkzklfzkkkjhjkkkhppiaphddiiuwwtpphpkyiuiisdddddpppjkjsiiipdkzkhgdpaphpurrwrurrrrtidpdpppppphccczzkckhhkhkzzxzkkhhhhhhhhiuwwwiisiuqwt<32,12<2255252525221:11*+::111,:::1:111,,,,>2959w990ruuuiiiiiiiyyaiipyiidkpfhphhhpadhphpddhdhhhhhkhhhkkcxccccccczzzzjkkhkkjjkkkhkhkkkkkkhdpdddiipiupsiiipiisisipippspdpdhhdidppipippiippppiiiiiiippiiiiispiruuruppiispsispsddshhhhkhkhkzzzzhkkzlkzzzklczkkkhkhkkhdpdipppuidppapppiiuyrwwwwwwwwrututiipiipdphddhhhhkkkkkkklkzkzzzcccvvvvvvvvvvvvvvvvvvvvvvvvvvvvvvvvvvvvvvvvvvvvvvxzxccckhphkzclvvvvvvvvvvvvvvvxcxkaryyiirrewuwww960600908808:450yi09ruuiuuuw9080w00wew0800000usdkkkkkkkkzcckdphddhpiwwippiiiiwwwywwwwwwywuwrrrrrrwyurruyiippiyiyiiysuiuyuiuuuuuutsurrirww070900090000wwe00w0000wwww00909099769900996666696643666366667366363<<34633642<<222822336796666696256666997999yw9wwrrwrww0twrrw99990999999099wwwwttrridihhizzkcvvvvvxvvvvvvvxvvvvvvvvvvvvvvvvvvvvvvvvvvvvvvvvvvvvvvvvvvccckjkkjkkhhkhhhhhhhkhkhkhhhhhhpphhdhhhhjkkjjhkkkjkhipippfhhphhhkhhdhppphhhpdpiddhapppappddpppipupidsdhkkcckkkkkklllkzkkzzkakzzkzkzzkjkhdkhkhdpddppppiipiiiiiyiyiypiwywyipppsddddidsiidsididiipppippiiiiiiddididihhhdppdhdphpkkcvvvvvvxvx",
"dkkkkzzkkzxvvvvckkkkkzkkzkzzkzzkkklzkkzfkkkkkkkkkkhhppfkkjjhiuihapkdkppuiiiddddjkkzjdssstiidzclhddpfkkiwwryrrrrrriihddappdpidccxzzkzkhdkapkkkkfphhhhphdhhiwwwisiiuuwt293=,<<<2352252521,8,88:+::=::,1111:::=::>,2>2>2959000ruiiiyiiiiiyiiiiyiappkphphhhpddhpaddddpphhhhhhkkjcxvcvccczzzzkkjhhhhhkkhkjjkjhjkhhhdpidiiipdipppiiyypissppppppippdkdppdiipipipiippppiiiiiipipaiiiiiiiwuruuspiiippippsisshhhhhhhhkkzzchkkkzzkzkkkkkkkjhhkhahpydsihyridppappipputywwwwwqwruuuuuiiiiippddsdhjkhhaklzlccczzzzvvccvvvvvvvvvvvvvvvvvvvvvvvvvvvvvvvvvvvvvvvvvvvvvcxzxccxkppdkzczzxvvvvvvvvvvvvvvcvkhyiyyyrrwruwww680600ewe0081519wi9wirww09u09r9ww09099020800r0yidfkphakdkzzkpahhhhpiwwipdpiiiywwwwwwywwyyturruuurrwruyiiipppyyyipiyissuuuuruutsuiuirirrww0009000000000w00wre00werw0999999999699096706666866366666666666663633343334633423433223436996666963663366966999999wwt0w00wwwrtw96598998990070wwqwrrrriiizcikjkccvvcvxvvxvxvvvvvvvvvxvvvvvvvvvvvvvvvvvvvvvvvvvvvvvvvvvvvvvczhjkkkhhhhhhhhhhkhhhkhkhkhhfphphhhhhkkkkkkhkkkkkhpiipphhhhphhhhhdhpppappispishhapppppppapppppuuiisdhkkzkkzkkkkkkkkzzzzzkkzkzzzzkkkkkdkdhhdapdpdppiiiipiiipyyiiiyyuuiiiiipdiiddddiididdsdippipppiaidiiidiiiddihihigppdhpppppkcxvvvvxvcv",
"djkkzkzkzkccvvcckhhkzkkkzkkzkkkkkjkkkkkkjkkhhkhkkkhpphkkhjhhhiikdikkdjdiiiiyuydkcckfkhplpipkvckkiuuidiewwwwriiidiipppppppppddkkxckkhhhhhhhhhdhdddddddaddpiw00w06w693q0uy21:1111321822221,1182:=;::11::1:::::::1112111992900wqtuiyipiiiiptsiiiiighdahhddddpdaddddhphhhhhhhkhzcvclvccckllkkkkhkhhkkkhkhhhkhkhkaappppipipiidiiiiddiiiiiipispipdjhdppididdpipypppipipipippppppipuppuyyiiididriididiipappdkphkkhkzzzlkzlkzkckzkkllkkkkhhhkhiiipppuiiakphhiiayyyywqyrrrwrtitiiiiiisadhdppdkhhhkkkzcccccccccvvcvvvvvvvvvvvvvvvvvvvvvvvvvvvvvvvvvvvvvvvvvvvvvvvcjzcjhpiypkcckhzccvvvvvvvvvvvxckpwiiitiewwrrr9999590wtw52922198w96yid0w79q4wyi792w90505000rrrridccdddhhhhhphhhhhppiirisirirerewewwwwwuwiywyuwiruwiyyyiipipiyyypiyduwwuuuiittuiuuwuwwuwrw086666800000www00w0w0w0099999w999899989999899985873736633736764664336643363222222334333696666q63366666666969997wwqwwwwwwwrrer99909996990wqwwwewwriiiyyppyakaahlcvcvvcvvvvvxvvvvvvvvvvvvvvvvvvvvvvvvvvvvvvvvvvvvvvvvvvcckjkkhkkhhkkhkhhhhkkhphhkkkfhhhhhhphhjkhkkkhkkkkklkpppphahhdddhhkddhppdpdppappphhhdidsiihiiiiipuuiddddkkxckhkkhhkzkkklzjkkkjhdhkkkjkkkhkkhhdaddddpppiiiiiiiussisuuspiipisdiihpipiipppiippppippppiiiaipiiaiiippppdpdpsddisdhkphxvcvvccvvc",
"dddkkzlzzzkcvvckhhhkjkkkkjkjkkkkkjkkjhkjkhkhhkhjkkhdphjhhjhhhdphdpdkdkkiiipiyidkklkkfhhkhppkckhhdiuwwweiwrwuiidiidhhppphpddhdhkkkhhhhhhhhhhhadhhdadaddddhitww000w0q500uy932112222222212111111::+=11::::::1::=11:1222599290rruissiiiiyiyiiisitishdddpahhppdpdddddphhhhkhkkhkkcccvcxccckkkkkkkhkkhhhhhhkhkhhkhsppapipipppiipipdiddiiiisppppppdhhhhsdidpspiipppaiiaiiiiipipupupupusuiyiiiddiipidiiddpdpppkphhhkzzkkkkkkklkclkkxzzlkkhhlkhppipaiiiaafphpiiiiyiywrryrwwwtuuiuiyiiussappsdhkhhkkkzxccccvcvccccvvvvvvvvvvvvvvvvvvvvvvvvvvvvvvvvvvvvvvvvvvvcvcvvccjsiuiidkcccccccvvvvvvvvvvczckiwttiiwww00999559990wwq727<2,2299wuyi7wqq02wut7w7w606060w0ruurisdkdddhkhpdppahhhhssiutisitrwrwwwwwwwwwwwtwurrwrwiyiiyyiiiyiiiiyiidiuwuuuiiuuuuiuuwuwww09595566990000wwe00000ww00995999999099889999999956637633664333763366666336363233223343433376966q764636666669999qqqwq79wwwqwrrwq9990999799w99wwwwwrwyiiyyipiiahphkcvccvvvvvvvvvvxvvvvvvvvvvvvvvvvvvvvvvvvvvvvvvvvvvvvvccczkjhhkhhhkhhhhhhhhhhhhdhhhhhhhhdhphdhhkkkkkjkkhkckkpppaphhhphdhhhhddapaddppppppshhgdihhihihpiiiypppppdhklkkhkkhkjzkjkkkhhhhkkkhhkkkkjhhkkkhddddddppipipiiipuuuuruusiiiidddiiipipppppipiiipiyiipiiiiiiiiiiiiiiipppppddipgdddpphlvvvvvcccc",
"ddjkzzzkkkzcvvvkhhhhkkkjjkkkkkjjkkkjkkkhjakkkkkjkkfddhkjhhddkkphdddkdkkyiiiiyyidhfhkkhhkhiijkfpphiiww7wuwwrriiidddddppppppddhppppappdhhhhhhhhhdhddhddadhpiwww00qtww600uy9q81,282822112221821111;=:1::::::::=::,111289699990qwisuiiiiyywuiiirtuisdhphdddpphdpdaddhhhhkhhhjhkkccvxcccclkkkkkjkkhhkhkhhhhhhhkhkaspppppppipipiiiidpiiiidppppsppdhhhpsidippsipiippiipiiiiiiipupiippppiuppidppiidpiiddddddkpkhhhhkzlzlkkkkzzckzkkzzzlhlkhlkjaiapppadpdhphhiiiiuuirrruwuuuuuuuuiyyyyiiispidhhhhfkfzzzcccccccvcvccvvvvvvvvvvvvvvvvvvvvvvvvvvvvvvvvvvvvvvvvcvvvvvvvkpiiphhkkcvvvxvvvvvvvvvvvvlzfpiiirwiuy00979999990wqq93u632329quuywywww76www7w07696w6wqrrrruuiikjdkkhhhhpphhhhhdstrrssirwwwewwwwwwwwiwtiywwwiiryyyiiipiiipipiipsutrytuiiiuuiiuurwuww0756865880000090066900ww0we0999999w099999990995999566363336333663336633666666333233433633666666666433666667797qwqwwww7qwwwwww09900990009wwwwwwwwwrwyiiyyipyipppakzcccvcvvvvvvvvvvvvvvvvvvvvvvvvvvvvvvvvvvvvvvvvvvvvvvcczkhkhjkhkhkhhhhhhkhhhhhhhhhhhhdhhhhhhhjhkkkkhkhkkckkapadphdhhphhhkhahppdhhppppppddhdihiiiihipipipppppdhkkkkkhkkhjjjkhjkkhhdhhkkkhhkkhhhhhkhhdddhdpppiipiiiiiuurrrrusiiipddpiiiphpppipiiiipiyiyiiyiyiiiiiiiuuiipippipiipphhdipippzcxxccvcc",
"dddkkzzzkkccvvckhhhkjkkjkkkkkjhkkkkkhkkhhhkhjkhzkkhpphkkdhdhkdpadddjkkdyiiyyiiuuiphkdppaiyiippphddddiuwwrwwriiiiidpppphpdppdfkhfhahphhhkhhdhdhhdddddddddpyyuwwwiuyt3qtpyqeq2,,2222221212111,1211+:::=::::::=:11,,1229269590wruuuywwiwiiyitiiuwispppdhhahpppdpdddphhhhhhhhkklcccccccckkkkkjjhhkkhhdhhhhhhhhksadpppiiiipiipiiiiidiiiiippiipippdhhhddidppippipppaippipppppiiipsppppppipdipppiiiidddddadpkhkkhkkkzzkklklkkzlzkzzzzkklkkkkhaspippdhhdhhhpiiaiuiiyrrrrwuuuuuuyiiiiuiiipiishkkjkkkzzccccvvccvvccvvvvvvvvvvvvvvvvvvvvvvvvvvvvvvvvvvvvvvvvvvvvvvvvvchhhjjkkjkcvvxvvvvvvvvvvvckkayiiriiruuiu0659999900q099u2222:6990uwi00qy0uwi7wwq606w0uwrutiiiiivcddhhhkhhhphhhhhsrwrisiww9wwwwwwewtywyiwtyiirriiyiyypypyyiiyippsuwuurutiiuutuuwwuwuw096666900000060096600000w0009999990w99899990099598963344466636634466666666676366636334674369q66q663663766q6667q7wwwwqwq9qwwr07q00090000wwwwwwwwrrrryyyyyiiiippdpkzllccvvvvvvxvvvvvvvvvvvvvvvvvvvvvvvvvvvvvvvvvvvvvvvvczzzkhhkkjhhhhhkhhhhkhfhdhhhhhhhdhhhhhhhhkkkklkkkkklckdphhhddahhahhhhdpdpdpppisipidsdihhhriishpiiiuyypphhjkkkkkzzjkkzkhkhhhhdhhhkhpphhhhhkhhhhadddpdppppippipisurrruuiyiiisipdiiipppppiipiiiiyyyyyiyiiiyyiiyiwiyyiiypyuuipdpdiipiipxvxvccxv",
"dddjkzczkhkkcvckkkhkkkkkjkkhjkkkjkkhkhjkhdkhhzhkkhssihkzdhhhhiyydkckddpipyyuyyyuiifkppppyyyippppidhhhiuwwwriiiiiidshdhhhkhhphhhhhhhhhhhhhdhdhpddadppdddphiuppyippuw5tipytutt8,,222212<11:11,,11:;;::=::::::::111,,28928900rruiuuytwyityitiwwwyisappdhhdpppddddssphphhkhkkhhzcvcvcvccckkkkhjkhkhjkhhhhhhkkhddppppipiippipipiiidippuupppispppddhhhddsiddpipiippappissspppipippipippiipipppdiiiddddadhdhdhkhhfkzzklkkklzzkzzzzzxzzfkkkkkdspappdhkhdhdhhiiaiusuuuruwuuuiiiiiiiiyuiipdiiphkkkkkklzzccccvccvvvccvvvvvvvvvvvvvvvvvvvvvvvvvvvvvvvvvvvvvvvvvcvvvvvczhhkhhhkkzcvvvvvvvvvvvvvvvchpiriiiirrriu0<266288999990w<2,,*2719twi660itiqiww7t009rwuwriiiisiuckkdkkhhhhhhhhhhdsurriitwwqwwrrwwwwuutiwrrrrririiypppypyiyyiiipauywutyuuiiuurirrruuwwe966666000009990099000e0w000666959009996999999895996634336666666336666666q67666863643366646666666346366q6666697qw7qwwwwwwwww7907w7900w0wwwwwwwrwryuyiiiiiiiippppkzzzcccvvvvvvxvvvvvvvvvvvvvvvvvvvvvvvvvvvvvvvvvvvvvvvvvcczkkkhhhhhhhkhhhhhhhhddhhhhhhhahhhhhjhkkkkkhkkhkkclhhhhhhhpdhahhkddddpapppiiiiiddddddiiiiphppipiiiphhhkkkkkkjkkkjkkhkhhddddhhdpspppphhhkhhhdaddpppppiididipsstrrruuyyppipippiihpipiiiippiiyiyyyyiyyyiyiiiiiyyyiyiiuyyddppiishiyikvxccxcc",
"sdddkzkzkkkkvvcckhhhjkkkkkhkhkhkkkhkkhkkhdkhkzhjhpsiipdhdhhhiw7yuddpdyuipipyiiiypikcpiaiiiipppppphhhdiiireiriidigdihhhzcczkjhhhpphphhhhhhhhdphahpddpddadhpppppipdwq5tihuddddt629122222<1,111111:*:1::1::111::1::,128856990wwwuuuiitiuuytittiwtiippppdddppdpdddddhhhhjhhhhkkkcccvvccclkkkkkkhkhjhhhhhhhhhkhddappipiiiiipiiiiipidiipiipppppisphhhkdipddppiaiiapiapddddpdpppppipipiippipiiiididididphdkhkhhkhhkzzzlkzkklzzkzzzzzzzklkhjjasspdddhhdpkddhpipiuisuutuwuuuiiiiiiiiiiiiipsidhjkhkklkzzzcccccccccccccvvvvvvvvvvvvvvvvvvvvvvvvvvvvvvvvvvvvvccvvvcvvvzkhhjhpjkkkcvvvvvvvvvvvvvvkhppiitiirriiu92256222399999q<2<2:27:900i76wuyy0pww0ur05rwuquutisdddidpkhkkhhhhhhhhhsiuqrturqwq9wrrwwwwwwyywriririityiiyiiiiiiiyypppuwwwywuuiuuurriruuuy076566906008996000000000w0w0w0009990999999690999899563333666667q76676667q766q666q366334663366666q663446666q7677q9qww9w9wqw9ww000qqqw0qqqwwwqewwwryuuiiiiiiiiiipppppkzxvvvvxvvvvvvvvvvvvvvvvvvvvvvvvvvvvvvvvvvvvvvvvvvvvvcczhhhhkkhkhhhhhhhkhhhpdddhhhhphhhhhjhhhkklkkkkkkclkhhhhhhpphddhhhdpdapppppppppidiiiihpiiihiipiiiyipspddhkkkhhhkkkhkhkkhhdaahdpiiiipiphhhhhhddddaapppppiiddpsuuwrtrryiyiiiipipiippipyiiiiiipiyyyyiiyyyyyrirryyyyuuuuypidpiddsiyyiklxccccx",
"pdhkkkklkkakxvckjhhkhjkkhkkhkhhkhkkhkkkkhpkhhkhkdpipiiiiiiiruw776yu0uuruiipiiypiiikcpphiyiipppppaddpiddiririidiidgiijcccccckhhpdhphpppphdphdhddpppdapppdppppfapaiww7uikddhkhduq02122212111111111*:::::::1:1:::,::111299299090uuwiuywtywtiwwywyispppaddddiddpddddddhhkhhkkhhzcccccvcclkkkjkkhhkjhkhhkkhhhkhdpppppiiiuipipiiiippdippipipppsiipdkhkdsdiddpppiaappppdddhdipipiipiiiipipiiiiiiiiidiihhphhhhhhhhkkzzzkzkkkzlzkzzzzcczkkkkkdpspdddhfddphdpfpahitiiiitiriiisiiaiiiiyuiiipspdkkkhklllkzzzkcccccccccvvvvvvvvvvvvvvvvvvvvvvvvvvvvvvvvvvvvvvvvcvcvvcvvckzkkhhhkccvvvvvvvvvvvvvvvkiiitiiritirypw96691629666996><:>:22:960t02twyt7iqw7uwr600t0ruuuiiiiyypppkkpppfhkhhpisirrurw9ww9wewwwwwwytytitirirriyiypiiiipiyyppiitwtuuruiuurruuuiwuuw06669668600809990000000000w0006097799999099999999959433646666q6qq3666666366q66699666343663333666666633366q6699699www99999qww0qqwq77q0wwwwrreewwrrriiiiiiiiiyiiippppkkzcvvvvvvvvvvvvvvvvvvvvvvvvvvvvvvvvvvvvvvvvvvvvvvvvckcjhkhhhhhhhhhhhhhhhhahpdadhhhpphfhhhhhkjzzkkjkkkxckhhkkhhhhhddhdapphppppppipipiiiddsddiiiispyiipiipsppdhkkhhhhhkhhkhhhhddpddpiiiiiiypdhhhhkddddppppppipddipsiuuuuuuyypiiiidhiiiiiipiyiiiiiiiiyyyiiyrryyriirytuuuruyppuipppiiitihkzcccccc",
"pdddkkkkfhfkccckkkhhkhkkjhkhhkhkkhhkkjhkhpkkkkahpiidpuywqq9eew6w5w09tuusipipyiyiiujcpihpyipiphhhhhdpdhditirtiiddhihhhkcckzckjhhdaphhhhhhhhadaddddddpdadpihkkzllkityqiikcppppdki0222<11121,:11112@+:::::::11::::=:1,::95>99900ruutwtutiirwiywetihpppdddddddididddhahhhhhhhhkkccvccccclkkkkjhkkhkhhkhhhhkkhhdppppppiiiiippiiiiiiiiiuupppiippppdhhhddsddppppiiaapppisdddddiuiiiipppipipppppiiisidiippphhhhhhhhkkzzkkkkkzzkzzzzzcczzlkkkhaspddhkhdppfpapppfiusituiiriiisiiiiiiiiisaspsdhkkkjkkkklkllccccccccccccvvvvvvvvvvvvvvvvvvvvvvvvvvvvvvxvcvvvvccccccvcccccczhhkkcvvvvvvvvvvvvvvvvkiyiirrrwrisupu0995<59996636053,2<62:22wu0<q0yy6u96700u9090000ru0uuuppiyyphkhhhkkhhpiiiruyq79ww9wrq0wtwtuuyiiitiriitiiiipyiyiyypppy7uyuiuutuuryrrurirwww0990600699600090000000900www0090967990090099989995583636766666q7666666666q76q666966663436446436666664666666q9999w7ww99999w997wwwwqwqwwwrrrrrwrwrrrriiipiiiiypiphhpkkkzcvvvvxvxvvvvvvvvvvvvvvvvvvvvvvvvvvvvvvvvvvvvvvvvvzkkkhhhhkhhhhkhkhhkhhhhppdhhhhhhphhhhkkhjklckkkkkzcckhhhhhhhdddddhdppaapippiddiidddiiidpiiihiiiipiiipsipdklkhhphhkhhkhhhaddapssiiiiiyiphhhddhdadapdppippdidddssiuuiiuiiipyiiiddpiyiipyiiyyyipiiyyiiiuuuyyrirrwuuururudywwipiiitskcccvccccc",
"iiddkkkkjkhkjkkkhkhjkkhhkhkhkhhjhjkhhkhkkpkkdhpdspipiirr9w6r9r999u00yyiiiiiypiyiyyfckkpysuuuddpphhpppppdhpuuiiddsdpkxcxcklczkpppphhphkhdddddpdpdpapphhppfkklkkkkpaiyyhkkpkdphkap5521<211111111112@;:::1::::,,,,:1:>:,25692999wrtuyiwiirtiirtwyihppppaphpidididpappahhhhhhkkcccclcccccckhkkkhkkhkkjhkhkhhaddpppiiiiiiiiiiiiiippppisipispiiiiphhhhhhppppppppphpiappddspsiiiiiiiiiiidiiiippiiipiidpiddhhkfkhhhkklkkkkzzccccxzcccczfkkkkladdddhhhdpippiiaappussuuiuiiuiiisuiiiiiiaaspsppkkkkklkkzzzzckckzcccccvcvvvxvvvvvvvvvvvvvvvvvvvvvvvvxvccccvvvvvvcccccxklkkzzkkzzcvvvvvvvvvvvvvvvfyyiiiiuiiiiuutquu029966906592<2221::26t600irsi09006809255w0w0rriitriiiiiiiiddhhhappsiisiw79w000www0wwwrrpiyrwuiiiyyiiiiiiiiiwisiywwwuuuiiturywywrurur09979969666999999990095900990056667900999700999990995566433666q66qq36q7666679976666666666344666663636366336999699q7q6q99w9990069069009wqwwererwrryiyiiiiphzzhiiiipkzkzzlcvxvvvvvvxvvvvvvvvvvvvvvvvvvvvvvvvvvvvvvvvvvvvvvczkzzkhkhkhhhhhhhhhhhhaddddadhhhhhhhhhhhkkklkkkkkcccklkhhhkpphdddpdsdddidiiiiiiiipiididipdiiiiiiiiiyiisddhhhhfhhhphhhhhhppppiyiiiiiiiuiahiphhhphphhpppiddiipppddiruiuryyppipiuiiiiiiiiippiyipiyuiitrriuwiiriiruuutwywywiirihpiiipkzlccccccc",
"iiiddkdjhkkkzkkkhhkhkhkhhhhkjhhkhkhkjkkhhphkphpdpipiiiuywwqrwtw98000yuiiiiipyiyiayfckkapiiipdddpphpapppakdpiidddsippkzcxklczkhhkhhppphfhddddkhadpppphpppklkckkklfaayipkzppppddip54<1,,11::111111<;@:::::,::,,11,1,::,<6669590wrtiwwuiriwiirwiidppppppdppdiddiddpphhhhhhhhkkkzccccccccckfhhdkhdkhkhhkhhhhappippdippiiippiiiippiipappisipppisphhhhhdppphpipphpppippidpdipipiippspiiippppiiididpipiidhhhdfkhjhhklkkzkxkcccczcccczzzlkklkhahddddhdpphpipppppssruiuiriiiiiiiiiiiiaipipiadkllhkklkzzzzkckzkccccccvvvvvvvvvvvvvvvvvvvvvvvvvvvvxvxvcvccvvvvvvcccczlklzkzzzzzcvcvvvvvvvvvvvvvfiuiiiuuyyiyuuywtuw5290065606<<22121:125256u00060w02209599w0r0rtiiirppipippiiidphhphiiistq79w000www0rwwrryiuiuupaiiiyiiiiyiiitrisyytyutiiuuurrwwrrurrw098955680669999909000099999009760656659999999989909996666646667q667666666769997q666q666663433666666663663679999996q6q699999900000067q0wqqwwwrrwrryiiiiiipkcckpppipzkkkklvvvvvvvvvvvvvvvvvvvvvvvvvvvvvvvvvvvvvvvvvvvvvvvvczzckkhhhhhhhhhhhhhhhhddddddhhkdddhhhhkjhkzcckkkkcckckkhhkfhphddpddddisddididiipiiidididipidiipiiipppiisddhhhhppphhhhfdppppaapiiiiipphyippphhdhaphdapididsdpphdsiwwuiruyiiipdiiiiippppipiyyiiyuutiiirrywwwwtwiuwuuywuwwiiishhittipzlclccccc",
"iiiipkkdhhkhzkjhkkhkhhhkkkkhkhkhkhkhhhhhhihhpappipiiiiuyww9r9r995r90uyiiiiyyiyiipypadhiprtppddpdppppppahkhddhhdphipphccczzczkppppfpphhhpddkczkhddpdaphaickckckkkhipyyipldddddpyi2<,<<>:11:1111111;@:11::,,:,,1,,111>:<5993290wwtwwywriiwtwwyipdppapppappdiidddddphhhhhhhhkkzzcclvvcckkkkdhhhdhkkhkhhkhhhddppafaapiiiiiiiiiipiippsiipiipppippdkhhkhpphppapahhpapppsidppipippisppiiiiidpiiiiiiiiiiidhhkhkkjhhkkzkkkzzzccccvcccczzkkkkzlhdafdddhdappyyippapssruriuiuiuiiiiiiiiiisissppdkkkkkkkkzzzzckckkzcccvcvvvvxvvvvvvvvvvvvvvvvvvvvvvvvccccvccvvvvvvcvcclzkzzzkzkzzcccvcvvvvvvvvvvvkpuiiiuyyyyiwuuwuir92360659q6<<2111:2122229eu090006229995600rrtutuiiippipiipryipdhhhiiiiiq69w0qwqw0wwrrrryiiiyiiiiiiyyyiiiiiieuiitwiuuituutwrywyuuuuwww995950866696999999900999900999966959909999995599999986636666q7667666666969999q96666666636346q66666666666699q799966qq7900909707q009ww99wwwwrwrrrriiiiiiihcvvzppppakkkklxxvvxvvvvvvvvvvvvvvvvvvvvvvvvvvvvvvvvvvvvvvvvvvvvvzkkkpkhkhhhhhhhhhhhhhpddpdadhhdddhhhhhhjjkzkkhkkckkclkhhhhhhphppddipsidiididipispdididdiipiiuiiiipiiiiiddddhhppphahhfhappaiiiyyyyiipdpiipdpddpppphpppidddddppsdiu0wtrwyiiidiiiippipiiipiyyyiyuiirtirrtywtywuwuwywuwwwwwyttiiywyikcvccccccc",
"iuiipdkdhhhkjkkkhhkhjkhhjhhkkhhkhkhhhhhhayphpdpdpiippiiiww9rqw698090uyiiiipiiiiiiyipipyy0wyppdpdpphpppdhhhhhkhddhspihkxxzlzkppiiphpppkhhdkkczkhdddpphpppclkkkkkkfpyiiipackdhd09u94:12,12:11111:111;@:<+:,:::,,==1111<<56595990wwwwwitwiriywwtphipppappppsdddddddaddhhkhhkhjzzzczcccckkkfdapddkdkhhhhhkhhapapadasiiiiiaiipiiippppispiipispsppdhhkfhhpphpppphfppppiidisppippippppiuuiidpiidiiiiiidpdhhhkhkhhhhkzkzkzkzccccccvvlzkklklzlhhahhadpappappppppppssuuipuuuuiiiiiuiiipsaspipdjlkklkzlzzzzkckclzccccccvvvvvvvvvvvvvvvvvvvvvvvvvvvvcvvccvccvvcvcccczzzkzzckzzzzccvvcvvvvvvvvvvvcdiuiiiuiyiityruydur9256wq990522<::=1,928<39rwww06292095529500rrrrriiiiipiiiyyiipdhhdiiiu76700wwwwwqwruuuyisiiyiiiiiiiiiiiyyiuwiuwqiuuuiiytyrwrrruuuwrw0599960666668669999999559009969990600009000999900999566663666q63q6q6q976679966qq7q66763636666q7q766q663666969qq9666669990700wqq7qw0wwqwwwwwrerrryyypyuihxvvhiipipppkclxvvvxvvvvvvvvvvvvvvvvvvvvvvvvvvvvvvvvvvvvvvvvvvcczzkkkhhhhhkhhhkhdhhhhpapdddddhhdhdhhhhhjkjzclkhhhkccklkkphhpppphppdppddddiiiiiidididipsipipiiiiipppppiiippppphaphppppippppiyyyyyyyyiiipipahdpdhhphhpaidiidiippddduurutttiiiiiuiiiiiiiiiiyyyiiiiiiiirirywyywiwiytywwwywwwwtriwwwypkcvvcccccc",
"iuuipddjakkkkkkjhhhkkhhkhkhhkkhkhkhhhhddpyapidpdpppipiiiriwrwr009r00uuiiidiipiippyppiiiyyyddpdpaadpappphhhhkkkhhhppipphkzkkhappppphphhphddkkzkhhappdhpppckkklklhkpiipiipkdiuu99q02::2211111111::12:+::+<,=:=1:::,132222659559000erriwywitywwwippppppfpppdiddpdddddphhhkhkhkkkzzzcclkkfkkhadhhhhhkhhahkhhppippaaiiiiipiiiiipiiddsaiiipippppsphhkhkhdpdddppahhfphhddididpppppspppiyyuihiiipiiiiiipidhhhkkkjhhhkkzklzzzxccvvvvccczzkkllzfhhhhdphhadpppadppadpsiypiiyyiiiyiiiipsspdppsphhllkklkzzzkllzzkzzccccvvvvvvvvvvvvvvvvvvvvvvvvvvvvvxccccccccvccccccckkfkkkkkkzzccccvcvvvvvvvvvvvchiiiiiyiiiiuuuuidiui926ww77052<,,,&::812=29085962502099929500trwrtiiiiiiiiiiiippahhdiisu969900q00r00wryuiipiyyiiiiiiiiiaiiituwuuwuuuuiuuuywryyrurrrrrw9599766666969966769999999990099000000009990999980958566666666666676679996999676q766q66646666666q66667636676969996666q99999q0qwqwwwww0wwwwwrwwryyiiypayuifkkjippiipafvccvvxvxvvvvvvvvvvvvvvvvvvvvvvvvvvvvvvvvvvvvvvvvclkkklkkkhhhhhhhhhhhdhhhpdpadpphhddddhhhkhjhkjkkkhhhkckklkhhdhhpphsdspddpsdiididididiididdsiipipiiippppippiddpphhhphphppipppppipiiiippiiippphkhhhhphfhhhpdddpppippddpyiuuwydiiiywyuiiiiiyiyyyyiiiisiiiirrwwywywuyyuiwuytwtwyiiiuywipkzclcccccc",
"iuuupddpphhkkkkhhkhhhhhhkjhkhhkhkhhhhdpppyphpappdpppipiirtwtqr00500ruuiididippdpaypppaiiddkkkkhapdhpppphakkklclkjhkpppppppipipppppkkkhphdkkdhhddhpadphailkkccckkhiiypiiyuw69090ur8>>21111:1:111:1<:@-::1:::::::=,122252595299999wrrrwwwiwtuwwiphahphpppppddidddddahhhhhhdkkkzzzlcclzkkkpphddhhhhdhddhhhhapiiiiiypiiippiiiiidididssipiippdpppdhhhkhddhadppphhppppidpsdiippsippppipyyidpiiiipipipipddkkakkhjhhkkkkzzzzccccvccccczzlkkzzkhahhddhdddpppddpdhhppiippiuyiiiiyaiipppsddppphkzkkzzzzzzkzzkzzkccccccvvvvxvvvvvvvvvvvvvvvvvvvvvvvxcccccccccccczzzzfhhdhhhakkzcccvccvcvvvvvvvvvvhiiiyiiyyyyiyuyiiiystww0559622<<<1=::2:,:29w82296662999950w0ruturusppppdiidddddppppdpidiw7q9000qrqr0wruuiphpyyyiyiiaiiiipiyywiwwuyuuututwtyurwrrrrrww0955856996999969999999590959900000500e99999995899999966663676q6666q6699697699766q6q66q633666q66666666666366q666966666q799990007wqwqrwww9wwwqwwryyyiiyyiiiihkcvkkpippfcxvxvvxvvvvvvvxvvvvvvvvvvvvvvvvvvvvvvvvvvvvvvvvvxkkkklkkkkhhkhhhhhdhhhhfpdappphpdhhddhhhhhhhkkzlkhhkkccklkjphphphpssdpsppdidiiiiiididppsiddddpppiiipppdpiipdipphfpphppphpahhhapapiiipppppppakkkkkhhhphfhhhhhhhppppppapyuwruiiiiu0yyiipiippiiipiyisiiirrirywwiuytyuwtyuwwyryiiiiiyudkcclzlccccc",
"tttuiddippdhhjkhkhhhhhhkkhkhkhhkhhhhppppaydaphpddpipipiyrtqrww668w9ruiiiiiddidpppyiiiappkkjkzkkapappppdhhkklklkkkckkkhhhpiiiippdpdhckappddddddddphpdhdppdhklcclcphiiipdiq05290rit0<1111:1::11:::::::+:1:::::11::,,223552955599957wrrrwiiwiiwiiphphfpapppppdpppidddhdhhkhdkkkzlzzczkkzzfphpdahddhdddddhhhapiaapaiiiipaiiiididddidispiipssppppddhhkhhdhhdppdhhppppddiiiidsipisppsppywypiiidiippiipppdhpkpkhjhhkkkzkzzccccvvvcvcccczkkzzhhhadadhhhdapphdpdhhhdppppyiiyiiiiiissspddpppphkzlkkkkzzzzkkzzklzccccxvvvvvvvvvvvvvvvvvvvvvvvvvvvvvcccccccvcczzkkczkhhddhhdkklcvvvvvvvvvvvvvvvvvhiiiiyyyyiiiuyyiiyypyuy02296252<22:21,22339r95599525999520urwrruuusidpiddiddhddpappiiisiwwwww0wrrr0wwwussdpiyyyiiiiiiiipiiyywwwwyuyuuuyuwywrrrwrrw79999997500009999976999999997009000000570999999995999999966676666qq6636369799q967q66q6q66663666366666q66666677697666666666097000qwwwrrrwwwwwwwwwruyiiyypypiipkccvkkpppphcxvvvvxvvvvvvvvvvvvvvvvvvvvvvvvvvvvvvvvvvvvvvvvvvzkkkkhfkhhhkhhhhhhdhphhhppppadhhhddahhhhhjhkkzkkhhkkkckcchpphhpppppspipiddiiddiddidipiiiiipppsipypipssdspsdipphhfphpfhhhhfkhdpppiyipippiiahkkkkfhhphhhhhhhhhhhhhpppppiyuyuuytwywyyuippppiyipiyuitiitrirrtwtytwutuutyuwywwwwtiiyysjzvvvccccccc",
"rrruuspipipdkkhhkhhhhhhhhkhkhkjhkhffpppppudhphpdddpiiyiytiwiwr962r00uuddiiiidipdfyiiifjchdddkkkhpppppahhkkkkkhkkkkkkkkzzkfdddddjpdkccdppdppdddddhpphappipakkkkkkpfffpjjdsi919rusi001>131:1::1:::::21--1:::::,11:,1,22555585955997wirrrrhtiwwihhppppppppiipppppddhdhhhhhhkhkkzkclzkkkzzkapdppppapdddddhddpayiiiiiiiiipiiiipiididdsaissipsdpipadhhkhdhhhappddapappdsidipidpippppsipyyyiiiippipiippppphhakkjhhkkkzzzzlzcccvcccccccclklzzfahddphhhhdddddpahhhdhddappiiiiiayiiiipspppppphkzkklzzzzlkkkzzkzzccxvxxvvvvvvvvvvvvvcvvvvvcvvvvvvvvccccccccczkzkkkkkkkhkkhkkklcvcvvcvvvvvvvvvvvcfayiiiyiiyipiyuuuyyiwyit727055<<22=11:82q22999955252990529r00rwwruuiidiiipissddppppuuiiuwwurwwqrrr0rwyrupsppiyiyiippiyiipiywtuywytwtutuuuuyrryryww05999ww09080999866666697699990000955999009990009999888555667366766666666699996766qqq67763666367q6796q6666666669666666696769009000qwwwrqwwewewrwrwuuyiiapyiipkzzkhdapphhhkcvvvvxvxvxvvvvvvvvvvvvvvvvvvvvvvvvvvvvvvvvvvvvvvvkflkkfkkhhhhhhhhadahhhpppppdpddhhhhhhhhhhhkklkkhhkkckklchiahhpppphspspsididiiiisdiiipiiidiipdpiiiiiippdiiddpdhhkkhhhhphiippppippipiiiippfkkkkkahhphhhhhppddhhhkhapphpiitutwwttuyuipippiyyippiuiitirrrrriyiiwywwuwyuwywwuwwiiutisgkcvccvccccc",
"uyiiiididiiddddhhpphkhhhkhkkkhkjhkhhhdpppppddddpdddiiryyiirr0u099000udsuiiipppdiduiiuikkdkkkklzksddsppdhhkjlklllczzkzkkfkzzzcccczzkdpiddddidpddsppdpdhdiaiiaaiiiphhkkkhpisi629wwqi9>:221,,,::::;1:::===:*=::::::,,,,222222899590wwwwrttiqweiihdpppaphpapddpdddddpddhhkfkhhhkkckzklkklkklpppppapddadpddhhppiypiapiiiippiypippppipiiipiiahppppahhkdkkdddddppphiphpdidiiiiddpiiiddipiuyypdpipipippiiphkhhkkhhhkkkkxzzzzcccckczzzczzkzzzzkdahpphfhhhpppphhhphhdhhkayuuiiiiaiiiisisispdpdzzzzzzzzlkklkkzzccccccccvcvvcvccvvvvvvvvvvvvvvvcccccccvccvvccckzccczzkdkzkkfccvvvvvvvvvvvvvvvvvvcxhipiiiuywurrittyyyiuuyww622:11:::*=,12909u90960092257699w0www9wwipipppppddddhfhhppppirwryrqwqwww7qrwruipppippiiiidsutussurytwwwirrriwuwwuuwyuwww095999995909000009959559979999900006006009990909799899855576623966669666339999969969779996666666666698q66q35366656665669996799999ww7wwwywwwwrwwwyuwuriiiiuiiaippppkkkdphkcvvvcvvvvvvvvvvvvvvvvvvvvvvvvvvvvvvvvvvvvvvvvvvvvxzkkkkkkdkdkddkdhadhhdppdddddspdhhdhhhhhhhkjkhhhkakklckkkkaphhpdsdsdpppppppsppppiipiippdiddiiiiiiriippddhddhkkhhhhhhpdhhiiiapaafpudpriddhjkkkkhhphhhhhpahphphhfhhpappppipiyiiyyyyiyppppitrrituutiiiiyiyiyuriiiewwwyywywuwuiiiiishccczcccccccc",
"yiyipiiiididddhdkphhkfhhhkkhjhhhkhhhhappippdaddpddsiyuyruu0rqr9690rrsdkddpppppppsuuuuidjhhkkkllzididpppahddkkkklkkzkkkkklzcczcccczkkddididdsddddhhhdddiiapppiipppdhkkkhhdhiq60w7qi9>,11:,::,:,:1-=-===:>=:=:::::::,,,22225599990qwwwiwwiywiippphpdpdhpppppdpidsddpddpkkhjhhkkkzzzzxzzlzzkhhhhpppddpdahhkpppppippiipiippyiiiiipdisasiipphppppdahhkddkkdddhphhiphpididiidiidipsidippywyyiiiipipiipphhfhkhkhhhkkckxzzzxcccclkzzzckzzkzzzhahpfhhhkhhppddhhhphdddhhpyuutisiiiiiiaiaaisdpdzzkzzkzkzzzzzzlzcccvccvccvvccvvvvvvvvvvvvcvvvvvvccccvccvvccvcczzcczkkkkzzkkzvvvvvvvvvvvvvvvvvvvvvchiiiiiutytririyiiiitiwwtw68,21:1:*=1::1250:1229999<5q79wwtqww0wtuiiippppdpippphpapiiswqwqrrrqq7qqw0yruuippuiiiiiipdsuiisiriiiuwwirweuwwuuuwyw090959566989890900000999995999599997007666006969999959999588596269766336666668999966969q6999666669696696967666666636666636766690999997wwtuwywwwtrwwyiwuritiiuiiiippppahkdhhcvvvvvvvvvvvvvvvvvvvvvvvvvvvvvvvvvvvvvvvvvvvvvvvvvvzkkkkddkdkdkkdkhhddhhhddddsdsdidhhhhhhhhhkkkkhhhkkklcckkkfphpdhdddphpsppippsiiiiiipppdiiiisididpppppdhhhhhhkhjkhkjkhhhdapiaiiiyiuipuphhkhjkjkhhppphhhhhhhhhphhhhhhdiyiiiiuiiyyiyiipdhdpiitsdtiiiiiiiyiiuuiitruwwytwtuuywuytwiriccccvvvzccccc",
"iipiidpiiiidpaddfhhhkkhhhkhjhkkkhhkhhppppipadddppiiipyiuuuwu0r7690iddzczcjdpppppsruiypdkdhkkklkkypddapppipphkklkkkkkkkkkzzzcccvcvczzadddppddpapdphddddsippiaaiiaidhkkkfkhhpywyw6uiq<,2:::,,::::;-++:>::,=;:::::::=:,128859899590wiiruywuiiiipphpppdpppdhdsidddddddphhffhhhhhkkkkzkzzzzklkkfhppapddddhphhppiiiiiapppidpiiyiiiipipisisiipjphpddhhhdkkkkdddhphhaahpiiiidddddsiipiipppiyyuppiiipiipiphhhkhhkhhhkkklczzccccccckzczkckzzzzxfhhppphhkhhphpaphhadapdahpyuuiiiiiiiiiiiisiddddkckzkkzkzklkkzzzccvccccccvvcccvccvvvvvvvvvvvvvvccccccvvcccvcvcczzkkkkkkzzkzcvvvvvvvvvvvvvvvvvvvvvvgiiiiiiywiiwyuyuiiiywwitww6,3222:::2125660<5526626<2666qwwwewwwttiiippappipppappppyiiq99wqrrw700ww0wryisiiryisiiiuiiuiusuuiiiwuiuywwyywuwuyyw969956666995999000000999599999579999996960606799999969999959933369963356666678986967966q79996666699666969966666664665636699999000090ww7wyuwwwtwwwyyyirrrruuuiyiyiippppddkhhkxkclcvvvvvvvvvvvvvvvvvvvvvvvvvvvvvvvvvvvvvvvvvvvvvxkkkdkddkdkdkkdhhdhhhhhdddddddddhhahhahhhhkhkhhkkhkzcckzkhdhhhhdsspssppppsiipsssipppippiididdddhhahkhjjhkhkkkkhkkkkhhdpiiyiiiiyiruurpkkhkkhkahhhhhhhhhhhhhhhhppdkkdyyyiiiuiuuiipiippdddiiiddsitiidipiyiuuuiuurwywtyyuuttywuwywudakkcvckccccc",
"iiypidpiiidippddphhkkkkkkkhkkhhhjkhhappaiaapdapppppppippuiruqu099rsgjcckccdppppiiruiuyppdhkkkzkpiddhdpppipadkkxkkkkklkcczzccvvcczcvzkdddppdippddhhhsdhhippiaiiipidkkkkkkphkpyyywqiw621::::;:*@@;=-=:=::::::==-:==::,228295569990wiidhpyyidishhhpdapdpappidididsdpdpppkhkhjhkkzzzkzkkkzzkhhhpapppaddddpadapppppipiidpidduiiippipppiiapssddddahhkhkkdkkkddhphhpphpididdsdidiipiddidppyyuidpipiddidphhhhhhhhhkkkkcxzzcccccckkkzkzckzzlklhhaphphhhhppapphhhppdapddpyuuiiaiisiaiiaisssdddcckzkzkkzkklzkzzcccccccvcvcvccvvvcvvvcvvvvcvvvvvcvccvcvvvvcvccczkkhfkhkzzkcvvvvvvvvvvvvvvvvvvvvvvvkiiiiitwwtwywwwiyiiywwrirw2>2822:;=239qw0y0w096226<5q669907qqwywqiiipppppipiiiiipiiuw06370wq79qwwu0wrruiiyuiuiiuuurtuutrrutitiwiweuwwwuwuwwyw9999506669098799900000999599999900090099900066660999699999989633399663666q7q666999669967q9997q969966696696q666666636365337699990000097wwwwiuwwwyuyiyyririuiiiyiiiippipddphphphjfkkzcvvvvvvvvvvvvvvvvvvvvvvvvvvvvvvvvvvvvvvvvvczzfhkkhkdkdkdjkhdhhhkhhsddidddpddddhhhkhhhhhkkkkhklzcclckfhpppppdddsdpphpppppppddddpipiddddddjdhhhhhkhhkjhhhkhkkkkjfhhdpaiiaiiiiruiupkkkkhkhhhhhpphhhhhhhkhhhhhkkkhpyuiiiuuuuiiiiiippppirtisiuiiiidiiiiuiuruwuuwwyuwuuyyuwwtiiwudcvvcvcccccc",
"ipippppiiiippdpaahfccccczkkhkkkhkkhhhdiippddaddddisiidppusru0u099rsdjzkckkjdpiiiiuyiyyppijkzlkkipppddpppadhhkklzlzklzzcczzcczccclzvvzkakkhdpppahkjkhddddapaipiippphkkkfkpkkpyiii0ti02,::@**@*=:=,:==,===:::==-===:,122285529990ryhhhkdiiddpphhhppphdapppdddspddspdphhhhfjhdkkzkkkkzkkkkkppppappphddhadhpapppiyppippiiiiipipipiiipippisphhhdhdhhhhkkjkkjdhphkppppdiidssdiddiiidipppdiuyydsiiddpidphhhjkhhkkhkkccczzzvvcczckzzckkkllkllhdhppppphhpppppphappddppapytiiippppssppapppdhddklkkkkllklkzzzzzxzccccvcccvcccvcvccvvcvvvcvcccccccccvcvvcvcvcxzzffhfhhkzzfzvvvvvvvvvvvvvvvvvvvvvvvzhiiiiywuttwwwwyiiiyyyyywi6>2621:*=:290w0w9q76626927wwq77q60q0twwuiipiiiipppiiiiaiirw943609900wrrq0wrriyyiuuuuuuuuuiituuutwirtyiwwrrwwwww79909999506599098599900009999979999009900099000995790099900999999666366665679969q6698669q66q799999996696669q666667666643526556799000q99wwwwwwuwuuuywiiuyiiuwuuiiiiiyiipiipkhhpppppphppazvvxvvvvvvvvvvvvvvxvvvvvvvvxvvvvvvvvvvvvvvcxkkkkkkhkhhdkjdhdhdhkhhdddpadhhpaddhhkhhhhhhkkkkkklzccklkhdppdddddspphsppppppdspppppppphdhhdjdkkhahkhhhahhhhkhjjkkkkhhdaakpiiypdruuupkkkkhhhhhhhhhhhhhhhkhjhhkhkkkkhppiiuwyuyuiiipiipipstuuirriiiidpiiyiurrrruuwwuwwuruitwiuiywypkdkkkzcccvc",
"piipippiyyppdppdhfkcccvcckkhjhjhhhkhdpaiiipddddpdiiiipyiuuwr0r790rdkkkccjkkdpppuiupiyyiiyypkkkpispisdddphhhlkzlkzzlkkzcczczczczzlxzzczkkzzkaakkzkkhadddipppppiippphfhkkkhkjiywwy0si02:*::=::::::1:>=:,:::::::===::,,22826229000rdjkphhhhphpfhpfpddadddpppsdisddddpdpdahkhdkdjkkkjkkkkkkkhppppiapddhhdddpappppaypiiiiiiiipppipppipsippiphhhhdhhhhkhkkkdkdhhhapadpiidiiddipiiidisipipiuyupdddddsddkhkkkkkhkhkckccvzvvzccczlczzcccclkllkkhhpppffhppppppphdppddddapiiisispddssdppppjsdddklklkkflkklzzzzzzzccccccvvvvvccvcvccvvvcvvvccckccccvvccccvccczzkkkfhhhhzzzzcccccvvvvvvvvvvvvvvvvvvcjiiiuwywwwwwyyiiiippiyyti9<2622;;=,,1566066356660<59q7q966wwwwwwwipyiyipiaiappiiisr0633369997wwwww0rruriyuurrtuuuuuiuuusuiywiiiiiyryrrww7979999990989909999999090779996960999999999697999999090096099999976663576669696697696666qqq777999998699966966q666363665366226699900q0w99wwwwwwuuuwiriuiiiruwuiiiuiipiiiiippapkphpiddpipklvvxvvvvvvvvvvvvvvvvvvxvvvvvvvvvvvvvvvvvvvcczkkhdhhhkkddkhhadhhhhddpdddhhhdhhhhhhhkhkhhkkckkkckclkkfhdddidsdpppsssppsipphiipppkhdkjkkkkhjkfhkkhkkhhhhhhhkkkkjhkhhadhhpypaduuuuphdjhhhhhhhphhhfhkhhhkhkkhfkjkzzkpiiuututuiippppiiidirrrrtiiiipdiiururruruuuwwuuwwyywuwwtyt0y0yykkkcczzc",
"iiiippiipippppdphkclkcxvccjhkkhhkhhhdpiipppadappdiiyiiyyuuwr0t960rsdkkkckczdidduitipiyii0yypippipiidhhhjkjklzzzzzzkkkllcvzccvccczzzzcvzkzkkkkkzxkkkppdppppaipppppiphkkfhjjpiywqw0tw62:*:::::::::1:==:,,,::::::====,,12825559qr0rdkhpkkdppppppafpdhdddpdiddidpdssidddhhffhhhkkkzkhkkhhkkhhhppiaipddddhhadapapppppyppiyiiiiippiiiipiipsiphhhahhddhjhkkkkhdhpkappdpuuiiididdiididppiiiiyyyyiddidddshhhjkkkhkkhkcccxcczvxcczzccccccczllklhhfppphhhppappddhhppahddhppiiiipppdssppdpppdhddkzkkfkkkllkzzzzzzccccccvcccvcvcccvcvvvvvcccccccccccvcccccccccxzkkkkhhhhkzzzxvvccvvvvvvvvvvvvvvvvvvvvdiyytywwwywytiiipiiiiyuiw26621>><222600w79660525<26666769q00wwwwiyiypippipaiiaiiseqq666666990000rrwrrruiutruuuurutuiuiuutiwyistyrwwrrw7759909997996999997999999995599996999959999600009695990099600999996966666639969666969666qwww7q797q96689976969q6666636333632526699900w090w77wwwwyyywriiiiiiiryryiiiiiiiiiiipipaphhhdhpphhkzxvcvvvvvvvvvvvvvvvxvvvvvvvvvvvvvvvvvvvvvvvvvckhdhkhhhhkdhhdhhhhphppppdhhhphhhhhhhhhkkhhhklkkckzkckfppdppdsdippppssspssdpdpphkhkkkkhkhkkkkkkkkkkkkkhahhhkkkkhakkpyppppphkpttpsdkdkhkhhhhhhhhhhhhhhhhkkhhpkdppjhiitwyuuytuipppiiiistruiriidpiipiiirrriiriiwuyywywwwtyuyuuwuiidzvvvccccc",
"iipiipiiyppphhdphlckklcccjkhkkkhhkhhhppipppddddphppiipiuuiwt0uq60udjkkkkkccaiiiiuwyiiippyyyyippppsddkzzkkkklzzzzkkkkkkzcvcvcvzvcvxzccvzkfkkkzkzzjhhppphppppppyppppiphzkhjdutwtq7006<2<:,:=::::::1:===:::::::::;;===,12225269wwrqifkhccpyppipkkpkdddappididdspddddiidphhfjhhakkkkkhhkjhhkhppiiiaiaddhhdddapppppyaiipiyiiiiiipippipiipisshhhdhddahhkjkkkdkpphhppapyuiididdddiidipipipppuyudisdididphdhkkkhjkkkkccxvvccccczcccccccczkkkkhkfhphphhfpapddhhhadhhhdddptisiippppsspsddpdhddkzkkkkkkkkzzzzzzzzxzccccvvcvvvcvcccvvvvcvcvcckkcccccccccccccczfkzzkkhdhfzzzccccvvvvvvvvvvvvvvvvvvvvvhiywyuuwwwwwwyiipiyyyiwiu6662<:::266ww0t6350q6<2<69636676w00ww0yyyiiippyiiiaaiiiiw66q666996699q7ryryryuirrrusutrrrwruuuwwytyriieywwwuwq79979999769958999799099995979996590970999000000095959799999099999367666533396669986696qq7wwqqq999666969q68996696634345553352569970000q67wwww7wwwwwiiiiyyiirwyuiiiiiiipppppppppfpphppkkclzxxxvvvvvvvvvvvvvvvvvvvvxvvvvvvvvvvvvvvvvvccvvckdhhhkhkdkhhddahhpphaddhhhhhhhhhhhhhkhjhhhcklkkcczckkhhdppddddpppppppphpdhkkkhkkkkhhkhkjkkkkkfkkkkjkjkphhkkjhhhhhpappppphhhsdpphkkhkhkhhhhphhhhhkhhkhhhdhpppiiiiiutuuwtwtwyipppyiyirrrrrrriiiiiiiirrritriryytwtuuuyuuuuwuuugcvccczccccc",
"piiiipiiipidpppplkllzccxckjhkhhkhhhhapppppipaappsippayyuyrw0wr060usskckkckdsidduiwddipppyuippppipahzzkkkjhhhkzzzzzfzzzcvccccvvccccccczcckkckkzkkdahklkpihpdppsspidiipkkhpuwwyitwqw2:,,:,:=::,,::1:::::::::=;::::=:::122252220rrtyijkkhpyppdsdhdpdddadddidiididsdpdpppdahdhhkkkkkpkhhkhkhkiidiiddppddpppddpiiidiiiiiyypdiypypspypiiaippddadhhhddhhhhkjkkkdkdpdhpyy0uisddsiiiiyisspipppuruuisssdddpdkkkkhhkkkzlccczvvvcccvvccccvcklzzzkdhkidddkkkkhhdhhhdphhdpdapfiippaippsipppdddpdddkzklkkkzzzzzccczzzxzccccvvcvvcccvvcccvccczzzkckkzcczcccvvvczzkkkkkjhklllcvcccvvvvvvvvvvvvvvvvvvvvvvvcpyywwwyyywwyyiitiituuwwq5<22:==:,3999ru969qqw535q735676690q0wwywyyupppaappppiyyiy7ww7606966260qruurrruurruutruuuuurrrrriuyuiurwwww636635795999995999977999959990656700709099997009070999999999059999790q766669693966366699662666w999w599336963666669777666344353346676909790000qqwwqwwwippypyiiiiiyiiiiiiiiipiiiiipppkczzcvvcckkllcvvvvxvvvxvvvxvxvvvxvvvvvvvvvvvvvvccccczkkzcxkjhhkkhhhhhhhaaphpddhhhhhhdhhkhhhjhkkkkhkkkkkkkkzzkpddhhpdphpppphssphhkhkhhjhkhkkkjhkkhhkhkkhhhhkhhhdhkjkhhhhppahdppappiwdhhkkhhkhkhkhhhfhhhhhhdkhhddsrw0wruuuurwwwyuytwyuuppppipuyyurriiiyiipiiiiuuurrwuruutyuyuuuuuuuurhvxvvvcccvcv",
"iyiiipiyiiiddpppkkklkccccjkkhkhkhhhdpappippappapsddhppuuywwwww06wutukkkkdkdsidiiiwsiipipyyuyppphddzzlkkkddhkkzzkzkzkzccccvcvcccvxccczvzzcczkkkapkhklzkfpdpspsippdipiikhhhiyyyuwtwq2:::=::::1,::::::::=:::::::::::::122226259900wiiiiiyippdsdpddpdddpddsdsddddppdppahpppphhhkhkkhkhhkhkhhjdidiudphppdpipaddiddiiipipiypdiipiispiiiiiappdpddhhhdhhkhkhhkkhphhdhhdy0urisdssiiaiyyuisiipiy0uiiidddiddkdkkkkhkhkkzccccccvccccvvccccczlkzzkkakddddppipdhhhhkhhdhdphahkippaipiaipsppdddpdpdkzkzkkkkzzzzzzzzzccczzcccvvcvcvvvvvcvcccczzlzkkczcczcccvvccczzkklkhkllklccvcccvvvvvvvvvvvvvvvvvvvvvvcpywwywwyywywyiyiiiiiiutt62631==:122369r966qq956563<<23599qw0wwwytuiypiiipiiiiiii77wq96099996560rurrruuuruuuuuuuuuutrruurrrruirywrw9399659999599999997909995999706666006999999990909099979599990909099909993669699935366966666665q99ww9976366666666686636663363343333399660000000q0wwwtuyyipiiiiiiiyyyiiyiippiiiippppkcvzccvcvcckzlvvvvxvvvvvvvvxvvxxvxvvvcvvvvvvvvvvcccvcczkccxhkhhhkhhhhphhhhpphdadhhhhhhhkkhhhhhhkkkkkkkkzzlkzkkdahdddpdppaddhpsphhkkkkkjhkjhkjkkkhhkkhhkjhhhhhhhpphkkhhhhhdhapippiupudjhdjjhkkhkhhhhhhhhhhhhhhdddirqutuuuurryyyttyyyyrryuyiiuurrrrruyyyyiiyurrrrrrrrwyruuypyuuuutuwrrshcvxvvvcccc",
"iiiidiiiiipppadphkllccckzkhhhkhjhhdhpapipappppppddhhapyrryrwqw06ruuuphkfddiiiddiiwsdipipuuiuipphklzckkdhdddhkkzkkzkzkzcccccccvcccccczccvcclkklkakkzccckfpiispiphdiiiphhhhpiyytiwrr9:11:,::::,,::=:=:::::::::::1:::112228255990wriiyiyuipidddphhpdaddddiidididsdipppphphpdhdphkkjjkhkhkhhddpiyidspppaaippddidiiiiiipiyiaippyipiipiiiiapddhhkhkhhhjhhkkkkhdhhddaairuyuidsdpppiyyyusipppy0urusddddddddkkjhdkkkkzzccccvzzzccvcccvvcczzxzkhhdddhdppppdaphkkkhphddhkkkfapppppiiiipsdddphppkzkzklkkzzzzzzzzzccczzcccvvcvccvvvvccccccxlkzzlkccccvccvvvvczlkkkklkkklzcvvvccvvvvvvvvvvvvvvvvvvvvvvvjiyywwwyiyyiwutsisiiiiiy9598:::::12269rq97996697522223690ww00wyytuiyipyppiiiiiiu070q06q9000056wrrruusiuruuurrtuuuyrrryurrrrrsrrrrw969999979995799999999959995990666909099999999909079999979790999900009q969666996966356969696665999www99836763663366633634<466333366679569q000099990wuuiiiyyiyiruuuyyyiiyiiiiiiiiphkxvvccvvvccczllvvvvvvvxvvvxvvvvvvxvvvcvvvvvvvvcvvvcccvczkzkkkhkjjhhkhhphhhpppaphhhhkhhadhjhhjhhhhkkkkkkkzkzkkkkdphhddddppddppssphhhkhhhhjkhkhhhhhhkkkkhkkhhhhhhdpphhkhhhhdhhhpiiiiyuhhhhhhkkjjkhkhhhhhhhhkhkhdispiuyuuuuuurruuuywywurrrrippprrrrrrruyyyiyiyywwrrrrrwwwwuuyiptuuryuwuruukvxcvvcvcc",
"iiiipipyiipdpphpkkzccxcckjkhhhhkhfaappppiipppappsdphfdiuwyrww006riuwiiipisidddiyiwsiipppuuuiiphkklkklkhdjhdddkzzzkzfzzccvcvccccvccccccczvxlkkzlkllkckklcpsppiipdipdipphhhpiywwiitt2::1,>,:::::=:===::::;=:=:::::1:112222225990ruyyyiiippidhdppkpdddaidddddppspsdappppapddddkhkhhkkhkjhhkdiipiidiappappppdddiiuiipipiypdiiiyyyiiiaiiappppdhhhhhhhkkkkkkkkdkdddhdy0uuuiidippiiyywyssipppurrtisiidddddkjkkkkhfzzzccczzzzzzzcccvvcvcxxzzkkddkkkapppkppphhhkkphpphkkchhppaiaiiiiaspddphpdkzkkkkkzkzzzzzzzzczzzzccccvvvcccvcccccxzzzklzkzccccccccvvvcczlkklkllkklzvcvcccvvvvvvvvvvvvvvvvvvvvvvvcppiywiiyiyiiyysiidispiw9662>:=::,,<50wq9666666w625635990000wqwyuiypyyiiyiiiipaw0000wqw099rw60surrruiiruuurrrrruuurrruurrrrrrryre93990995999999999979999957999909966096999999990009999959997990009900999993963996966666999966666w99ww9w76699866336366636422566636666766560q007099960wuipyiypyiiiiuuiiiiiyiipipiiihzcvccccvcccvvlcxvvvvvvvvvvvvvvxxvvvvxvvvvvvvvvvcvvvvcccclkzkkhkkkhhhkhhhhhhhpppppdhhkddhhhhkhjhhhkkkzlkkkkzzkkkkhhphhdddddapdhpppphddddhhkkkkhkkhkkkjjkkkkkkkhhfhphhhkdhhhhhhkappiuuushjhhhhkkhkhhhhhkhddhhhhhhipiiuwrrrurrrruutwywturrrryyuprwwwrwruiiiyiiiywwrwyryy0wwwwyyytuururuturypkcxvccccv",
"piipiiiiiippdpadahkclcclkhhhhhkhkhhhapipippappppspdfhdsuuuuwww060iiyiiuipididiyisqisijpituiiihppkdddkkhpddhhhkzxkkkkzzccccccvcvcccccccccvcckhfppcclkkklkhsdspiidddiippfhhppiyiii001:::=:::;::::==:=:::=:;==:=::=1:111222259900uuyyypiiiiidhdhkppdddpsiidiidsdspipppppppphppdhhkhkkddkdkkdiiiiyddppphdippipppiyppiiiiyipiidywyiypiiiaiaapdhhhhhhhkkkkkkkhhkhddhdpu0yuuiispppiy00risipiiu0rriididdddkkkkkkkhkkzzxclzzzzzkzccccvvvxccczkkdddkkddddkhhphhhhhpdpphkkckhpsppiiiiiisdddshpdkkklkkklzzcxzzzzzzzzzccvccvcvccvvccccczzlkkkzlkzccvcvcccvvcclklkkllkhklzccccccvvvvvvvvvvvvvvvvvvvvvvvvchiywiiyyiiiiyiiidpppit0699,:,:::,<56073666535q657q366690000wytyuiuyyypiyiiiii00q00wqur90ww0rgirwwyrrruuuuryruyrryyrrrrrywurrww0666999995990009999999999999979706607759900900090909099979799990979909999899969699996669993696679999w997367773636663663352236666666669656wq0070w9669wyiyiiyyiyyiiiyiiiiyiiiiiiighkcvvvvvccvvcvvxvxxvvvvvvvvxvvvvxvvxxvvvvvvvvvvvvvvvvvvcccckckkhkkkhhhkhhhhhhadpppadhhfdhhhkhhhhhhhhkzzckkklzzkzzhhdhdddddhddpdddssddpphkkkkkkkzkkkkkkkkkkkkfhhhdhdphhhfhhkhkhkkhpiipuuiddhhkkhkjkhhhhhhhhpahahhdpiiirq0rrrtrrrrrwwqwutwwwwwyyyrwwrrwyuyiiyuiuyrrruurrrwwwwuyyuyyuruuuuyuuihcvcccvvc",
"iiiipppiippdhpdppdhhjkjkkhhhhkhkhkhhpppiippppppasidhfdisuuuwwq060iiiipipdiiiiiuiiwididipuisiidpipauphkdiyidkzzzkzkkzkzccvvcvccvccczxccccccczkkkikckccccchhddpiissipiipphhhpppppu99<*:::::=*::*;*==:1::==-=*;==;*:::11122669900wwiiiiiyiiishhhphkddddsdddddiddipdppppappahdddhhhhdhdkdkdhsiidyipppppakippppiyuiiiyyiiyyiiysy0yiipiiiiaippddhkhhhkkjjhjkjhdhdddhhy0r0y0uidpppiyyuwusppdiir0riddddddddkjhkkhkhkfzzcclkkkzzzkcvvvvvvvccckkkdkdkddkkkhhhhhkhhphppklkzlhaiidppiissddddphppklkkklllzzcczzxfzzkzzcccvvvvccccvcccczzzkklkzzzzcxccccczcccclkhkkkkkhhzzccccccvvvvvvvvvvvvvvvvvvvvvvccckpyiiyyiyiiiiiisipppdyy0w911211225670999q976753566656690000wuuuuiiiiiiiiiiiii6q00qwyuur0wwrrgywwwwyyytuutuururrrrrwywrrwrurrw6653363999999999799799999990799999099999999009079909090999999990009990979699698999q96666366969966w96w9667436666466369996333366676666636960qw0070tw070qyipyippypiiiiiiiiiiiiiiipijhhjkvvvvvvccvvcxvvvcvvvvxvvvvvvxvxxvvvxvvvvvvvvvvvvvcvvcvvcccckhhhkkhhhhdhhhhdhpppddhhhhhhkhhhkhjhhjzlllkkkzzzzzkkhdhdahaddaddddsdhhkahkkkjkkhhkhkfhhhhhfhphhppdddspppdhhhkhhddhpyuuuuyutphhkkhkkhkhhhhhhppphhphpiiuyr70000wr0r000000w0rwwwwrrrrwwryrruiyypiiiyriuururrrtuuuyyyytuuuuuuyiiupkvccvccc",
"piippppiipddhphpdddhhhhhhhhhjkkhhkhhapaiippppippsppahhpstuurrrw60yiyppipiiipiuyiswipddppissiiddiiiiipddiudhzzzlklkkkkcccccccvccccccccccckcczzckhkcccckkchsddpiidpdiiyifpphhpphi769<=:::::=*::*::-=::::-=*=*;=;=;:1:11223699900w0iiiiiyiiudjhhfhpdddddddisiddpdsdppppppppppdhhhhkhhkhkdapiuipyyppapppadppiiyppyuyy7yyyyipipi0yiuuiiaaiiapddhhhhhhhhhkkhhhhkhdajhpu0u00yiiippiiuwursdpdsiuuuidddppdddjkkkkkhkkkzxccczkzzzzkcvvvcvvvvccckkdddddkdjdkhhhhkhkgdppkkkclkaipaapppidsdshpdpdjzklkkklzczxkzzzzkzkzzcccvcvcccvcvczzzzklkkkczzzccvcccczcvzzlkkkkkkhlklkccccvvvvvvvvvvvvvvvvvvvvvvvvxcccpiiiyiyyypppiipppkddduqw9119,229990wqqqqqq9q566356669qww0wyuwuuuiiiiyiiiiiiy6000wuussuwwriiirwrrrwwwuuuiiuuurrrywrrywyywrrw73536636999000999099999997999099990909999909999999790900099909900900009906999999669966666363696976q6699563336666666666776369966679866666669000007wq090wyiiiiiaiiiyiiiiiiiiiiipiipsdphcvvvccvcvvccvvvvvvvvvvvvvvvvvvvvxvvxvcvvvvvccvccczcvccclzzckkhhhhhhhhhhhkhhhpppddhhhhakjkkhhhhhhjlkkzkkzzzlzjzjddhhhdhddddddddhhkjkhhhjkkddpdppppddippppppppiiiiiiipppphhpypiyrrrrrrriidhkhhhkhhhhkkhhphhhhppiyyyrww090w00000wwqqww0rrrrrruuwwwyrwyuiyyiiiiruiuuuurruuruuuuuuuuuiiyiiiuuihlvcccvv",
"iiipippiiippphphhdhdhahhhhhhhhhhkhkhpaiiypappipasddhapiisuuuuy060iiyyyuypiippiidswiddjppissiiddiuippspiihjkkkzkzzkklzcccvcvccccvccxcczccccczzzfpfkccklkkdpidiiidihiiyiphppppphi752::=::::==:::;::=:::=-+-=*=:=:=1111222365660ww00yyiiiyyudhhhphkddddddsddddisppdppppppppdadhhhhhdhhkddpiiuiiyyypppppapppiyiipiu7yyyy7yyiypy7riisayiiaapakkkhkhkhkhkhkkkkhhhddhha0u0y0yidippiurrrrudpisiuruidddppdddhhkjkhkhkzzccczkkkzzkkcvvvvvvvvcvczkdkddkkkddhhhhhhkhkkpdkkkczkdpdhhhipdsddsdphppkzkklkklzzxzkzkzzzzczzcvccvccccccvczzzfzkkkkczzzvccccczzzcczkzkklkkklkklxcccvvvvvvvvvvvvvvvvvvvvvvvvxckckpiyiaiyypipiippppkditw05>,2::1390wq9679969q5q7337qqqwwq0qwuwuuiiippypiiiiii6000wissirrquptirwriiwwwuutiuuuirrrrrrrrwwrrrw073399966w9779000000999997979999999909999997999999959000009000999000w09900898999976696665525366699697699663<3696366666673346q766666999666666670w00wqwwwwyipiipiiipyiyiiiiiiiiiiipiiijcvvvvcccvccvcvxvvvcvvvvvxvvvvvxxvvvxvcccvvvvckccckzccccckhkfhhhhhhhhhhhdhhkhadddpddddphkhhhkkhhdhhkkkzkklzzzzzkjddhdphdadddadshhhkkhhppahdpppppppddddpppppippiidiiiiipipahpyyiwwrrryyuyiphkkkhhhhhhkkhhhphhhhppiyyiyrrrrtrtrwrrwuwwwwwwrrrryrywwyrwryyiypippprrruuyrruwwuuyuuuuuuyyiiiyusipkvvcccc",
"iiiiipiippfphppphhhhhfkpapphfffkhfkhhdiiaipppdddsdhpppayssuyruq6yyyiyiiyipiipiiiiiiiidhiisipsipppppipapdkkkzzzlzzzkkkkkkcccxcvxxccccccklckkkzzkhppahhddasdpdidpdppayiiadapaidkpy81===:::=::==::=:&**&&**=::=::::11115858666999wwtuururuuuiiddsiiddhpppppidsddsdippdsdddppphhhfhhhhkhapppiiiuuuusppppddiyuiuspywwwwwuwwsirur99wrrtuuuupddddkdkkddkkpkdkkdhkdphkapu00uu0iiiddsurwwriiipdpiyyussssiphhkhkkhjhhkkhjjkkkkclkkvvvvvvvvvvclckkphhjkhkhkhkkkkhhdkljpdkzzckhxdaxappppdadddddakzzkkkkzzkzkzzkzlxvvczcccvcvccvvcckzlllkkllkzlcccczzczzkkzzckkkffhkkccccvvvvvvvvvvvvvvvvvvvvvvvvvvvvvcxvxpiyiyyiiiyiyyapaaappyw6r2<2:>2933t6018004849<2889800000rrrwyyyuuipiuiiiidi00999yippsiuuuuuu0r0ru000quuiisuirrwrrrrwwwwwrq0969990966500000000000900099999995599999950009009900990000999909099000ww0067666966956qq3256436667679986336466666366336663266666qqq7666999660w0r090rrrrruipyppyiiiypiyipiiiiiiiiiiiipdkzcccvcccvvxvvcvvvvccxvxvvvvxvxvvxvxvccccvvczzccccckkkhhhhhhkhhhhhhhfhhhhhhppadpppaahhhhhhhhjhppkhkhjkkkkckcclclhphddddddddapsppsppppppapdppippppppppppddddppppppdidpddpkkhppiiiiiiiiiuuskjhhhhhhkjhdhfhhhkhpiuyywuuw0ryrrwuwyrwwyww7yryursrwrwrrrrwryiiiipppiiwurirrrrriruuuipiyiyiyiuuuppkzccvcc",
"iipipiipppphphhpphphhfkkkkkhkkkhhhhhhppiiippsdpdphhpppppusuuruw0yyiyyiiyiiipipiihiihdisdpppippppppiiupdkkkzzzkkkkjkhkkhhcccxccccckckkkkkkkkkzzhhppppppiiiddidisdippsispddapidhpy82::11:=:561=::+==******==*=:11::11:595969699w9wuuuuuuuuuuiddiidddhpapppdddidppsppppdpddphpfhhhhhhhhappiiistuwusipppdpiyuuuiiuywwrerwwiirsrw9wsuruuuuypddddkdkkdpppphhkkhkddhkpau00u0yriidiutrwwwuiipppiryusddidphhfkhhkkkhhhhkkkkkkkkklvvvvvvvvvvcvczkakjkkkkkkhhkkjkhhhfhadzxzxhhzhhxapppadddddiikkkzkkkkkzzzlzzzkzzcczzcccvvvcvcccczzlkklkkkkzccccczzczzkzzcckkkhkkkkxcccvvvvcvvvvvvvvvvvvvvvvvvvvvvvvccvckiiiiiyiyyyyypppppiyw72w<><=>,626uq080006982<285980yyyrrrruyyuyuiiiiipipdi0w00wypppiu0uuurytruuuuuywruuuitiywwyrrywrwwwrr0966999960500e00000000090099995990995790990009999909000ww009w9000990000000qq7799999667965533666666799674633366766366399633997q9666q666896360000090r0rtruiyiipiippiiyyiypiyiyiyiiiiipddkxvvccxvxvvvlvvccvvcvxvvvvvvvxvcxvvvcccccvzzzzkzkckhkkhhhhhkhhhhhhhphhhfhhppppddppdhhhhhhkkkhphhkhhkkkkcklkczckhpphhadadhddphhhhpppaipphhhddhhdhhhhhdkhkkkhhppppidspddphhhaiyyiiiyiisuuiphhhhhhhkkhhhhhpdhhdiuywuuww0rwruruwrrwwyrwwrrruiuwwyrwwywwyyiiippipiiirrrrwrrrrriiuiiiiiiyiiuuiyyykccccv",
"pipiiddipppphppphphphkkklzkklkhhhhhhhppiipipsdshhhhpipiiustrrrywyyyyiiiyiipippihirihididdpppsippipiiypdkkkzczkkkkhhhhphhkccxcccccckkkkkkkkhkjkhdhpsipypapppiisppahhhadddddpisdpy81:1521=2881:==+&==*==:==:===::::1:1585666999999uuusuuuuyuuiiisdpdhhpdhpdidiispdpppddddphphhkhhhhhhhaiiiiuuuurusssppppsruwipsurrww0uw0uuuurw99wrrrusiiiikdkddkddppppdkkdhkdikapi0y00r0ruipsiurwrwruipppituuisdddpdhhhkhhhhhhhkkkkkjkkfkcvvvvvvvvvvxxlzkahkkkkkkkkkjzkkkhkkkahxxzxkhzakchpppdddadddddkkkkkkkzzzzzzkzzzzcccccccvvvvvcczzkzklkklklkzzcccczzzzzkzzcclkkkkkkzzzccvvvvcvvvvvvvvvvvvvvvvvvvvvvcvcccxfiiiyyiiiyyyapppppiur76i96w,:>222w68189089822925980wrrrryusiyuiiiiiispipdi0w00wipppiryuiuyy0r0iuuuuwwyuuuitrrwwwrrwqrqwrq00799976006000000009000090009999999559999909999999990900w0w09wwww999000000q79999966699q66666636666666866664336666666776667q666666696669993600600900ruuiyyyipiiiiiyiiyipupyiyiiaiiyippapzcvcvccvxvvcvcvvcvvxvvvvxvvvvvvvvxxvccczzzjkkkzkkkkhhhhhhkhhhhhphhhpppphhppppdpddahhhhhkkhkkhphhhhkkkckklkkzckhhhhgddhddppdhspsppdhpphhdhhhfhkkhkkkkkkkkkhhpsppppsddddpkkhiyiiiiiyysssisphkhhhhhhkhhhhphhkdpyywuwwqwyrurrwuwwwrwyrrrrrrrrrrwryyrrrryiipppppsiiritirrrrryiiiiiiiiiyyuuusiyipccccc",
"pppddiddpphhphfhdhpppkkzlcczzkkfhhhhddpiiiipdsddhhdiippiusurrwuuyiiyyiiyiiisidpsdiihdiddppipppppippiyupkhkkkzkpphkhhhhhpkkkkzzccccclkkfkkhhjkjhhkhppipppdpppiiidhkklhhkdhppyisiw8:=:11::1681:+=*=&*=========::::11:1595979990099uusuuutuiuuuursdypdpphaipsddddidapdphddahphhhkkhhhhhaaiidsuuuruusappppirwipdsiuurweiweiisuurw90rwrusuiyudkjddkddppppppdadkdikdppu00u00rupiiuururwruiippiuwuisdidphhhkhjkkkhkhhkjkkkkfkcvvvvvvvvvvvvcczkkkkkccczkkkkzkkkhkllhhlzkzkazkkckppdaddddidikkzzkfkzkkkzkkzzzxzccccccvvcvccckzzkzkklkkkklzzcccczzczzzzccczklkklzczzxvvvvvvvvvvvvvvvvvvvvvvvvvvvvxcccckaiyyiiiyyyyipfppaiiwww6r96723<555979100000089w95w00rrrrw0utiiuiaiisisppdiy0w00wppppiuuisiiyy0u0u0uuywwwruuuyrrrryrwrwwrw0rrrrr06660006000005000000909955990959970099979999996690000w0www90w009000099696696q66696656646663439666336325466666466633366656q7q69966999660000990ruuuuyyiiipiypiiiiyiupupiiiyiiiiipuyifccccvclvxxcvcvcvccxvxvvvvvxvxxvxvvvvvvvvzzzzkkkkkkhhhhhhhkhhhhhhphhpphphappppdpdpdhhhkhkkkkphhhhhkkkkkkklkkzkhphhddddddpadpppipphhhkhkkkkkkkjkkkkkkkdhddddhhhpsdpdpddphckyyyippiiyssisphkjhhhkhhhhhhhphhfphpywruwqwwwuwuywywwwrrrrrrryiuurrrrrrryriiiipiiptiiiiiirrrrrwyiyiippaiiisiuppyyiccccc",
"sdddddddphpfppdddppdhzzzzzzzzzkfhhhhhfaiipiddddddaaaiaiistuyrrruyiyyyiiiiippppppirihdidsspiiupiiippppipadkkkkkddhjkphhphhkpkkkkfkklclkkhhjhjkkkhahdpppppppppiiipkkkkhhhahpiiiiuy8::=::==::::==*+*=*====*::=::::::1:1886900000000suutuuruuuuuurruypppphpppdipdppdppppdaddhhhhjhhhhhfpiiiapturrrutiasiiiyyripdsiiwureiwwiisusuw0wtruussiuuddddddddpppppapahkpihhiyy00wu00updpiuuwwwruipdpirruusidshhhfkkkkhkhkhhkhkkkkkkvvvvvvvvvvlvxlzzkkzkzzzzzzkkjkkkkkkllkkklkkldlkkxhpddphpdadddakzzkkkkzzzzzzkzzcccccccccvcvczzkzkzflkkllkklzccczzzzcczzzzzzkkkzzzzczzcvvvvvvvvvvvvvvvvvvvvvvvvvvvvcvvvvkpiiiiyyiyywpphpipiirrr9i525,1>26600929000ut90095wwriywwruuuiiiaipiiiisddsy0090ypppasuuippiuuuu0yyuuurwwruitrrwrwruwwrrqwqwrrtrw06660066900e0000000900759999959900009760979996690000900w00000000999996696666399666636666633336364346<33636663376636795566qq96967q9996w00w090uuuuuyyiyppiyipiypypupyuiiyiiiiiiiiuihzccccvccxcvvvcvvccvxxvvvvxxvvvvvcvvvcvvvcccczzlzzkkhhhhhhkhhhhhhhhapappdppppadppdhhhkkkkhkhhhhhdhkkkkkcckkzckhdhdhhpahddapddsdhfjkkkkkkkkkhhhhhhhhhhdppdddhpddsppdpapphckriiiipppuuurydhhhphhhhhhhphpahhhhhiuurrw7wyuwuuwuyrwyrrywryrryuururrrriruyippipipiiiiiirirrrruiiiiippipiisuuyiiwykzccc",
"ddsdddidpphpkkddhppphzzzzkzzzkkkhahhhppiipiisdddaaaiiiaipuuyywwuyiiyyiiiiipippiddiihidddiiipppupiipppppadddkkdkkhphhphhhpfphphhhhkkkkkkakkkkkkhkhhhhapppiippiiiikkkkhkhhhhpadpsy8:=:::=:-=-**:=**&=====*::::11:::1:1885679969990iiur00rtuutuu0rupiaaapppsddsipdphpppdddpphhhkkkhhhpiiiiaguruuuusspsiisy70uisiiiwuw0tw0iissur00wwtuuuidiuddddsddiahphpppphkhphhpyyy000u0uypisuuwrrwuidppputruuuiiphhhhhkjhhkhhkkhzkkkkcvvvvvvvvvvvvvvzzkkzzzzlzzkzjdjkkkjhlzkaklkkkahkkxkdppdpdppddiddzzkkzkzklzzkzzlccccccccccccczkkzzzkkkkkklkkzccckkfzzzzzzkzkkkklkzzzzzvcvvvvvvvvvvvvvvvvvvvvvvvvvvvvcvvvlpiiyiiiywiypfappipiriiegw7q<6:<66908299090099086wyipyuyuiuuiiiipippsssddsit090wppppsuiipiiiiiuiyyuuiuyruurryrwyryrwrwwwwwq0rrrw96600000060900000090999559999999906997067999099900w0900900090w000979q7969776q7q9666266364355336346634543346666667667qq666966999q7q990ww0r090turrwuyyipiipiiipyiyyppyiiiiiiiiidiiidjzccccccvxcccvvcvvxvvvvvvvvvxvccvcvvvvvvvccczccccckjkkhkkkkhkhhhhhhdppapapppadhpdhkhhkhkhhhphhhhhkkffkkzckkckkhdddphpddddpppsdhkkjkkkhhhhppppdddphhddhhhhhghdpdpsdpapphkhyiiiipppyutrihjhhhhhhhhhhhpddphhpppiuirw0wwwuuwwwrywwwrrywwwruuuruurrryuiiiiipiiyittiitiywrrruiiiiiiiiiiisuuiidddczccc",
"sdsddddsfhpkphpapdphkzkkzzkczzkahhphhhpipppdsdidpdiiiiiiswrruwwuyiiyyiiiiiiipiipirihdidpipdppupuiiiipdaddjdddhjdphpphhhhhhhhhhkhkkkkkkhkhhkhhkkkhjkhhhhaiaiiiiiphkkkhkkhhdpadpiy1==8851:-::*=**=&=======:::::::::1::885966576690uuuur0rrurrrrrruaipppiiaiddiddppppppdddddhhhkkkhppppiiiiiiuruuuuisspaaiy9uiiyuuwre9uw0ususu06000iuuuiiiiissidddipppppppphkdphkpir00yu00uuiisiuw0uwypiippuuuuuiypphhhkhkhhhjkkhkkkkkkcvvvvvvvvvvvvvvxczcxzzzzlzkkkkkkkzkhhlxkkkzzkxaklklkpaphpappddddkkzkkzzffzzzzzcccccccccccccccxkzzzkffkhkkkklzccckhfkkkzzkkkkkkkkzzkzcvvvvvcvvvvvvvvvvvvvvvvvvvvvvvvvvvvvvlaiyiiuyyiipahpipppwww7w7699q22qwqw09r0u0iu00099w0yiiuuryuyiiiaippisspdddsiw09ypupppyipppipddiiyiiyirrruurwrwwwruywrrqwww00rw09767906066099009099009999995709990906996799900909ew0w0900000000000099799997996q76666663553653<34<3436232336336666999966966936699qq7qq0rw0w00rrruruyiipipiiiiyuuyiiuppiiyyiaiiipdiusdhhhhkzccxvcvvcvccvxxvvxvvvxvxvvvvvvzvvvccccklcclczjjhhkkhhhhhhkhhddpppddpphhpphhhhhkhkhhphdhkkjhjkkkklzckkzlkhhdphpddhpdpipppdddhpppppddphphdhhhhkhhhkkhkpdspsppdpppdaadiiuuppppyuuuidhkhhhphhkhhhhhphhhpippsirw7wwwuuwuwwwwwyrwwywyrurrruuurrruuiiiiiiiiitrrriwerriiipiipiiiiiiptruiddkvccccv",
"idshddddppppkphhhiphkczkzzzczkkahhhhfhpippppppdipdaiaiaisrwruuywiiiyyiiiiiipipiidiihiidsdidpppuupiyipdkhddjdjdddkpkhfhhkhkhhhhhkxckfkfkjhkhkhhhkhkhhhhhpiiiiiiiisdddphhhhppdapii2:18e91=::::***=&&==:=:=::=::::::1:159990099990yruuuuurritrrr0rsaiyiiyypdpsdpsppshppdaddddhhkhahiipppiaisiwruuuuisspppir0uswyyuwue0ur0isuss06wr0iutuuippididsddippapppphphhphapiuwy0uu00uudssuu0wwuyiippsuuuuyiiphhhkjkhkhkhjkhhjjkkcvvvvvvvvvvvvvvvczcczzxxlklkkkdjkkkkdklkfkzzlxhjlklkddpdpdppsdddkzzzkkkzzkzzzlccccccccclccclzzkzzzkfhhhhkkkkzccxkfkkkffkkkkkffkkkzzccvvvvvvvvvvvvvvvvvvvvvvvvvvvvvvvvvvvvvfiiiiiyyipphppipayriw5q2<3<2&;2560r9i009r0u0090r0rtuuurwrriiiipippsiddddsdu00yipupapppppddpdiuiyypiurruuw0yryrwrwwtrwwurr9rw735366060090990009900000999999099909669699990000990000900000006600009999696669666666954636533334235336345<4346663387683666666639q7q9990wq0w090r0uuiyyiyipiyppipypyipyuyiiiiiiiuiiiuuuuiipahkkzcvvcvcvcxvvvvvvvvxvcvvvvvcvzccczczkkkkckkkhhhhhhkhkhhhhhhdppdhddhhahpphkjhkkhhhphhhkkkkkkkkfkckhkzkkdhhpahdhppaddpddphadpphphhkkkkkhkhkkkkkhhhhddppssippdypdhpiipiyuuspyrrriidhhffpphfhphhhpphhppsddiuywwwwururyww7wrruwrwwruisruuurrruspipppppyiiirrtritiiidpppiayiyiipissiyidccvvvc",
"iidhhappdhadpaddddsddkkczkzzzzffhhhhhdpppppppppapdpisgirrrrrrrwuyyuuiiuiipiiipiiiihhippdppsppdpspupahkkhhkhhhhaddhhhhhhhhphhhhkhlzkkkjzzkhkhhkhhhhkkkhhhdpppipipsiiadhkjkhddddiy8*=888:=1:*=**=:========11==::==:1:125996096000rrrurrrrrwrrrrusdpptwisssdphdpiiphpdddhpppphkkkhpidppipiisuyriuuuppiippiywrspyrrwurewrwwtustw9ww0trruuisidpdsdiddpppipippdphdddppyw0wuwwwtupppyuwuu0riiiiitr0uippahhhphhkjhhkkhkjhkjkcvvvvvvvvvvvvvvvvvvvzzckzzkkkkkkkkjkdlzzlzcclzkkkklkdppppppphddakzkllkkllzzzzzzccccckkzzcccczzzzklkhhkkhkflkzzkkjkhsjkkkkdkzkkzfzzzccvvvccvvvvvvvvvvvvvvvvvvvvvvvvvvvvvvvvcpiiiiiiiippdpppppriit09ww663:62q90009y90y8000000rwtyrrtyyppdpiipadiihdisdiywypppiyippakiiiiiyiyyyiruiiirr9qqiiurrrrrrywwwq36697369599999907990000999990900999999000060000000000069000990099799909999999666669996663235233<<<<33335543663462<36663666969999999999ww00wwwyw0uistiiiiiiiiyiyiyyyyiiiyiyiiiiiiiiiipyyiuihkhzvcvvcccccvvvxvvvvxxxxccvcvvcvvvczkzczkakkkkhhkjcckjkkhhdddddadddaddddhhhhkdkhhhdddkkkkzjklkklcckhkkkkdpphdhhdfhhhphppddddahhhkhkkkkkkhkhkkkjhhhhdssihsihippppppsyryrrudpyruuiihhhhhhhhhhhaddhhhhadpdhsuywwwywwwwwyywwwyurryryrruuuurryyiyiiyiiiipiiipiiiiiiiippiiiuuipippiuypddkzvvccc",
"dppahdpdppddhpppdssdhkzczzzzzkkkhhhhhhppppppppppipisisirrrrrruywuuuuiuiuiiipiipiiiihpdpppppippsspppdjkkhhjkhhhdkhhhhhkhkkhhfhkhkjkjkkkkzhkhhhhkhkhkhkhhhdhppapapsdddakhdhhhhkhay2=:11::==**=**==***=======::::==::1115990699900wrrur0rrrrrruiiddiiuusiisdppppppppsssdhapdhhhaapyippiipiiusywyiytpsiippir0wtsrrrrww0wewwsssuw0ww0r00ruiiyipidddippppippdipppahdppir0wywwywuippitwr0uriipptrwriiiipphhhhhhkkhhhkhhkkhkcvvvvvvvvvvvvvvvvvvvzcczkzzkkjjkhkkhhlzzzzcczkzzzzzzddppdpdaddddjzzzkkkkllzzzzzzcccckkzzcccczzkzllkjhkkkhkllkkkkkhkdkkhkdkkkkkkkkzzccvvcccvvvvvvvvvvvvvvvvvvvvvvvvvvvvvvvvvfhidiiiihpppiiiiiwre65222232:65w0t0u0iuiwt0rw000rywyrryuuipddiiiidiiddiidpyyyipiiiyiididippiiiiiyituttiirrqqwuyrrywyrwww0932566535999999999990000909990009009999906606070600009099900969999699w999966976396999396766352<2<<3444673<536633332467663666966999w9999qw0w0yuww0uiitiipippyypypyyiipiyiiyiyiiiiiiiiyyyidyyiklczcvccvcvcvxvvxvvvvvvvvccvvczcvcxklzzlkaakjhhkkkkkkjhkhhdddppddaddddddhhkhdkhkhhhddhdkkzkklkklczkkkjkkhdahddhdpphppppfdahdkjkkkkhhhhhkkkkjkkhkhkhddihiihihpppppiurrrrrrpyrwuuiidhpahkhhhhhhpdddhdddidddiwyw0wwywwwywwyrwrrrrwwyrruiurriiiipipipiippippaiapdidiisdiiiyiyiiiiiiypdkcvvccv",
"ppdhhppdapddphdpdsddhkkkzzzzzkkhhhhkhhhpappppppppiiiiuyrwrrryyrytyuuiyyiiiiiiipphiiipppppiipppphddadkkkhdkddhhkhhhhkhkhhhhhphhhhhhkjhkjkjkkkkhhkhkhkkhhhfpppppppsshkkhhghhhkkkiy2111=:11*****=:=&=**====::==::::::1:2995690000e0rwrwr0uurrruddddqiiisiypppiipddiddspphahhappiaiyipiiiiiisuwquuytppiippiu00uir0ww0e00rwwsisuw0ewwrrrruiiiiddiiidpiippiddippsdddsiiwwyywwwwtppiyrr0ruuuipiuuruuipiphhhhfhkkhhkhhhhkhhkcvvvvvvvvvvvvvvvvvvvzczkklzzjjhkhkkhkzzzzcczzzzlzkzxddpadddpddddkkzklkkkzxxzxccccccczkzzccxxkkkklkkhkkkkkklzkkhkkkddhhhkkhhkzzfzzzzzccccccvvvvvvvvvvvvvvvvvvvvvvvvvvvvvvvvvkhidpiidippipiiiyiiiq555632<:660q0907079500w000ryurrrrtuiuppapiriiiidsiddpiyipiiiiiyidddspiiiyyiiitiitiiruwwqwuuwwwrrrww79322355359998998999909000079980000099090006669900090900099009969967999099698996666996936766322<<<233733334436346343366736663696669w9997qy0wywuy0ruuurippiiiipyiypiyiyipyiyiiiiuiiiyyiyiypiyypkckccvccvvcxvxvvvvxvcvccvcvvczkzzzzkklkkkhhkkhkkkhjkkhhhhdpdpddddaddddpdhkhkkdhhdhddhdkjkjkzkkkcckfkkkkhppphpppphphdhhhdhddhhhhhhhhhhhhhkkjhhhkhhhdihihhshippppspprrrrwruyrwuiippppaddahhhkhhpdhhhhdpipdsuw7wwywwywwyiewuuwrrrwwrruttrruiiypiiiyiiiiapppppphiipddddiiiiiiiiuiyppdzcvvccc",
"apphddpadhphhdhdhssddhhhkhkkfhhhkhhhhhhhdapappppdisuuiurrrrryywwwuuuuiyuipddpippdiiiphppipppsphhhhhhkhkhdddkhhhhhhhhhhhdhhhhhkkhdhhhkkkkkkjhkkkkkjhkkkjhhpppaippudkzzkhjahkhhhi02111:2881:=&+::=&&*&=+======:::::::1259967999970r0rrrrruuuisddiiqiiiiuwwuiipisdddddpppdhapiiiiaaiipiipiiuswquuuuiiiiipiu0yuiuyuw0w00rwwsisiwwwwwrrrruiipsiidspiiipppisddipisdddiuywwyw0wquippurrr00ruiiprrtuuipippphhpkhhhhhkhhhkkhkcvvvvvvvvvvvvvvvvvvccczkkkzkkkkkkjkkzzzzzzcxzkkkzkzzddppahhdddpdhzlkkkklzzzzcccccccczxzxcczllzzkllfhhhkkkkzzkkkhhdkkhhhkkkkkkkzfkzzzxcccvvvvvvvvvvvvvvvvvvvvvvvvvvvvvvvvvvvlhddiihhihhpppiiiiue76665662<7wqw00u9u709800000ruutryytiuiippsiuuspdiiiiddiiipipiiippiiddipiipiyissiiiirriw7wwuwrywwwyyyyw66666569589090900090000w00000ww000000099960090069900000900996999999909999998996696696666463522<2243333663334433336777636666669969999wqwwywwrrwyrruuuiiipypiiiiipipypyyyiiyiiipiiiiyyyiiydkdphlccvcccvvcvvxvvvvvvvvvvvvcvczzzzzfkhhhffkhkkjkkhhhhkhhhaappddaddddddapdhhhhdddddhhkddhkzkjzkkkkckfjkkhhphhphphhphphfphhhdaiippddhhhdhhkkkkkkhhkhhdhihihiihsssspirrrrrruypyuisiiphyippadhhhddaddhhdhpiphdiyywwwywwwuwywuwrurrwryruyrrrruyiipyiiiipiiiphafhpihiiidsiiiiiipyitspppdzcvcccc",
"dddkddppdddhhdadsippddhdsddhhhhhhhfhhhhhaaddddppdiiiurwqwyrrrrwrruyuuuyippdiiiiiippippphhhhdpphhkhhkhkkhkddhhhaphddhdkddkkkhhkkhhhhhkhhkhjkkkkkkkhkkkkkhphppppaitdkzzkhdfahkffdy81:11888:1:=::::=&&=========:::::::1289559509956000ryyyusddddiiiiiisgpwwwiddiddidsdidpphddiyiaaiipipiiiiiu70uuruiiiispiiiwriuiiwwwwwwewtisuwwrrerutiispddididiipipidddsdiissssssurwywwqywyiipiurrr0uuuyirtuiuiiipahhhhhhkhhhhhhhkhjkkcxvvvvvvvvvvvvvvvvvvvckfkkkkkhkkjkklllzllklzlkkkkzzkdpdddhaddpdhlkkklkkzxzzzzzxzzzzzzzzzzzzxlzkzklhhkklkklzkjkjkkhkhhkkkjkkxkkkkzzzlzlxvvvvvvvvvvvvvvvvvvvvvvvvvvvvvvvvvvvvhhhddpdpihiippiiirw07wq99993qiwuuuiru9yy00t0w0wryrruyuiiipppupupppdpdddddiiisdiiddididsdiippypiyiiistiiriw0wruuwwwrrrrrrq9966566595590090900000www09wwww90000999999990000600000009090999969900069998696669763666455333<<2233362463644353336996669669999979997qwwywywur000uutuipiypiiiiiyipypiyipiiiyppuipupyyiiiidkddkvvvvccvccvvxvxvvvvvvvvvcvvvvvcccczkdhakzkfhhkkkhhhhhhhhpapdddddddddaadddhhhhdddahdhdkkkkkkkkfkkkkkhkkkddddahahhhhhhkhhhppppppppppphhkhkkkkhhhhhhphishiiddisisiiuirrrrrypiuusiiipppiiipdhhhddddhhdhhpiahfpywwwwywwwwwuwywururwrrwrrrywwuyiyiyiiiiiippaahpppidipdsidiiiiiiiyriddddkcvvccc",
"ddddkiddhdhhhhdddpppdssssdddhhhkhhhhhhhddddddidddditiwwwrryrryrrrwutiuiyiphdpiyiiiipppfkzzjjhdadhkkhkhhhkdpdhdppdddddkhdjkkhkzkjkhhkhkhhkhhkkjkjkkkjhkhkfhhdppppsdhlkhdsaasdaaad81::111::::221:;========:==::::::::125599595506999rtuyyiddkjdiissdiigiw0wisiiisiisddpipphdpiiiiiipppppiyuyq0wurtspapphppirruyiuwwuwwwwwuusuwwwrwwrriiiipiiidippipisiididisisssiuurwywwwywwyipiuwr00uuuiyruuuiiiipppfdhhhhkkhhhhkkhhkkfkxvvvvvvvvvvvvvvvvcvckkhkhkkkkhkkklkklllkkzklklzxcddpdddhddsddjllkkkkkzzczzzzzzzzkzzzzzzzzzzklklfhhjhkkkllzkzkhhkhhhkjkkkzzkkazzzkxcccvvvvvvvvvvvvvvvvvvvvvvvvvvvvvvvvvvvvcjhdphpdhiiiiiiuiiqwwqwqq997qhqiuti009y0000trtryrrrrtytippuipupppddpidddpiiiiiddiidiiiiipiiiiiyyititiruire0qwrwrryyrrrrrq99665369589989099999000w0w000ww00000099505009906976990099900099999990099996999397663636355222<<2336634366333<5366669866669999996990wqwwwywuuu00rtiiuipipipipipipipipyiyiyiiuppuppiipyiiddddkvvccvcvccccxvxvvvvvvcvccvvccvvvccczkkkkzczzhhhhhkhkkhkhhpdpdpdddddddddddhhhdadhdddhhhdhkkkjkkhhlzkkkkkjhdphhhphhhhfkhhhappphpppphfkkkhkkjkjkhhhhhhphisdddihirrusrrurrrrripisssiidhpppapdhhdhaddaddhhppihkpiwywyywywwuwwwuwuuyuwwrrrrrwyuiiiyyyiiiipappphfppiiiiipdiiiiiiyiyuuddkdkcccccv",
"dddaddddpaddpaddpappddssdddddhkkhhddhhaddddddddddsisuwwwwyrrryrwrruuuiyyupddpyiiiuiiphkczjzzkkhphkhkdkdkdddpdhpphddakkkdkkkhhkkhhhhkkhkkhkkhkkjkjjkkkhjkjkhhpppisddahddipiiissdi81:1::11112882;*&==========::::==::1555595500705990sduypfhddddpdssutpiq0isittiiwiippppppdpppaiiyiipiiiuyui00wyriippppppiuuuirry0wrwwwwerustw9wrwwruiiidsppdiddisidididdiusssisuuurwww0wywwyipdywruu0yuuurruuuypppphphhhkjhhkhkkhkkkckkfkvvvvvvvvvvvvvvvcccckkckkkjkhhkkklhhkllkklkzlkzzzaddadddddppdkklkklkkzcczkzzkzzlzllkxzzzzzzlkkkhhhhjlklllkzkkhhhhkhhhkhkzxlkkzzlkvvvvvvvvvvvvvvvvvvvvvvvvvvvvvvvvvvvvvvvvvchphhdihiiippiiiwq3566696769g0iiusrpwur000wrtyurwyyyuuuyiiiippuspduiisdiiipdipdiddiiiiippipiyyyitiirruutq00w0wwwywwywrww09965565858500059999000990ww00099900999055009009999999909900w0097690906q66669699966636665222<<<22334632666642423766666669696999799w7qwwwwyur009ruiiuiddiiiiiiippiiiiiyiiiaypipyiiiipyyidiidcvvccvcvcvvcvvxxvvvvvvvvvvcvcvvvcxzzkkkkzkkkhhhhhkhhhhhhhhddpadadddadhdddahhddddddddhdhhhkkkffhkkzkkkkjkddpdhpphpphphhhppapppppahhkkhhhkkjkkhhhhhhpppspddihiirwrrrwrrrrrrypiissiippippppdhadhdddhhhhhhpphkhiyywwwywtuwyurwuuruuwwyrrrrrrriiiiiiiipppphahpppphisihidiiiiiiiipuusdkkccvcccc",
"dppaddhkhhdhhhhdhhpaddsssdddddhhhddpahddhdadahhhddddswwqrwyrrrrrrruuuyuiwidapiyiiiuudhcckkjzczkhkhkhkdkhddipdhpphddhkjkkdkhpdkjdkhkhkjkjhhhkkkkjkkkkkkkkkkhhpppasspdhhssppyyidiu81121:8ee55e01;*=&&==&====::1::==::1855050056e0099rsdiyphpipddddghiupiwyhiq70tw7ruidppadipppppayipdiiiywuy09wywuuiiispssuwiu00ry0re0wwwwusuw0wwwwruiiiidisddpsdpdididipsssiisiiurwwuywwuwwwyddiqru0uruuurruuuuidppphpphhkhkhhkhhkhkkzhkzvvvvvvvvvvvvvvvcccxcccckzkhkjjkkhddklklkkkkkkzzxhddddhaddppdhkkkllkzzcczlkklzzlzkkkkkzkklkkkkkhhahhhhkklkjzkhhhhhkhkjhjzzkkfzzkzvvvvvvvvvvvvvvvvvvvvvvvvvvvvvvvvvvvvvvvvvckhphhdhhidpppisrq6579662256d6yuruwiuw90wwwwwwwrwwwttuiyyyupiiyiipuyisidiiipiiiisddpipdippipyyyisistrrrrr00777wwwwwwwwwqw00935659559999959500e0999000099900099950999000099099999990ww0099999007qq8939969666633333222,<22236732266633223366366666696696969w9q7wwuuwruu09tiiuriddipipyppiipipippiiiyiiipppupyiiiypypjkkcvccccccvxvxvvvvvvcccvccvccccczzzxlxkkkffdhhhhhhhhhhkhhhdddppdadddahhddhhhpaddadddhdhhhkkkfhaakklkjkkkddshphhpphphhdphdpdpfphppppppiphhhkkkfphphppsddiigihtqqwq0wwruirrpppusspppayppppdddphdaddhhdhhhphhhpwwwwwwyywuwwwuuwuurywrwrrrrriiipiiiipiiphhdhhphphiphdhsdiiiiiiiyuuuddccvvcccc",
"ppphhfphphhphhhddddpppppppppaahhhhhahhhppphpppphjhhpiuiwwuwityuwrwttuuuuuiissdsdppappkcclzcccckkhhkkhhhkhappphhpdddajjkkdhhhhahhhhkhhkkhhhkhkhhhkkkhkkkhhhaappippiiakkhidpsiir088111215tie61:::*&&&=:==:::=:::::::::1558958990w0990idddpddpipahpppiuiur0su0uu000qussiitsyypdhapipiiiuurqwwwqrrrruuususdywiwuw9r00r0000w0wusyw0wtwrtiiippididiiddipiididdiipiiu0r0t000ut00rrtsirrruwwruuyuuuuyipdhpfpfhhhhkhkjkkkhjkkjhhkvvvvvvvvvvvvvvvvvvccccckkhlkkkkkkhhlkkklkkkzzzkkkppahhpdsdddhkzkkkkkzzzzzzzzkzklkhkkkkzzkkkzkkkfhhkkkhhhjkkkkhkkhhkkkzklzzzkkkccvvvvvvvvvvvvvvvvvvvvvvvvvvvvvvvvvvvvvvvvvvchphhhdpipadpiww6<20q93q37whwhuuuuiit00ywwwwuwwwyryuitwtwiipppdppiiapppipiapsipippddidiiippuyuiyiiiyyy0ru0660wrwwwrrwwwq932254585599506900995509700000066090000009999900009990990000099999900w9999666666676666232,222233333366666666346663539666666699999wwqwwwwuuwww7wiiiiihpiiipiipiippiipiiiiayiiiiiyiiyiyiayiiaiakccvcvvvvvcccvvvcvccccczzcccvzczzkkkkkffzdhhhhhhhhhhhfhhppddppdddhhdddhhhdhddpddhhhhhhhhhkhkjkkkhkkkkhpphhhhpddhphhhhhdhahpphhhhkhhkhjkhkhhppapppppppddiiirw0qwrwrirusiiiuippsiiiipaaaapphphahphhphhhhhkhsrwwruwwyrwywwuuuurwrwwwwrruiiiipyiipddphdddphhpdiidsddiiuuiiddysuupkcccccccv",
"ppphhfppphhhdhhdapppppppyaippaapphppphhhppppppaahdiiuwewyuwwwuwyrrrrutuurtuitiiiipiphlclzkkcccckkkkjkhhkhpiphhapddddhhhadhhhhhhhhhhkkhhkhkhkhkkkjhkkjhkkkhapppppppadkfdpdadiiiy081:1250itw641:==::::-=:::;::::::::::112858599909990uidddpdppiadpphpuiu0y00000turqisirwiiippahhayiiiisirwqwwwrrrwwruiwspiwiwwr0y0r0r0rrrwsssuw0wwwruuiiiddididiidipipidisppppsui0u0u0t00rr00issuru0wyrutwuwuyyyippphhhhhhfhkhhhhhkkkkhhhkvvvvvvvvvvvvvvvvvcccvccckhhlhkfkkkhklkkllklzzcckdppppddppdddhllklkklzzxzlkzkkzzzkkkkzfzzkkkkkkkhhhhhhhkhjjkdjkhkhhhkkkzkcckkkklcvvvvvvvvvvvvvvvvvvvvvvvvvvvvvvvvvvvvvvvvvvchppdhhipphhpiwt05500539357p7uruutyywwwuwwywiyywwruuuuyyyuippupsiiipippiiisppiipipddddduiiiuyyyiyyyiyyrrw0990www0wrwwwqq9325525586660500000009099900090000999900999990000099900000000990990000w9q9966266336642222<,2211113323666666336334543363666669999qqwwwrwywyuwwwerriiipiipiipippiiippipiiiiiiiiiiiiiyiiyiyyiiipadkzcxcccccccccccvxzzczzlzcccvvcczkkkkahfhhhhhhhhkhhhhhhdpppdapddddhdhdadhdhdahhppphhhkhkkhhhkkhhkkkjkphhpapphpahhhhhhhhhhhhphhhhhhhkkkkhhhhpdpppppppidddsuwqqeewtiuuipypiiiipsiiiiippphpfppphpphpaphhhhhssrwrrrwrrrrrrturwwuwryrwrrrriiupiiipppphahdhhhhddisddiiiiuiiiiuutudkcvvvcvcc",
"ppphhpppahhahhppppppayippypypppppppapphhppahppppiiiwwywwtwywwyywrrrrruuuturuiyiupyyphkkkckkkcczdhkjkkkfhapppphhpadddhhhjhhhhhhhkhhhhhhjhhhhkkhkjkhkjkhkjkdppyppppppdafapppdddiuy8211246r0051:;:=::1::=::=::=::::::::1122656599990900uidhpppippppadsidi0r0000rrt0usdr9qiiippppddpiyisiiwww0qrrrrr0witwusiwwwiwwwwrrwrtww0ussw0wwr0riiiiisididdidspidididdppipsuuuu00t0rr00rrriiuruwwwwuuuuutyyipappphhhhhhhhhhkhkkhkhhphkvvvvvvvvvvvvvvvvvccvvvvclkkhhkhfkkkkkkkkkkkkkclkhppphhadddddhzzkzklzcczzzzxkzzzkfkfkzkzzkkkkkkkfhhhkkjkkkddkkkjhhffkkkkkxlkkakcvvvvvvvvvvvvvvvvvvvvvvvvvvvvvvvvvvvvvvvvvvvcchhppkpphhpaiuit67q9566326r6wwuuw00wuyiwuiwiwtwwyuuuurryiippipppiiiipiispsipspiipiddiiiiipiyipiiuyyyy0009000www0rqww0999352558595060000000999099900090006969900000900009000900000009900000000q9999662663366432322,221,1222236667666642253666966666699q97wwryruwutuuywiiiiipdpppipipipipipipipiiyiiiiiiiiiiiiiiiyyyiiisddkcczzcccccczzcczzccklzcvvvvvczzkzkdhkhhhhhhkhkhkhkhfpdddpddpadddahdadhdhaahhpphhkkkkhkhphkkkkhkkkhhhhhpphphhpahhhhhkhhhfkkhkhkhkhhhhhhhpaddppspipdsidhiu7qwwwrirriiypiipdppisipiippphppppppappphhhhhkhguwwwyrrrrruruuwwrwrrrrrrryuiiiyiiippppdaphhhfpsddihddipyiyiuyyuupdcvvxvcccc",
"apppdpappdhhdhhaappppipiappappppppppphpfpppppaiphiywwwwwwwwywwwywrrruuruuuuuuiiyypyydkkkckkkkjkhhhhhkhppppipahhphddhkklzhhhhhhhkhkhkkhkhkkjhhhkhkkkhkkkkkhppapppuppppppppppddiuuw0665116211::;**122:-=:=;==::=::1::::122566999990000uidkaappphpppddidsui000t000trdsw7uiiipppppppiiyiiiww00wqwrrq0wuuuipuriwwwwurrrwwt0w0ussr0wwtrruiipisdidiididiiiiididyiiiiuuutu0r00u0r00rtsirruwyruuwuuyuiypppphhhhhhkkkjkhkhjkkkhphhvvvvvvvvvvvvvvvvvvvvvvvvxxkkfkkkfkkklklkkkkkklklkpppdaphdhddhzzzzzkzxcxzkkzzklzkkkfkfkkkkkkzkfkfhhhhkkjkkkjkkhkhfhkkkkkkkzkzzcvvvvvvvvvvvvvvvvvvvvvvvvvvvvvvvvvvvvvvvvvvvvvvkhhhhhppappywtuq0ww6q997qr77wwu00wwwiuwuiwituyrwtytyuyuiippadppiiippiiiipasiipipdsisiiuuyyppiiuuuuwr009990000wwqwwww9096699655595060900009999999009900007000090990000000w9900070009000r0r0096999669966776663<3<<122231112286663343634566767666696899397wwwwruuuutuuuiiiiiddhiipipppiiipipiiiiiiipiaiiaiiiiyiiyyiuyiyiidddkkdzxcccvzkzzzxzzllzccvvvczzkzzzkfkkhhhhhhkhhhhhhhfsdddppddpdhhhhddhhhpphphhhhfjkjkkhhhkjkklklkkdpdphhphpdhhhhhhhhhhhkkkjhhhkhhhhhhhddppappipppidddssywqwwrtirriiiiispppppsappippphhphhhhhhdahhhkkjjhpywwwywyrruuuuuywuryrywryruyiyiyiipphapppphhhksddsshddippiyuiiddkzvvxcccvcv",
"paippppphhhddhhdppppppipppippppppppppphhfhppppppsieqtwwwywwywwywrrrrrruriiuuuiiuuuiiyphkzjzkhdhkhhhhkhpppppahhhhhhhdhkkkkhhhhhhkhhhkkhjhhkkhjkkkhhkhhkhkkhdhdiipipppiippapppiuruw00884>1:>11:=*:188:==:=;;:=:::::::1:12855599990090uiddahpppappdpdpidi0ret000r00rirwwiiuipapppahiiisiuqwwqqwwwequrwuyipywr0yr0iuewwwwww0wuu00wtu0ruiippidididddiipipsidippiyiyuuu000r0t00rrrtii0uwwyuuuruuuyiipppaphhpphhhhhkhkhhhkhhphkvvvvvvvvvvvvvvvvvvvvvvvvxzkkfhfzlkkkkllkkkkkzklkkpppdhhhddddjlzkxzzzzcczkkkkckckkkkfkkkkklkkkkkkkjkkhkhhhkkkhhjkkfkkklklzkxxvvvvvvvvvvvvvvvvvvvvvvvvvvvvvvvvvvvvvvvvvvvvvvvvzkkfhhhphppitir99tw0iqrtiiewyuurruuwyy6wiwiyuwrrruyruuuiidpppspiiiaiiiisppppiiiipppppiyyyiypuusuur00000900660qwwwq0090w000095588599909099595999907990009000090090000099w000009990000000w0009666q996966643322,12<223221222467666633663366766366969999699qw7rruuytwwuuwyryyippiiipipiiipipippipiiiipiiiiiiiiiiiyiiiiiiiisddddkffkcczkkkzcckdklccccvvczzkklzkalkhhhhhhkhhphhhpppddgpdpdppahhhdddhhdaphpddhkkjkkkhhhkjkhkkkkhdpdhahhaphphhhddhhdhhfkkkkfkfhhhhhdhdppddddppdspddispurwrrrturriiyppppppdhspappiaappfhhdhhhhhhkhjkhjkdpiirirwywuuuruurrrryrwyrryyiiyipippapdpppkkkpiddidddiipipppahccvcccccccvvv",
"pppphphpdhhhhhhdapppppppppipappahphpdphhhhppppapiiywwwewwyywwutwrrerrrurtuuuuiyuuuiuyrpkdkkhdppkkkhkhhppppddhhhhdhhhphhhhhhhhhhhhkhjhkkhhhhkkhhkhkkjjkkddkhhapiyippppappdiiiu00r069009681,111:*::11:-=:=====;:::11:1112555999990900uididppppppppphpiir0000000000rrwwiiiqippiiappdiiuuurqr0rwww09iwuiusir0ryrryiur0000000uuyw00ww0rtspiisididiiddippipdidippiiyuiut0t000t0er0ritruwwyrruruiyiiypppppfhhhhkhhkhhhhhhhkkphkvvvvvvvvvvvvvvvvvvvvvvvvzkkakkkfklkkklkkzkkfkkkkkppphhphdhdphkzkzzkxcczzkklckckhkkhkklkfkfzlckkkkkkkkhhhhkkkhhjzkklklkzzxvvvvvvvvvvvvvvvvvvvvvvvvvvvvvvvvvvvvvvvvvvvvvvvvvvvckkphppphfppuu099ww6iqiwwwwtuuuuuuywy76wtwiwuuuwyuywtiiiisppdppiiiiiiiiipppppiiiippipiiuyyiyruuurr00r009000670qwwwww9w0900995555995590000090799996999960000w99900900090000000999000000000009qq76666666666332,2<,,333,21222363634366443663634666666999qqwrrrruuuuyuuw7wwuyiiiiiiipiiiiipipipiiiiipppiiiiiiuiuiiiuupppidsdddddhdhhjkkkfkcckadlccccvczkzzzlkahhkhhdhkkhhhhhhhpppddipdadpddadhddhdhpphppdhkkkkkkkhpphkhhhhakhddhpphpddphddddhdddppphhhhhhhhhddphdappdiddipipdidisiyrrrrrrurriiipissphppspppiipphphhpphphhhhhkkhkhhkhhhhhurwruuutuuurrrwwrwwruiiuyipddpdhapppdppkdiddididiiipdhklccvvccvcvcccc",
"pdapppddhhhpdahdppapppiapppppdhhhhhhhhhkfhhdhhpitiwwwwweywwuywwywerrrrturruuiyyiuuupyyiappdpppphkkjkfhpphhhhhhhhhhhhhphhhhhhhhhhhhhkkhhhhkhhhhkkkhhkkdhkhkkddppipppapappiiiiuyriw000008851:11:::&=:&&=====;;::::::11111142999900000udipppippappaphpiiir000ut00riirwriiyyyaiippppdiiyuurw0rrwrrq7wwyuwiir0r7rr0uurw000000www00wr00rtiipiisddiidisiipiiddspapiyyisitt00rt000r0rsiruywwruurutypiippppphpaphhkhhkhhhhhkkkppjcvvvvvvvvvvvvvvvvvvvvvvczzkkkkzzklkkklkkkkkkkkkzkkpaddddddddhkzlxzzkzzzzkkkclkkklkhfkkkhkkkzckkkkjkkhkhhhkkhhhkvkkzkzkzzvvvvvvvvvvvvvvvvvvvvvvvvvvvvvvvvvvvvvvvvvvvvvvvvvvvvcvkpphphhpppiu057ww6t6iqw9wrwuiuwyw0iw5wiwiwuurwtwrrrissdpippiiiuiiiiuiipppiiiipipppiiiyyyiyrrturrw0rw000009690wwqww0ww009965855599950990900999966699009000090909000099909009009000000990999qqq6966666666643<22,13332122243364334366223666666999669qq7qwwrrrtyyuytuwwuyiipppiiipippiippiipiipiiiipipiiiiiiuiiiiyyiipppddddkdhddhhkhkfkzzkhhkczkkzczkzzlklhhkkhdhkjkhhhhhhhpppddpdppddpddddaddhhhhphhhhhjkkkkkdpphkhhahkhhdddphphphpappapddadppppdphpddpfhhhhppppppdipippddidiipitrurrurwiiyipippphphppiiippphpphhhhdhhhhhhhhhhhjkzkjduuwuuuruuirrrwrwwrryiyiiiddhphhddpdppkpidididdidpiphlcvccxvvvccccvcv",
"hpdaphphhhapdhhdphpppppipaaphkhhkhhpadhhhhhhfhpiwuwtwwweiwytwuywrrrrrrrurtuuuiyiiuripyyyupuuuppdhhkhpppphhhkhhhhaphkhhhkpdhhhhhhhhhhkhkhkhhkkhhjhkhhkhkhkhhdddaapippappiiyuiiuussirw99822=*=:==::=-::-=;===::;:,111:11>>12559990000uddiippppaphhphpidsui000ttiisdiuiiyyyiiiipdpiiiyrrwww00qrwuq00wuyryiy0r0ry7uwtre000ww0ww00wtterispipiiiiididdipiidiidiipyyyuiuur0r00rrte0rsirrwwwrurruuyiiiiapppphhhhhhhhhhjkhjkkkddhkkkkccvcvvvvvvvvvvvvvvvvzzzzzzzzlklkkllkkkkfkkkkzkppdapdddddhklkzzkkzzzkkkkkckkkkkfhkkkakkkzkkkkkhkhkkkjkjdhhhzclkkkkzlzvvvvvvvvvvvvvvvvvvvvvvvvvvvvvvvvvvvvvvvvvvvvvvvvvvvvvvzkhphhhpapsu060iw7w9iteqiiristq0wyiw5qiwiwiyrtyyrwrisddippssiuyuiuiyuiipiipiiyipppipiuypiy0w0rwwrw00000060690w0www9ww0009655995999955950509999967696966700509599000999090w00000999099669997976666966363424,22,12222233366663433366453667668669996q7q7qwrwrwwtuuiuiyupppppiipppppipipiipipiiiiipppipiiiiiiiiiiyyiiiiidkkkkdhhhhhkkhzkfzlkkkzkfkzczzkkkklkhlkhdhhkhhhhhhhhppddpddapddddddddhhdapphhphhhhhhkhhppdkkkhkkkkhhddpphphphhppppdhhhdhpppdphppphphhpapppppddpspdiddspppiiurrrurriiiiipppsphpappppappphhphhhhkkkkkhkhlkkkkkljhduuuuuuuurruwrwwrrruyyiiddddaphdppakpppiisidiiidiypkcvvxcccxcccvcccc",
"dahkhddhhhhhhhhhppaipppdpahkhhhkhhhhhdapppphkhapywitwwtwuwuuuuytuwuruururuuuuyyiypyiiyiippippiiiidddipppdhhdhhhdhhhhdaphdpphphfhhhkhkhhkkhkjhkjhhhhkkkhhhhppadpiipadhhpiiuuuryuspiur6521==::===:==*=**&&**+*::,,=::,11111115800890isiiidppiapapppipdiuw907wypdidsiuiirwuurrusssuduw0wrwwrqwwq26qwe960wuw006wweuw9900w0wrtr0000t00rippiisdsdiddsdiidppididiuuuuuii00wwwwwrrrerrr0wwwwuwrrututyypppdhhphhhhhhhhhhhhhkhhhddishhkkkdkcvvvvvvvvvvvvvvcccccczzczzzcccczzkfkfkkkhsiddddpddpphzzzzklkzzzhkkkzjkhkdddhhhdakkclkkkkkkkkhkhkpkkpkvlckhkkzzzvvvvvvvvvvvvvvvvvvvvvvvvvvvvvvvvvvvvvvvvvvvvvvvvvvvvvvvvahkhkkjydtyutiiyiqerq9uwuttirrrreyrtwwieriryrwrtuuiiaiiaiiiiiiiiyuuuiissppiiipppiiuuuiytr0wuwuwwqw99909652wqwwwwww996666855590099995959599969090099999969999999900000099999000900095900969q9q7q6366632<<,2,,<32,2122333234343333466666639686669w99wrryuuiuiiistrtiriippiiiiipiiippipppiiipippipsiiiippiiiiaiippsuappdddjfkkkzzkaakkkhlkkkkkzcczzkkkkhhhhkkhhkhkkhhhhkfhdipppppppdddhddddddpdphfphhhhhhkhhhhhkkkkhkkkhhhpphpsdspppppdhhddpppdhhhphhphhphphsddsddippdgppppdiiipiyuuitriiipippssdsdppppahphhhhhakkkkjhkhhhkhkhkjkkkkkpyiyyyrirrywywrwwyiuiyppaphppdhddphpppddddddiiiiiiakcvvvcccvcvccccc",
"ddhhhhddhkhhddhhpaiipppakkhhkhhdkhhaddddhpddhhpiiirryiywuwuwytytrytutruuruuuyiiiyiiyiiypyiiiiippidppdpphhhhhhhhhhhhhhhhhphhphhhkhkhkjhhhhkhhkkkkkkkhhhkhkhphhhpppddkffdiiiisuuusiiur921:=::====::=**=****==;::;,:::,>>111415999900uisidsipppaappppisdiyyu0ypdpddiirirrrrsrrrrrursuwqqwqwr0wwq36w06550wwr0080w0r00000wwww0r0r00000ruppipsddidiiidpiiiididdiiuuuypitwwywwywr000rrruyytwuwuuwywwippdpphphhahhkhhkhhhkhhhhhdddgkhjkpkvvvvvvvvvvvvvvvvccccccczzzczccczzzzzkzkzddddddddddpdklzklzkzkzzkjkkkkkkddkdhhkdkkkczkkkhkjhkhhhkphhpcvcczzzzvvzvvvvvvvvvvvvvvvvvvvvvvvvvvvvvvvvvvvvvvvvvvvvvvvvvvvvvvvvzkkdjkdpdwwwyupyr9wi9wiuuiiirriiriirwuywrrrruyuuuuuspiiiapsuyiiiuuuitiiippiiiipiiiywqwwuuuwruww0w979099972wq7wwwwww996665559599885998999996669067999969699999999999900790990000000098000q6966636669642<<<2<,,32,1223366243536663634363666623669999wwrrrrwiiisitiyiiiipppiyiiiippipipppipiiiiispsdapppiiiiiiiippppdddkkhkkffkkkkkdkahhklkzlzzcckkzlkklklfkkhhhhkjhhhhhhhdpdpipappadddadddppdahphhphhhkhkhhhpphhkhhhkjkfppdhddddddpppghhhhhhphhkhhhhhhphphdsdididippdpphsppsiiipyyrruitiiididdddddhaphhpphppppdhhhhhhhhhddkhhkjlzljkhppppyryrryrwyrwrriiiipppdhpappddappdasddsspiddppdkcvccccvcvccccccc",
"dhhfhhphhhhddhhdpapppppphkkkhhkhkhhdpppdhhdkkhppirrrwyywwyuyyytuyruruyuruuruiyyiyyyiyypyiiyiipdpiipdpdhhhhkhhhhhhhhhhdphahdhhhhhhhhkkhkhkhkkkhhkjkhkkhhhhhddhhpppdfzzkhdsiiiuruuir065211::::===:=:=:=*=*+==:::;:::,,111112555666000uisdiypppidppdipdppiiiiiipdidiiiirrwrurrrrurrsuw0w7qwwwww936006560wwr0w9wr0w900000ewer00rr0000uuiiiiidsdiiddsipdidididiuuuuiiir0ywywyrewwrreruuywuuuuutwwuyipapddphpphhhkkhhhhkhhkhhhhhhjhhkklvvvvvvvvvvvvvvvvcvvcccczzcccccvxczzzzzkzkdddddddhddhkzzzzzzklzlhkkkjhkhdkdkjkkhflkczffkhkdkhhhhkpaahzvcvcccvvvvvvvvvvvvvvvvvvvvvvvvvvvvvvvvvvvvvvvvvvvvvvvvvvvvvvvvvvvvvvcjhkddiwwuuiit736w66wwiiitrrrriirrurwwwwrruuuutuuppssiphhpiiiiuuutiitiippyipppiyyyw0wuuuruyw009999990993997ewywwwqq7669885955595899989995560669990996999907099999900090099000000099900q796q666696642<<,2<,<33,1122244334336664666333666626626999wwrrrrwissiiiitiriipppiiiiiipppppipiipiipiippspasspppuaiiiiippdkdkcckkkkhdakkkdadadllkczzzccczzzzkklllkkkhkhhhhhdhhhdddddddppaddadddddapphphhphhfkhkkhhhhphhkhhhhjkhpppddpsdddpppdhkkkkfhhkjkhhhhhhhahdddiddidpphpgdpppiiipiiyuryyuiiiiddidddppppppphhapppphhkhhhdhddhhhkjkkkkkkhhpiyyrrryrrwwwwruidppppapapdpppdppappdidddddidiikzvvccvccccvcccccc",
"ddhhhphhkhhddahhpppppppppdpkhkjkjhdadadhhhhhkkhpiirrutwiytuttyyurrururruruuuyyiiiypiiiyiippiiyyiuiiddhfhkhhkkhkhhhhhhhhhpddhhhhhhhhhkhhkhkhkkjkkhkkkhkhhhphhhhdppdkzzkdddiisiuy060wee821::::::=====*==***==:=:::::,>12211585555680ruidiiiahpppppddidpippddiddpiiiiiiirwrsrrruiirssuwqwwqwqqq9360r05590rr0w0wr0e00rw00www00t0000000yipiiiiiiddidipiiiididiiuuuiidtw0wwywwwrrwrrt0iuuytuuwtyyyuipipaddhhhhhhhhhhhhhhkkhhhdjkhhkhkkvvvvvvvvvvvvvvvvcvcccccczzcccccvczxzzzzzzkhddkhadhdddlzzzzlkkkzkkkhjhkkhdddddkhkkklkkkhkhkkjhhkhkpppkcvvvvvvvvvvvvvvvvvvvvvvvvvvvvvvvvvvvvvvvvvvvvvvvvvvvvvvvvvvvvvvvvvvvvcckkkjdtyyuyiwe69rq9ywrtiiurririiwwyuwuuyuwwuuuiipappaijkhaiiyuuuuuuitiiiiyiiippiywywtr0wrwy07q976909992799wwwwqw99979099599955999099965696606999769797909009009999909099909900w099900qq7q6q66666624<<2222233<113122333366676667766666664336667qwwryrrttsiirriwriiipdpppiiiiiiiiiiiipiiiaippipsiispppupaiiisppdddkccdkzkfkkkkzkfhpahklccccccccxzlkkklkkjkhhhhhkhhdhhadddpdpdpddddddddaddpahpphphhhhkkjkhhhhkhhhhkhkhhdddsddddspdhhjkkkjkkkkkkhhhhpaphpddddiddspppdpppppiipipiiuiyyiiiidididssdhppfphdahdppphhkkkkhhhhhhjhhkcckkjkkdiyrrrryrrwwrwryiiddppdddpphpppppdpaddsddisdpddkcccccccvvcccccccc",
"hdhhfhhhhhhadahpapapppppdhhhkhkkkkjhhhhhhhhkkkdpiiurywiwytwuuuytruuururryyyiipyipyiyiyyipiiipypiiiiphhhkhkhhkhhhhhhhhhphhphpdphhhhhhhkhkhkhjkkkkhhhhjkhhhhhhhkfdidkzzfaidddiii090wur0211:::=:::========*====*:>:,:1111121255515690usiiiiadhdppppdppiiiipddiippppiisiuuuritrresurssrqqwwqwqq79690e688890w9w0ww0w9w00ewwrw0rr0000000iipyiididiididipipdiidiiiuuuidu0y0yy0ywrwwwwuwuuuuuruuttuuiidspdhddhhahhhhhhhdhhkdhhphhhhhkccvvvvvvvvvvvvvvvvvvccccczzzzlccvcvczzzzzzzczkddhhhdjddhlzzzzzzlklkkjkkhkkkkdjhkzkkkzzzkkfkjkhhdjhkkdpacvvvvvvvvvvvvvvvvvvvvvvvvvvvvvvvvvvvvvvvvvvvvvvvvvvvvvvvvvvvvvvvvvvvvvvvvckkdiyiuuuqw39rwwrrruuurruiwuurwuuwrruururwiiphhhdhphkhiiiituuuuuruyiyyuyyupiyutuw0ywwywww0qw7969666279www7qwwwq9770999899898999999966899967995997909090909099699990999999090w00000wqqq697666432222222,222,1112,236666666636777666666366669wwwrrrruuiiitwwiwiiiihdphpiiyiiiiiiiiiipipippppsppppphppiippppppdadhkkkdfhhkkkkkkffaakkkcczccvvvcczzklkzjkkkhhhkhhhpddddppddadpdddddddddppdahhppphhhhhkhkhhhhkkkhkkkjkkhhkhkhkkhkhhhkkklkjkkjkkhhhdhhhphdddspspsphphphspipiiipiyyyyiiiiisiddsdddaddpadhhhdapahkkjkhhhkhhjhhhkzkkkkjkhiyywwrrrrwwwwrtisdsppapapddpppapappdsdiiiiidadzxvvcvcvccvvcccccc",
"ddhkkdhhkhhdhkhdpppdphaphhhjkkkhkhhhhddahhhhhfdiiiruwiiwuuyywwuyuwuruuuuyyiyiyyiyiiyyypiyiyiyipiiiiphhhkhkhkhhhhhahhphfhpphhhhhhhhhkkkjhkhkkjkhkhkhkkhkhdhhhhhhdddkzzkdiddiiu0920wre9511:=*::1=:====****=*==*;;,:1:112252225555500uiiidddhdadpppdpppiiiiiddiipiiiiiuiutrerrqruuwrit07qwqwqqw99qw9825669w6w0ww0rewr0wwwwtt0rrrt000tuiyipiididdiiiidpiiidiiduyuiiiir00rrr0wwwwrtrwuuutrutyuiiuiiddppddddhdhhhhhhhhdhdkhhhphkkhkcvvvvvvvvvvvvvvvvvvcccvcczczzccvvvccxzzzzzzckddhhddddhddlzzzklkkzzkkkkjkhhkkkdkkkkkkzzzzkfkkkkkkkkhdhpkvvvvvvvvvvvvvvvvvvvvvvvvvvvvvvvvvvvvvvvvvvvvvvvvvvvvvvvvvvvvvvvvvvvvvvvvvckkkpyytuu9w<5w9690rriurruuwrrruuuwwwrruuuisiahhhhhhkhpipadiuuurruuiiiiyiiupuyuiuw7ywwwywyyq966696665qwqiww0wwqw9q60989999959999999996999995999999900999990009999999999000w00w00000qq7966663442223422<,12,,13222366666666663366663266666369qwwwrruywtywwwtiwisiiidpiiiiiiipiiyiiiippiiipippppapppiuipppapppdhhhkkddhhklkkffzkkhpkkzczzzvvvvvccczzklhkkhhhkkhhppdaddddpddpapdahhhhhhddddfpphhdhhkhhkhdddhhhhhhhhhhkkkkkjjkkjkhjkklkkkkkkkkkhhhhhddapdsdspdpdpppspspsppiiipppiiiipppiiddidpdsdpdaddpdddpphjkkhkhkhhhhhkhkkzckkjkkhpiyrrywryrrrrruisddppdpddppppppppppddddididkkzzcvvvccccccccccccc",
"phhkhhhhhhdddhhdpdddpppdhhkkkkkjhhddadpphhhhkpiirrrrirwwuwuwuwtywutyuruuyiiiiiayiiiiyiiypyiiipipiiipphhhhhhhhhhhhhhhhhphfhhhhhphhhhhhkkhhkhkkhkkkhkhkddddhhkkhddddkzzkhdipiuiu92>18re8:+::::=1:======**=***;:::::1:1121221155556iu0uuidddadddpdddiipiiippdpippiyiiiiittrritwrtr90rw967w9wqqw999q9826069w9uew00u0ewewwwrrrru0000000uiiiisiidiiddiiiiddiidudu00uiiu0yyuurrwrrwrtt0uuwwwuwutuitiiiddadddhdhhhhhhhdhhhhhhdadhhhkkcvvvvvvvvvvvvvvvvvvcvvcccccccvvvvccczzzzxxzczkddhhpdhdphkzzzzlkzzzzkkkkhhkdhkkkkkkkkkzzzkkkkjkkkjkkpkpkvvcvvvvvvvvvvvvvvvvvvvvvvvvvvvvvvvvvvvvvvvvvvvvvvvvvvvvvvvvvvvvvvvvvvvvvvlkkhiiitur9r29iwwrrrtiirrriuuuwwruw0wuuuuiupisakhhkkkhppphhsiuwwwrriiiiiipipyywuuwwwww0wywu9655366665twwwww0wwwwwq99995598959999995696999999999979999996990000990009990090000000y00779q666633<<24342211233231312336663336666333633396666669q7wrrrrywwitityitiiiidppiyiiiiiiiiyiyippiipappppiiiapdpsadhddhdhdkhhzjkjhkkzkklkzzkfkkzzczzzvvvvvvvczzzzkhhhkhjkhhphdddpaddadadddhhdaddddppdphhphphhhhhhkhdhhkhhphhhdhhhjkhkkkjkkkkklzkkjkhkkjkhhhddhpdddddspsppdshsphppippiiipiiiiippiididsddpddddppdhhpdddhkjkkhhhhhhhjhkhkzlkkkkjkdiywywwwwrrurtiiidspppdddpaapppppppsidiiiddklccvvvvvvccvcvvccccc",
"pdhkhhhkkhddhkapppdpdddapdjkkkkhhkjkkhhdkkhhhpiwirrrwriwwwwywuywuuwuutuuuuyiyyiiipyyiyiyipyiiyiiiiipphhdhhhkhkkhhhhhphhhhhhfpphhhhhhkhkjkhhkkjhkjjhkddpdjkkzkkhkpdfkkkdihhdsss08e8:=:11::::==1==:::====*****::;*1:11122822112565si00yuiidppiadddiipppyippddpppiyiiiiriirrsurruq970763996wwq99699982885596w0099r0w0wwrwrtttut00r00tuiiiisidipsdiiidiiiddiiiuuyiiiu000rr0y0rwwwuuqwwywywutuuuuisidpadddhhdhhhahhhdhkhkkkddhkkkzcvvvvvvvvvvvvvvvvvvvvvcvcvcccvvvvvcccczzcccckaddhhddhdddkzzkzkklzzzkkhhhhddkhjdhkhfkkzzzzzzdkddkddkipphvvcvvvvvvvvvvvvvvvvvvvvvvvvvvvvvvvvvvvvvvvvvvvvvvvvvvvvvvvvvvvvvvvvvvvvvlkkkkiyyytq99<3rr9rriisiirruuuuruuuuwwuuuwrriiphlfhhhhkhhkhpsiuwwrru0yyyyipiipyuyuwwuw0700ww6652226565wwwwwwwwwqwwww0998558959599988968999989959999999999990009900005560009089900009q966q666642<23343123883611,1236673434636663336776666666669qwrrrryuuiiiiwwihiiiphiiiiiiyyiiiyiiipipaippppasahlkzklkkjkkkkkzkkczkzhlzzlkllkzkfkzvcxzzzcccvvvvcczlkjkkkhhffppppddadddddddddhhdhhdaddddaphphhhhkhkkjkkhhhhhhhhhhkkhhkkkkhkkkjkkkkclkkkhhkkkhhhahhhdddpddppspsshpphppiiipiippaiiiipppiidpsddddpdpdddaaddhhjkkhkhkhhhdkjdkkzzkkkkhhdiyywwwwqrriiiisddsppapdddppppppppppiiidsddhkcvxccccccvccccccccc",
"hpkkhkdkhhhpfhhdappppadadddhkkkzkkhkhdkhjkhhhdyyyurriyurrryyrrrrrurrruirrusruiitriuuiriuiuiiuiuiruyifkhhfhhhkhhkhhhhhhhhddddhhhhhhhhhhkkhjkjkjkhhhdhakkkxcccllkkdhphpddsdpyipi0uu082:**::=:::::::::::=:****:::::::1111411511955eiw650ipypppddsddppppppiapppppiyyiiipiiipiiywyir663q69269e7ew65<76326666669997www79qqtwywuuuwwwwq0ripippipppidpppiiidddsdisrwrsswwrrwewwwwewtrrywryurwwrwuuuiippappaddhddhhhhhhhhhhfhhhhdhklcvvvvvvvvvvvvvvvvvvvvvvvvxvvxvvvvvvvcccccczzccczadddhdhddazzzzzklkzkkkhhhhhddkhhkkkhhkkzzzlkkhhhhdkdkdhjcvvvvvvvvvvvvvvvvvvvvvvvvvvvvvvvvvvvvvvvvvvvvvvvvvvvvvvvvvvvvvvvvvvvvvvvvczzzkyapiww0626yw67uuypiuryyitutrwrruyiirryyhapphhhphkkkddapyuwrrrerrrt0tr0i9rrtrw0urw00wr095655825<>7wrurwwywwyywww7q09996999669936669q096769900975999999990999999995999990000000999999q66835344635<4<25965<<,436666666552336636669656555266560wtwuisurrss0uuiiipdpyiyiiipiyyiiiipyiidippdiipkvvvvcccccvvvvccccvcccxxvcccvccccvcckkccccvvvvvvvvvvvvzkdkhkkfapdadddddpppphhdpppapppdpphaphphhhhfkkkkkkakkkcccccclzkkkfdkkhkkhjjkkkckhhhhhkhhhhhhhhpppdpapppiapdddidiiiipippippiydiipiddisdddpdddddddddddhklzzkdkhdhhkkkkkzkkzkjjkpuywwwwwwyyiiiipppppapadpppiipphiissiiippklvcvccvcvcccvvcccccccc",
"hpkhhkpkhkpphkphpppppdpdddhkdkjdkjjkkkjkhkkhhhpyiuyryyyrwrwyrrwruurrruuurrrrruriirtiitiiuutuutiuuiippahhhdphhphhdddhhhhddaddhdhhhhhkkkkhkjjhhjjhkhhkkzxcccczlhhdhddapppsppiupu0yt0008,:::=*::**:::==:*=*****=:;>:1:111111511655wu050yspipdspppdsppppayyipppppiiyyiiiiiiiipiuuiw632639367e7eq632996696666799qqwqw9qwwwuwuwuuww00w0yiiiippiippipidiiididdirirwwssurwwwwwwwwrruryrrwrurwrrryuuiipdpdddddhhhhhdhhhdhphhhhdddfkcvvvvvvvvvvvvvvvvvvvvvvvvvvvxvvcvvvvvccccczzcccxzddkddshdddzzzklzzzzlkhhhhddkddkhkkjhkkzzxzzlkkhhkkkkddhkcvvvvvvvvvvvvvvvvvvvvvvvvvvvvvvvvvvvvvvvvvvvvvvvvvvvvvvvvvvvvvvvvvvvvvvvvczkzkyjdiisr79wru0wuipipyyypuiiirwriuypyiuyppppphhkfhkkdddppuwwqertrrrr0rrr069009820tw000re05688485>27rrrrywwwwwwwwyr00000009666669999999996690909599999999909995999999999000000099989999q963355666354225552<,<256566622526356663666522422566670qwuuuiuruii0uiiiidpppiiiiyiipiiipipipdiddsdippjccccccczzccccccvvccccxxccvvcvvccvvvccvcccvvvvvvvvvvvvzkaaakkhaddpdddaddppdddhppppapappdpdhpfphhhkkkkkllkkzlxccccczkkkkkkkkkkhhkkkkzkhkhhhhkkhhhhhhpaddadpppppppdsdpdiipiipiidipiyppisdipssppspddssddsddddhkkzkhhhkkdhhhkkzkkzkkkkhpuyrrrrryyyiiiiipppppdppdpppppdihhispippkklvcvcccccvvccccccvvcvc",
"hdkhhhpkhkhphkhpppppppaddhhjdkkajjhkkhkdhhhhkhdiiiuuyyyyywrwrryrurrrruuurrrurrrirriitiriituuuituuiidppppiiipdiphaddahdhhddddaddhhhhhhhhhhjkkkhkhhhhzzzxczzxzkhhhkjhhddpppdiyiuyyr0r002;;:*=*:**;===******&&*::::::1:11411211622ur660sssippspsppsapppipyppppppipyyiiuiiiippiyrur9<,33w5qqwew72726w969966699997qqww9wwwwwtitww00ww0uipiippppipipipiidpddiduiuwwsuuwtwwewwwwrturrrurrurrruruuiiipppddddadhdddhdhhhdpphdpdhhkccvvvvvvvvvvvvvvvvvvvvvvvvvxvvvcvvvvvvczzzzzzccczzdddhdhdddpkzkzzklzzzkhkdhhkhkkkkkjkkhzkzzzlkkkkhkkddkjhcvvvvvvvvvvvvvvvvvvvvvvvvvvvvvvvvvvvvvvvvvvvvvvvvvvvvvvvvvvvvvvvvvvvvvvvvvkkkxdyksiipiwwyrurrupiiyiypiuiiiurisiipiiiispppphhhkhhhdppiirr0w0rrrrr00tt0r60006229r000errr0000990667rrrrrwwwywywwy0w0r0wrr966369999776996999909999799959990096989999999900009999696999q7966666666456533222<2<235566656666666765566222<2225659qwwtyuuiuusutusiiiddpipiiiyuuiiidppppdidsidpdpppdkklkcczkcccccccccvccxcccvcvvvvvcvvccccccvvvvvvvvvvvvczfkkkhhphhpdddddppaddfhapppdpdhdaphhhhphfhkzzllkkkkkccczzkczkkkhkkkkkhkjjhkkzkkkhhhhkkhhhhhhppdppdppppppsdddsdipiiiiddiipiypdidsiidppppiddpipspddpdhkkkkhhkhhhkkkkkkkkkkjhkhsryrywrryyiiiiipippppppppppdddihidisihdkxxxcvvcccvvcccccvccccccv",
"hdkhkhphhjhphfphdpdpppddsshhkkklkkkkkkkkhkhkkhhpddiiiiiirwwwrrryruyrruuuuruutiiritrurutruuuuuuuuruuiiiipuyypiiddddddhadhhddaddhhhhhkhhdhkhkhhkhhdhkkzzzxzzzzzzlzlkkhdddpihiyuu00ryr005>;:::::;*;==::=--**&*:::::1:1115114115625ur66ysiiipspdppdpapiipippdpppppiyiyiyyyiaiiyyuiw9,,36e7q7rwe52w63663696369w997q7w9qwwqwyuiiwwwq0w0yiiiapyipiipiiiipppiidisuuwusswwwwrrwrwwettrwuuruurruyrruispppiddsaddhhhhadaphhhphdadhkccvvvvvvvvvvvvvvvvvvvvvvvvvvvvvvvvvvvvvczzzzzcccczzdshhhgkdddkkzzzkzzzzkkhdddkkjkddkkjkkfkkkzkkkhdhjkdddkzcvvvvvvvvvvvvvvvvvvvvvvvvvvvvvvvvvvvvvvvvvvvvvvvvvvvvvvvvvvvvvvvvvvvvvvvvvzkzcprjsyipryrrruuuriiypppippiipyyidddddppdhppahhhkhhdddppiywwq0r00wtr00ri0e0utw06500099www0066696627yrrrrryywyrrrrrqww0rwwqq99666669999960990999999956799990999999999999999090999599979q699663663665352<4<4,2222566663666996665335655552526669wwuyyut0tuisuuuiipdpappppiiiiipipippppsiddssdppppddhazkkkccvcccvcccccxccccvvcvccccccccczcvvvvvvvvvvvvczzfkhhahhphhadddapdhhhdpppdpdpppppdphphphkkzzclkkkkkzckkklkkzfkhkhkhhjhhhkhhzzkkkhhhkhhhhhhhhphhdpdasppdddspsdpippiiiipipiidiiddddipsipispiippidppdhkkkkhdhkhhhdkdklkkzkkhkhdurrywryuiuiiiiipppppaphpapdiddihidiiijzvvvvcvcvccccccvccvccvvcc",
"hpkhhhpkkkhhhkdddaddpddpskdkkzzkkkkhjhkkkhhhhkdphspiiiiiyrwwwrryurrrrurisrtrssirtiuuuuuruurrruurwyruyiyyuuuiiiddpdaddadadddadddhhhhhhhhhhhhkhhhhhhkzzzklkzzxzzxxklkhdpppsdiuii0r0000r08<::::::*:*:=*:****=*=::::::1:14112115859tw69wirussppsdppsdpippiiapdppdpiyyiyyyiiiiiuiiiq6*,36w666ewr96r9363396666999999w9qwww0wyyiyywwwwwwripippppppipiiisiidddiiturwusirwwwwrrrewrutyrruyuuuytuuruissspiddddaddhdddhdhhhhhhdhhkkvvvvvvvvvvvvvvvvvvvvvvvvvvvvvvvvvvcvvcvvcccccccccczddddddddaakzzzzlzzkkkhhhhhkkkkhkjdkkjfkzzzkzfddhhhdhkcvvvvvvvvvvvvvvvvvvvvvvvvvvvvvvvvvvvvvvvvvvvvvvvvvvvvvvvvvvvvvvvvvvvvvvvvvcclzzziuzhiphywwwrruuyiiispppipiiipippdddpppppppdhhhkhddsipiyyw000wwe00u00000srturw060r000ww0099696222wrurwywwwwwryrrrrwwwrwwqwq9899999960060000099900599999999099999900909999999999909q9q98996646336353532224222<3566665566763565555676336266669qtwytuuuiisuussuspppppppiiiiyipipppipiddipdidisdipppphakzccccccccvccccvvcvcvvcccccvxccczcvvvvvvvvvvvvccczkkhhpppddddddapddhhhpdpppddddpfhphhppdhkkzlcczzzccxckklkkzkkhhkdkdkdjjkkklkkkhhkhjkhfhhfpphphdddpdppdddppdpppiipipipidiidpipdpspspppiddiiidpdidddkkkhhdhkhhhkhhzkkllkjhhkpuirrwrriuiiiiipppphpphhpfpdididdiiiiphcvvvvcvvcccvccccccvccccvc",
"hpkfhhpkhkhpkhhdddpddapddkkkkzkkkkkkkkkhkkkhjahphdiiiiiiiywqryyrruryrrtrsuriissiuiuruuuuuuuuuruuurrtippyiiuisisspadddddpddpddddhhhhhkhhkkkkkkkkkjkkzzklkzzzxzzkkkkhdssssssirur009000uu05::=:;**:::::::::===::::1::>111418228559w990wrwidppsssdddapppppppppddpppiyiiyiyiidiiisi73,,99e663werqqr96w76666669997w9wq99w099qyiuwwqwwwwuipppiipiiipipipidddiidiirrusirwwwewewrwrttwwuiuuitruuurtissadpppdddhhdddadddaphhaddhjkcvvvvvvvvvvvvvvvvvvvvvvvvvvvvvvvvvvvcvvcccccccvcczzdddddhdkddkzzzkkkzllkhkhhhjjkkhkhkkkkkkzzlzkkhdhhhhkccvvvvvvvvvvvvvvvvvvvvvvvvvvvvvvvvvvvvvvvvvvvvvvvvvvvvvvvvvvvvvvvvvvvvvvvvcllzczkurjhpifirw0riurrppphdppphiipddppdiiiiiipipdhhhhhdpiiipyyrrw0w0009tu0000tuuwwuw00rww0ww0900009660urrrwwryywwrrwywrwrw0000q9999999q00000000000090999999999995999999999999999599900qq99996636663543665555222,<26669654226663553225566655566960tuwyuu0ruissuuuuippphiiiipyyiiiiipppipiidsddisdddppiiakkzvvvcccccccccvcvvvvvvvvcvccvccczzccvcvvvvvvvvccczzkfdpppdddddddpdfhhddpadpddapdpphpphphhkzzclxzzkcccclzkzkkkkkjkkjkkkhjdddkckkkhhhhhhhhhphpphddaddappdssppspsippiiipiipiipiiisppppdddddiyiddididdfkzfkhhhkhdhkkfkkkzzkhhkhpiiurwruipuiiiiippppphaphpphiiipidiipihkcvccvccvvccccccvccvcvccv",
"pifhhhhkkjkpkhddhdadpddpdkkzzzkkkkkjkjkjjkhkkkhpddiiyiiiuiwryyurrurrruuiuuiissrruiiturrruwrrrrurrtuiuyiysuiiiuuipppdddapdddadadhhhhahhkkkkklkkkkkkkzzzzlzzzzzzkkkjapiiiiiu0ru00r8888008,:+;::*;::=::=::====:::::1:111111225550w96900ewisppdddddddpippypaappdhdpiiiiiyyiiiiiiiy761297w<677wrqqe76096663696999w99w9www97wwitw0qwtwwupppiipipppppiiipdidisiiuuwisirwwwrwrewwwrwrrrutuuuyuiyuuuisasaapdddahddhddhdddphdhhhhkvvvvvvvvvvvvvvvvvvvvvvvvvvvvvvvvcvcvcvvccccccccvcczadkdddhddakzzzlzkzzlkkhhkkkkkhkhkjkkkzzzclzlkkhhhhkkvvvvvvvvvvvvvvvvvvvvvvvvvvvvvvvvvvvvvvvvvvvvvvvvvvvvvvvvvvvvvvvvvvvvvvvvvvvlllkkku0hpyypppw7uuuwrippppppdpppphppisiiipsiipphhhhhkdpiiyiyu00wwrw0090000000ruuru00irww900906666>>59uuywwwrwwwyywwwyqwqww0009999909000www00000000090990999955959859979999909759579007qq98999667645636522552<<<,<5796652<36666366353566566666690wwtuwi00isuuuiuuspiphippiiiiyiippppipididdipisssdddpphkkzvvccccvcvccccvvcvvvcvvcvvvvczzkzccccvvvcvccczzcckfhaapdpdddhdpdhhfhddpdpadddadppphpphkkzcccczzkkkzckzzzkkkkkhkkjkdkjkhkhkkkkkjhkhhhhkhhppphhddddpppddsppsppdppiiiiiiipiipiiipppdssdsdsiiiddsddddkkkzkhhkhddhhkfkkkzkkkhkhdiiirrrupiuiiiiidpdpfphhphpdiiiidiiidiphkxvcvvcccccccccccvvccvcc",
"pikhhkdjkkhphkphhdddpdapddkzzzzkkjkkkkkkhhhhkhhpddiiiiiisirwurrruurrruuruuriisiriuuuuurrrrrurrrrruiiuruiiiuuttrippddddpppppppdadhhphhkjklkkllkkkjkkklzklzkzzzzzzkhasisiiir0rr880882,881:::*:::*:=:==:========:::1:>111512225500500090wrwpiddddaaapppapppdddaappiiiiiiyiywuiiuwqr32q56<6qq9rwqw6q03666999699qwwwwqqwqwwqyiuwwwruuyyipipippiipidddipdiddipsiuuissrwwwrrwrrwwwwywruuuiutuyiuuiipsasdddadhdhddddadddhhhhhhhhvvvvvvvvvvvvvvvvvvvvvvvvvvvvvvvvvvvvvvcvvvvccccccczdaddsshdpdkzzzzklzzkkkkhhhkkkkkkjkjkkfzzzzzkkkhkhhhkvvvvvvvvvvvvvvvvvvvvvvvvvvvvvvvvvvvvvvvvvvvvvvvvvvvvvvvvvvvvvvvvvvvvvvvvvvlclkkkkhwjhywipiw7rsw0wispiuuisapphpiiadsippdpphfhkhhhhddyyiiuurrwwww000000t00u0wrwu00tr008859999662<9turw07ywwrwwwywwwrrrrwwq0099999990qwqww000000000990099998589899999999099099999900qw999997667666366522522<3<,<5q95962239666766535596666699690wutuut00iuutuuuuspiiddppiiiiiiiipipppiiiipiiissssddhazkzzcvvvccvcccccvccvcvvvcvcvvvvvccccvvvvvvcccccckzzzkhadppaddhahdhhhhhhddaphdddddppkhpfhhhzcccclzzkkzckczzzzkkkfjkkkkkjkhkddhkjkkhhhhkhhkhhhaphpahdddapddddsppsdipppiipiipiisdipiiispppdddiyyididdddkzkkkhdhhhdhkhkfkkzlkkjkhdppirrrippiiiiiiidipphphhppiiiiihidsipipfccvcvcvczzzcccvcccvvccc",
"phhhhhkjkkkhdhhhddpdaiidkffzzzlzkkkhkkkkkhhkkhhpiiiiiyiiiuiiyyiyrtrritityiiipipiiitrrrruurrruuurrrrwuiyyttrrrtutpippppppddddhhdhjpphzzkkzkkklckkzkzkkzzzklklzzzkhhpppppipuyri09:2212,:==;-::;:-:======:::::::=::::11154255555w0900weewwrippisdfdssiddiipppapapiapiiiyiiiyyusu7rt3q33666wwqeeqwqt963969990000w9090tr0r000wuurwuuiipiiiiippiipppppddiddiiiiiuiddiwewywwwuuwwrrrertpyiiiyiytuuippppdddddaddhaddddddhhhadhkkvvvvvvvvvvvvvvvvvvvvvvvvvvvvvvvvcvcvcccccccccccccczpppdddhhhhfccczzzlkllkkkdkdkkkkkkkkklkzkzlzkkkklkflxvvvvvvvvvvvvvvvvvvvvvvvvvvvvvvvvvvvvvvvvvvvvvvvvvvvvvvvvvvvvvvvvvvvvvvvvvkkcckkkkpyhhwuiiywwrtiuwippipyppiiiippppappppppdphhhhhdppiyyipiu000wwq0q090090yr0wtrt0rty09999829352<60wurrwwryyuywyuruwqwwrewww67q790q0t0t000000000000000099855568866699959909999399900rqq7q799366352432<<<<2,,<:26799q666666669q9666553667666677wtywyi0r0uutu0yypppppdpipiiiiypippippiiiididiippppppppkzczzvxxcvccvccvcvvcvvxcvvxvvvvvxvvxxvvvcvvvczcvccccchadphhhfhppdahhkddddddddppdppddhfhppkkzccccckkkklcckkjzkkkjkkhkkjkkhhhhhkjckkhhjhhkhhddppppshaasadddsdddsdpppiipipiiiuidispdididsddisiyiipidspdhkzzkhhhhdhddhkkkkkkjdhhhhpieiiyiipiiiiipippphhhppppdpiiiddipiiiphzxvvzkkzckdzzzcvccccvcv",
"phhdkkhhkjhddhpdhdddppphakkzzzzlcjkhhkjkkhhkhhdapaiiiiiiiiiiiiyiuruuuruuiiyiippituuruuuuurrutuuurwyruyyuurruuuruyyyppaddaddddhhhpphhkpkzckkhklkkzkzllzzzlkkkzzzlhdddppppuyrrt05,,,,,:::=:*+=:::==*=====:=:::==:::11112225555990500ewwwrrpsppsdddguisdsipappapppiipiyiyipiiwuuqr72q336637wwww766706639999qw00qww90e00000etuutwwuiiiipiiiipppippppdiiddpiduuuupdiwwwwewuuuwrrrrrwtyiiyipiyuuiippppddhdddddddhddaahhhppphhfvvvvvvvvvvvvvvvvvvvvvvvvvvvvvvvvvcvcvvcvcccccccvvcckhdghdhshhkzcczzkklkkkkkkdkddkkzllkkclkkzzkkkkkkkxxvvvvvvvvvvvvvvvvvvvvvvvvvvvvvvvvvvvvvvvvvvvvvvvvvvvvvvvvvvvvvvvvvvvvvvvvvvfkkzlkkkiyhkipipywwyuirryipiuiudpiiapppppppppppdphhhhkhppiiiyiyuww000000090080wwwwwrr0rrw0999952211><9yuuurwwyrrwwwwwywwwwqrwww97wqq0qw000000r0t00000r000999985966965666595999999999900079777qq7366335343223333222269969535356666666525265669679wwwywywwrr0tiiuuyiiipippipipippipppipiipipiddiidppppppapkzcczvvzcvcvvccvcccvxvvvxvxvvvvxvxvxvvvvccvvvcvvvccclhaappphppppphdhdaddddddddadpppppphhphkzczzxckkkklccjjzzkjkkhhkhhhhhkhhhhkzzjhkhkhkhhhhdhpphhsshhsdddddiidispipiypipiuuiidpaidipidiiddiyiddddiphhzzzkhhhkkhddhdkkkkkjkhkhhhitrwwwipiiiiipppphhhphfhpdsddddiphiiiiipppzlkzclakkcccccvvcccc",
"phhhhkhkkkhhpphphddhdphkkkklzzkkjkhhhkhkkkkhhhdpapiiiiiiiiiiyiiyruuuuiruyiiiippiiiuuurruurrruuuurrrruyiuuuuruuuriiippppadpddahhdihkkhpkcckkakkcklkklkzzzkklkzzzzddpddappuryry92,,,2,,,>-+-+-:;:+==**=:::====::::>11142525585990670ewrriipddpsdddsuuiiiddddappppiipiyiiiiuiqq09w923366667wwqq96600666690qw00wwwww0r00r00ryuuuwtisidipiippipipipppididpppiuuyipdiw00w0wuiurrrrtwwtyiiyiippuuupppppdadaddadadddddddpappphhhcvvvvvvvvvvvvvvvvvvvvvvvvvvvvvvvvcvvcvvcccccccccvclhpkhddddkhkzczkkzlhkkjjdjkdkkkkkkzlkkkkklkkkkkfkkvvvvvvvvvvvvvvvvvvvvvvvvvvvvvvvvvvvvvvvvvvvvvvvvvvvvvvvvvvvvvvvvvvvvvvvvvvvvhklczkkkywdhpppprw7qrurriiiiiyiiippapaappappppdphhhkkkppppyiiyyyww00000w0000900rw00wr000w095652421>12wppuurrwyrrrwwwwywwwerwwqqw7www0rww000uuu00ur00r00009965599656655699895999996969999q99977qq66633366<<23332<6369966966653666666365333566669qqwwtitwt00tuuisuiyypiippiiiiipipiiipipiipidididippppppapakzcvvvzccccccccccvvxvvxvvvxvvxvvvxvvvvvvvvvcvvvvccvkhhhpppphppppddhadapsdsddppdhipphpphhkkzzzzzlkkhkklckkkzkkhhhhhjhkhkkkhkhkzjkhhkkhhhhhhhpppphasaassdsdpdddddpipiiiiiuuuipipidisdddddddiiipdipddhkzzkhkkhhhhhdddkkdkkhkkjhkhpyyywiiiiiiipdipppkpkhhhpdsdispsitiiippppizvvzkhdkzzccvcvvccvc",
"pkhhkhhkkkkhfhhhhhhhhahkkkkkzkzkkkhhhhhhhkjkhddhhpaiiiiiiiyiiiyiuuuuirtuiyyiipipisiuuuuiurrrruurruuuuiyiitruuiiuaddapappdddddhhdihkkfkkxckkkkklkzzkzkzzzzzkzzzzkddpddddpuurr002266081:==::>:-::1***===:::-==:::::1>112555558799600ewwruuisspsdddsuuiidphhdpapppipiiipyiirdiw630q2633653qq69999wew736660q00wqww000r00r00ryuuuytuipidipippippiipppiiiipdpiuuyiisiw0wwwwutirwrrurwwiyiiipiiuuupppppdddddhddpdddhdddhfppphhhzcvvvvvvvvvvvvvvvvvvvvvvvvvvvvvvvvvcvcvvvccccccccczkppddsdddhfzzzzzflfkfkdkkdkdkkhkkzkkkkfkkkkkkfkflvvvvvvvvvvvvvvvvvvvvvvvvvvvvvvvvvvvvvvvvvvvvvvcvvvcvvvvvvvvvvvvvvvvvvvvvvvvckkklzlkliwihipiiiwwqriiryiiyyuippppapppippdppadphppfhfhppiiiiiy0ww0r0rwr000000t0w0000099009852<,2<115wsiiywwrrrruwwwuwuwrrrrwww7qqwwrwrw0rtu0t00000r0r0099689559668556695959963866999999769qqqq76999666622255623q69995666666666966666356255667wqwwwitwwu0t0iiusuiyiiippiipippiippipipiipipidsdidppppapppkkzzzvxzvcvvcvvcvcvcvxvvxxvvvvvvvvvvvvvvvvvvvvvcvcvckhffhfhhhpppdaddddppddsdapddihhpphhfhkkzzzzzckfkkkkkkkjzkkkhkkhkkhkhhhhkkhkhkkhhkhkhkhddhphasaassahadssddiidipiiipipuuuiiipdididdiidiiiiyidipphhkzzzkhhhhkhhddhhkjjkhkkkkkhpiwtwiiiippppppddkpkdhhphdpididddisispipipcvckkkkzzcccvcccvccv",
"pkhhkkhkkjkhkhhhkjhhhdhkkklkkzkkkkkhhhhhkkzkkhhhhdsiipiiiiiiiyiyiyuyyyyiyiyiipiitsiururyuurruuuutrruuiyyiiuuuissipppdadadpadhhahdhhjhkzzzkzccckkzzlzlzzzzkkzzzzkddaddddaiiut000280e82=====-=:+1:****=::::::::::::1>11555555806699000wwrripdpsdddsu0iiippdhapppiippiipiiprhu062792333526wwq996669q636969q0000www00r00w00wwwr00wruipppipippdiipiipiipiddpiuuiyppuw0wrwwuituwrutrrryiiiiiisuusspsaihdddddddddddaapdhppphhkhhkccvvvvvvvvvvvvvvvvvvvvvvvvvvvvvvvvvvcvccccccccccckpkpddhddhkzzzzkkkfkkkkdhhkdkkfkkkzkhkkhkkkkkhkzxvvvvvvvvvvvvvvvvvvvvvvvvvvvvvvvvvvvvvvvvvvvvcccvccvvcczzzlvvvvcccclkckkkkxzzzkzzzkkkhwppupiiurqwruiiiiypiuipppapdpppdpadapdafppphhhhppiiiur0wr0wwwrr0000000tt00ww009000652<<<11:40suyrrwrruuurwwruwwrrrrrwq9wwwtwwww00r0ut0u00rerr000999955886556668999995990900009969q7w7993993666396665667969996899666666696996666252669qwewwwwetw000ttuuuiyiiipipyiiiiiipipippipiiidsddidpadppppddhhkkkxzvcccvcvcccvcvvxvvvvxvvvvvvvvvvvvvvvccccjczcckffkfhkhhpppddhpdpppsdsdddddhihshppphkkczzzzlkkkklkkkkkkkhhhhhhhkhkhhkhkkkhkkhhhkkhhhhhdpahpddaadapdiidddspipiiiiiiiuuuisiiasdididdsipiyuidpiddhkcckkkhhkhhhdkdkdkdkhkkhkjhptwyyiiiiiiiiidihddkkddddddsipdiissiipiyiiphklcvvcvvcvccvcvccc",
"hkkhjkkkkhkkhhhhkkkkhdhkllklzkzkkkhhkjjjhkkkjhhhhhdiippiyyyyyiiyyyuiiiiiiyyiiiiisiiurtrrururuuuuuuuuuiiiiyuyisddddaddpdpdddddhddhjhkkzzkkzcxclkkkkkkkzzzzlkzzkklddppddppir00002<28681=:::=::::::======::1::::11:1:11145585580679090000weipdsdddsiuiipipdhpdppppppipiiipiss0966932932236ww7666326996999900960wqw00tr0r090wwwwqwtuippiiiippiipippiipdiidpiuuyippiywwrwwwuirrwuuuuuiyyiiiiiiiiippppddadhadddhadphhdhppphkjhhkkcvvvvvvvvvvvvvvvvvvvvvvvvvvvvvvcvvcvcvvcvvcvvvvzkdhddsddkhhzczzkkkkfkddddhdkdkkkkzclkffkkkkkkkkccxvvvvvvvvvvvvvvvvvvvvvvvvvvvvvvvvvvvvvvvvvvvvvcccccccxzkzcvcvvzkkkfhzkhakzzzzzzzzkkahyppyiiiirwyrituiypyppipiipphhppppdppapphppiiphkppiiiur00000000000r000rtt0wwwwr0ww995555>>112rsirwrruuyruurywuuurrewewwqq9wwyqwwtr0r0ut0tr0000009999985596666666599999999000099999qq79999999966696552569w96996696666666696666625666990wwwwwwwwwq000uruutyyyiiippppipiiiyiiiiipiiddiiiddidapdappidddidkzzccvccccccvcvvcvvvxvxvvvvvvvxvvvvvvcccczklkkkzhkkkhhhhphphddpdpppiddipdddshddpphppjkzxzzzklkkkklkjkkjkkhhkhhkhhhhhhjhkhhhjkhkjhhkhhhdppppadasddppdddiididippiiiiiuuuippdspiidddidpdpiiipddsdhkckckhkhhhhhddkddkkjhjkhkhhptwwiiiiidihhdhihapppddpddipippdiiiiiiiipaakccvvvcvcvcvccvccvc",
"hjkhkkjkkkkkkhhdjhkkkhhhklkzzzzzkkkhjkzjjjkkkjkhhdsippiiiyyiyiyiyiyiiiiyiiiyiiiiistrrrrrurrruuutturuuiiiiiyiiisiaddadpppddpahhhhdhkhkzxkzzccxkkkzllzlkzzzzzlllkkadapppppyry092<,,,21,:,::=+1:::-=***==-:::::1::1111511515550666909990w00psdddddsiuuipipaddpppppppppiipisst69956<2362526eeq9673999669999q99990w000rr0w00errrrwrruippiipidippiiiiiuppiddiuuiiiipyrerrwyuuurwruiiuuiiiiipuiiiisppaidddhddadddddphphhpphhkhhhhjkvvvvvvvvvvvvvvvvvvvvvvvvvvvvvvvvvvvvcccccccvccckhdhpdddddkkczkzzkkkkddkddhakzkkkzzzkkkakkkzzccccvvvvvvvvvvvvvvvvvvvvvvvvvvvvvvvvvvvvvvxvvvvcvccvxcccxzkkkzzccczkkkkkkkkakkkkkfkkkkadhwipyipiiuwrriuuryyppiiiiaiahpppppppppppphhpiiphdpiiiur000r00066t00000tu00wtwwwr00996556>1226wsuwwwruurruuwwuurrrrwwwwwqwqwwtqwtt0r000t0r0r0e0000999995959586996899992909966566697q7769q999996996555226qq969936996666366665662626699090qqq6qq796000uur0uyiyuiipppipyyyuuiiiipippiddddsdippdpddddiddddkzzcvcccvcvccvvvvxxvvcvvvvvvvvxcvvvvvccvvccckkkkkhfhhhhdhdhhdddppppdddddddddsspphpphhkcxzzlkkkkkkkkkkkkhjkhhkhhjhhhhhhkhkhkkkhhkhkhhhadphaddddddpadspisdiipiiiiiiipuyusiipaidpddipdpdpiuipdiddhhkzkkhhhkhkddkddkhkhhkhhhkhdiwtisiiiiisiihhspdpahpdpidiiippiiippfzzlccvvvvccvvvcccvcvcccc",
"hkkhkkhjzkkjkhkhhhkkkhjkkzkzzzzxhjhkkzzzkkkkzzkkhdpiipiiyiiyiyiyiyiiyiiyiyiiipyiiturrrrruurrruuuuuuuiiiyiyyiiiuuyyipipppddddhhddpjkkkzczzzczkkkkzkkzkzzzzzzkklkkddppdappiii08<4<82,221,=::::::::*====:::::1:::111111255585580560996900w0psddsdsiiriiddpphappppppsippipisur996,<32665555wiwqqq99q9999q99999000ww09r00r00r00r000qripiiiiiidpippiiiipdiidiuuuiippir0rrwwuituyrtiiiiipiiiisiiuisppaiddddddddddddddhppppphhkhhhhkvvvvvvvvvvvvvvvvvvvvvvvvvvvvvvcvvvcvvvcvcvvccczhdddpdsddhfkzkkkfkkkkkkkhkkkkzkfkzzkkfkkkkkzzvvccvvvxvxvvvvvvvvvvvvvvvvvvvvvvvvvvvvvvvvvvvvvvcvcccccczzzkkkzzcczkzlkkkkhhhfkkfhhffkhaiwppypipiywwuuuwyypiipyyiiaadapppipappppphfaiiphdpiisutrr0rr0765000t0000000ww00r00965242:12140iw9wwriiuruywwwwruewwww9wwwwwuuwwuwrt0u000ut0rrrr0999598909859999659959990099666759q9q9697q7qq99975666669qqq9996699996696956666666566999706666679900tu0ruupiiiyiiipipyiyyyiiiiipipdisididdppppdddkikdakzvccvcvcccxvcvcvcvvxvvxvvvvxxvxcvvvvvvvvvvclkpfkpaphdhphhhhhhadapppiiiddpaddddpppppphkzccclkkhkklkkhhkhhkhhhhhhkhhkkhhhhkkhkhhkhkhfhhhhppdpdddddddppppsippdpiiiiiiitusddidaiididipdiipiuipiddpdhkkkkhhhhaddkdkkhkhkkhkhkhhdtiuiiiisidiihiihpdphphdddpiiipiihhkccvvvcvccccvvvccvccvvccvvc",
"hhhhhhjkllckzklkkkkdkhkkkzkzzzzzczzzcccccccczckkhdipiayayiyyiiiyyyyupyiyiiiipyiyitrtrrrrsuurruuuuurrypyyiiiyiiiyiyyyapaippppaaadhhhkkzzkzkxkklkklkkzlzzzkzzkzzkaaddhaapasuwsw91>,,868::::::::===::::*:::==:::111>11115255566600009990wwriasppssypwuaiiappapidhpapppiuipistw92<22<399639eqww99999090000er000000090rer0000000000uuiipiiipipiiiiiipiiidppiiiipiiiiiwwrwrrturirwsirrsiyipppipyppppppdfdhpaddhhhphpphpppphhhhhhfcvvvvvvvvvvvvvvvvvvvvvvvvvvvvvvvvvvvvccccvccccccjhddghhddhffzzzkkkkkzkkkjhhkkkzzkzzkkkhhklkkkvcvvvvvvvvvvvvvvvvvvvvvvvvvvvvvvvvvvvvvvvcvvvvvvzcccllckkkkkkzcxccklkfkkkhhhkkzkhhhhhhppipyyhpydiurwrrrryyippiiyipsdhdssppapapppaphssiisihsstiuwww7w0066qqqq000r00000000w96854<<;1,929d606wwdtutww7wwwwywwwwiwwwwyuwywwyryrry0ryr0ry0y0000000008869000995959799969966976999w990067667099666667903369999999666999665666666666997ww9769q66000u0000uuyuuiiiyiiiiyiyyyiippppdpidppppppppadpdidhkcccvccccxvvvxxlvvvvvvxxvvvvvvvvxvvxvvvvvvvvvccckkhdpkpphdddddddpppissppppppspiippfhphphfccxzkhhhkkjhhahjkkhkjhkhhkhkkhhhhhkhkjkkhkhhhhhphpfhddidshssaddpppiiiiiiiiiiuuuippaiddddsdiiuippiypppppdakkkhhhhkhkhdddhhhhkhhkjkhhhiiiiiiipppipppddphphpppfpipppiipjjvvvccvvvcvvvcvccccvvcvccccv",
"kfkkkkkkkzzzkkkkkkkdjkjkzzxzzzzzcckcvvccccccccckhhppiiiiiyiyiiiipyiuypuiiyiyuyuitirruirrrruriruruurupppapiiiiyyiaiiippppppppddhhphhkkklkkzllkklkklzzkkzzkllkzzkadpiasdppsuwr9911,,182::1===:::::::;=*:::::::::1111122255566600w0066960wrdshssaiuuwusuipuippiadiaspiipppiiq55<,<,2266670w99093996990000000000000000rrt00t0tt000uiiipiipiipiiiiiiiiidiippiyipippiyrrewwtuutirrsirruipipiisppppipppddddhhdhphphhfhpppiphhhhhkcxvvvvvvvvvvvvvvvvvvvvvvvvvvvvvvvvvvvvvcvcvccccckkhdhhddpadfzkzzkfakkkkkkkkkkkkjjkjjkkkhkkkkklvcvvvxvvvvvvvvvvvvvvvvvvvvvvvvvvvvvvvvvvvvvvvvvvjzckcckzkkhfkzclkklklkkkkkhkkkkkhhkhhhppiiuuiiipitrwwrrryyipipiiiishsddsppapppppdahdiiiptsisiiueewwqw006900q90w0e000000y09699<<1:2:222dyu0wwu9wwwwwwwyuwwwrwwyywuwuwwwtwrwrwryrrurr00r0y0000000099990099999959699969999799w9090066079009336666906969998669999966632366666669990009666666990000rtuittiiiiaipiiiyiiiyiipiiidpdapppaahdhdkdhhhkkccvvvvcvvxvvxxxxvvvvvvvvvvxvxxvxvvcxvvvvvvvvvcccckkkfhpdhhdsdipdppppspppppphppppppphhpfzcxkkkkhkkkkkhjkkkhkkhhhhhhhhhhhhhhhhhhhkhhhhdhpphhpdidshsassspppppiiaiiiiyiuuuisaiidipddipiyiiiyiipipppaklkhhhhhhddddhhhhkhkkhhkkhppiipiiippiipppddphhpphppiiiiiipdzcccvcccvcccccvccvcvccvccvcvc",
"kkkjhkkkkzkkkkkkkdkkkkkkzkzkzkxzzkkccvvcccccccckhpphaiyyiiyyyiiiuiyupuuyypiyupyyrrrrusrurrrrrrusutuiippppiyiiiiypiiiippppppdahhhhhkkkzzkkllkzkkkkklzklzzzzzkzzkpipishsppsu662611112::11,=:=::::::*:=:;=;::::111111><152586669ww0965559wwddsasduu00ydyyiiiaaippipipiisppiq633<<21553579ww2899998309000000000000000r0tu00000r00tssiidiipiipiiiiiipiiidddiuipipipiyrrrwrruuiirriiwrryddsyidppppapppddddpdhhhhhhphphhipphkhhhlccvvvvvvvvvvvvvvvvvvvvvvvvvvvvvvvvvvvvcvcccccczcckhpdhddppdfkzkzkkhdakkhkhkhjkhjkkkhjkhjkkkhlxcvvvvvxvvxvvvvvvvvvvvvvvvvvvvvvvvvvvvvvvvvvvvvcckcckckckhkhkkkzkklklkkkkkkkkkkjjhkkhdppppiiiiipisiuuuurriiiiiiipipppddhhppddpppppdddiiiiiiiitsrwwwwqqw00999990wrt0990000w00098<118,212u0w0uwy6witwwwurwwwwriiwwwwtwuywwuryrwrrrrry0y0y0y0000000099999909099599696796699q99w909009909900936369936969699962669666666636666666699w0q993666690t0wwtyiuuiuussappiiiiipiiipiiiippappiikkhkpkppdiihjkcvccvvvvcxvxxvvvvxxvvxxvvvvxvvxvvvvvvvvvvvvvvvvvcvzzkphhhhdispsiipsppppgsphhpppapphphhzccxkkjhhkkkjjkkkhhhhhkhhkhhhhhhhhhkkhhhhkhdhphphhppddsdasssddpdspipiaiiiiiyuwusppiiidiipdiiiipiiiiiiiddakllhhdhhdddddhhkhhkhkhkhkhhppiipippiiiiiiddhpkpfpppiiiippphcvccvcccvcccvvcccccvvvcvccccc",
"jkkhjkhkkklklklkkkzkkkzkkzkzkzzzcczccvvvvcccxcklkhhpaiiiiiyiiaiipypiyppyuuuyyrrrrrrrrriruuururuuuuuiiyppppapiiiyiiiipappdddddhhhphhkzllkzkzzlkkkzlkkzzzzkklkzzkadpdasappur661511,,:=:11:::::::1:=;=:::;==:;::::111111225566890w99765590wssssiuuu00uiiyyiiapipppippiiippi3213<222555669ww999099960000r0w00rr0000000000u00r00000rsiipiiipppppipiiiiiiidipyiippiiiyrerrrruuiirriitrridspiipppppppaphadahhhdphhphphpppipphhhhjkcvvvvvvvvvvvvvvvvvvvvvvvvvvvvvvvvxvvvvvvccckczccjhdsdsdpddkkkkkkhdpddjhhhhhhhkkkjkkkhhhkkkkzvvvxxvvvvvvvvvvvvvvvvvvvvvvvvvvvvvvvvvvvvvvvvcvcvcccckcklkhkkzklkkkkkkkkkkhdkjkkhhhkhhphhfippyudiiuuuuuuiyiiipiipiiiisdhhppppapippdhdiiyitiiriitrwwq700wq900e000q00999000968821;;12:111w770iuiwuiiiiiiuiwwwrwiwyeywywuuuwwwryr0yrrrrru0y000000000099999999999957969799997ww9w9w999wq09009660009939999996666699656666666666697000w9966666600turwrtitiuususiiiiiiiyipyyypyipdddapappdpdpppphipphhkvcccccxvxvvxvxvvxxvvxvvvvvvvxvvxxvvvvvvvvvvcvvvvvcchdpdhhdddppdsdpppppphppppppphppphkzcckhkkhhkjczkkkkkhkhhhhhhhkkhhhhkhkkhkhhhhhphphppdadsddshaspssisidiiiiiiiiyuiuippaidispidippppiiyippppaallfkhhhhhhdddhhhhkhkhkhkhhhpiyiiyipiiipdpsdhfphhppppiiiiipkjjcccvcvvcvccvvvcvccccvvcvvcv",
"kkjhjkkkzkzzkzzlkkkczzzzzzkzzzcckckccvvcvcccccckkkhppppiiyyiipiiiyiyiiiiuurrrrwrqwwqrruiirirruuruiiiiipaaiiiipiiriuipdddddddhhhhphkkkzzkzzkzzflflzkllzzzlkzlllkdadddadipuurr25:1:::=:,1=::::::::=::::======::::11111226666669w0909969599ssuuurwsitiiiw00ihasaiiipppippir2=12,<2<66656wqwere99999000ee0r0r0r00800000r0r00000000usuppiidpdpppiiiipipidpdiipppipiiirrrurrrriirriiyuidiiiipipdppdppdddadahdhhpfhfpppppppphhhhhjcvvvvvvvccccvvvvvvvvvvvvvvvvvvvvvvvvvvvcccccczcckhhdhdddhhkzzkkkddikkkhkkkjhhkkhhkhkhkkhkcccvxvvvvvvvxxvvvvvvvvvvvvvvvvvvvvvvvvvxvvvvvcvvcxcccckckkkkjkkkckkkclkkkhhhkhhkkkkkhhhhkkhphyypyyyywrwwruuuyipppiiyiiiiidddppppppppipddpyyyriiiitirw9w9w9w090q99999999900008988211:*>:125wiuusidtuuiitiuiwywwywtyyiywwyyutyyrtrryry0uuu00uy000ww00900009900995996996999q97q999ww999000090969999066699666666636996669666996696997www9736669900wwww0tuiuisussiiiiiyiiiyiyypiiadpppppppppppppphhjgddkvcccccxvvvvxxvvvvvvvxvvxvxvvvxvxvvvvvvvvvvxvvvvvcvckppphpidddsppppppshpppappahahphhhkzccchhkkkkhjkkkkkhhkkhkhhhkhhkhhhkhhkhhhkhkhddadpdpddsdddddppsassspiiiiiiiyyuuispdpidiidddspdspiiiippppahlllkhhhhhhhddhhhhjkhhkhjkhhiiyyiiyiiiiidsddpfphphpppiiiiipfihkvcccvvvcvvvccvcccvvvccvcvc",
"jkkkkkkkzzkzzkzkkkzlccczzzzzzzzcccccvvvvvvcvvccckkhdaiipiyiiiaiiipypiiyiurrrrrrrw9wwrirurrrrurusuuuiippiiiyyyiyiiiddaadphdpahhhhhhhhkklkkzlkzzzkkzkzkkzzzkkkklkahdddapiiusrr58::::::,11:::==:==*==:::::=:;=::::1:1>122556566www909999999duwwwuusisiuiw90ihhaapapppiuppyy2==2<<2<269669wqrre92899w00000000r00990000000r00t000000iipipiipippiiipipypdisddupipppiyirrwwyruuiurrsiuuddiiidppdpdapadddddddddhhphpdpkphpppphhkhhjkcccxvvcccccccvvvvvvvvvvvvvvvvvxvvvxvvvvvcccxzcckhddhhhdhhkzzhdppdddkhkkkkkkkkkkkkkhhkhhcxvvxvxxvvvxvvvvvvvvvvvvvvvvvvvvvvvvvvvvvvvvvvcvccccckkkkhkkkkhkkccclckkkkkkahhhhhkjkhhhhhfpahyppuyiirruurtiiyppppiyipiiyipddapppppayisddiiyywiwrtiirww0ww90999999598888900009888821:11::250hiuiypipiiywwwywww7wuyyiwuwwttuywyryrrrrruu00uru0000tww00w000900097599690669979q7w99w9ww90007000966666636966666666369662696966966699q9q7w6999666999000wr0iuuyussuiiiiiiiyyyyyyipidipiappappphfhfphihhdhkvvvvcxxxvxvxvxvxxvxvvvvvvvxxvxvvvvvvvvvvvvvvxvvvvvchpipphsididpsppppppphsppipphhhhjkcccclhhkjkhkhkkjkkhhhhhhhhkhhhhhhhhhkkjkhhkhhdddpappddsiddddpassssapiiiiiiiyiuuussdpsdddidddddiiuiiiippddhklklhhhhhhhhdhhhkkhjkkhkhhppiyyiiiiiidddddspphpppppppiiiiiphhkvcccvvcccvvvcvcvcccvcccccc",
"kkkkkkjklzzzkkkkzkcclccczzzcccccvccccvcvvccvvccljhhdpiipiiiyiiiyyyypyiiyrrrrrryr000wrrriirrruuussuuiyppyiiyiiiyyipddhhddhdpahhdhahkpakklzkkzzzkkkzkzklzzkzlkzzkppppdsdpiuswe581::::,,:,,:;==-===:::::::=:=:::11:11<2255<5668wrw009999990ur09wuuriu0wsu90ydasapiaipipppr72=,2<<3269666ww0rre99900r0900r000009990000ettt00000ut00siidiidspppipiippipidddiudppdsiuurewwrtuuiirrsiuuididppiddapadddddahdddhhpkkpdddkdhpppphhhhhhhkkcczzzllkkzcvvvvvvvvvvvvvvvvvvvvvvvvcvvcvxccckhhhjhdhhhkkkhdiidddkkkkjkkkjkhkkhkhkhhkcvcvvvxxvvvvvvxvvvvvvvvvvvvvvvvvvvvvvvvvvvvvvcvvvvcckkjhhhhhhkhhkccllkkckkakfhhhhjkkhhhhhkhppppyypiyytuuuuuusripppipipiiiiiiddpipiaiaiddpiyiyiruwriirqww090996699595985599990<21::11:9821225yyuiudidptwywwywwwwwytwtyiwwyuiytrryrrrrru0uu0u0u0rwww0w0ww0000w05999999066909qq69699ww996006600666636633966666666659962966699666697qq99q996635678690wrrrttutttusiiiiiiiiiyyyiiipiippipppfhhphpphiiuuidhfjzcccxvvvvvxvvvxvxxvvvvvvvxxvvxxvvvvvvvxvvvxvvccvczhdsppididdssspphhhsdpddppddhpkkccxcczjkhhkkkhjkkhhhhkhkhkhhhhhhhhhhhkkhhhjhhhddadddapddsddddssssassspiiiiuiuuuuispdppdsddsddsdiiyyiipphddjlkkhhhhhhhaadhhhhkhkkhkhkhddiuiiiyiipidsdddppdppppppiiiiiipkkkccvvcccccccccccccccvvvcvcv",
"kkjkhhkkkzklkkkkkllccvccccccccccccccvvvcvccccckkkhadppyiiyyipiyyiiyyyiirwrwrrrwww0qwrrrrruurrruusiuypppyiiiyippiipddddhadddddhdddhdpakklzkzzzkkklzklzzzzlzkkzzkappipapidsu965e52,:=,,::1:::;==;::::::::::::::111112222>12556wrr90996690w0w950uswpu90iw66rpasasippppippy52=,<,<2<99660uw6wtw090erw000rr00e0999099000000090000000uuipiidddpipiippiyiiiippudiipsiuirwwwyuuuuirrssiiyyddisidppddddaddddddahdhhphphdahshpppphhddddhakkapdkkpifcvvvvvvvvvvvvvvxvvvxvvvvvvvvvvvccccjphhdhhdhhkkkdiiddsihhhkkkhhkjkjkkkhdhkccccvvvvvxvvvvvxvvvvvvvvvvvvvvvvvvvvvvvvxvvvvvvccccckkhhhdddhkkhkkkklkkkkhkkkkkkhhkkhhhkkhpiiuiyypywuuuiurruiyuisiippiipiiiddadippiiiiddppiiiwiyetiituw9900963399989955259990522:111:382162>uyphidyiyiuuwytwwuuuuyywwyywwuuuurrrryrryuu0uuu0urw0000ww0wwww0w09999676699009q7969699ww96000660669664666996696960539936966666633699997779q9633358990wr0rryrwtsuuiyyiyiiyyyyiiiyyypppappphpfpppppjiwwiiyyipzxccvvcxcxvvvvvvxvvxvvxvvvvxvvxvvvvvvvvvxvxvvcvckpdddpdiidsdphhpsspphphhpddahpkkcccczczkhhhzkkjkhkkhhhhhhhhhkhkhhhhhhkkhhkhkhhddpdpdppdsddsddssaasasdpiiiiiuuiuuiidpppdiiipddpadiiipipdddddklkhhdhhkhhdddhkhhkhhkhkkhhdiiipiiyiipipsdipkpapppiiiiiiiiikhihzvvccczccccccvcvvvvcvcccc",
"kkzjhhkhkkkkklkhkkckcvvvcvccccvvccvcvvcczccczkckhhppiappiiyiiiiyruirirrrrryrrwww99rw0rwrruiirruuupiiippiipppppyiiipahadpapdddhhadddddkkkkzzlzkzzkkzzcczzzzzkzzlkdihsiwiidi9650511:::1::1:::::::::::::::=:::::::1111<2<5<85650rw0w0966ee00s6560uwwsw0wiw6idasppppsusuiw966222235269639wq66ww090r009000wrw000000009t00t000000000iiyippiddidpdippppdipiipiydddsiitiwuuwywuuiuuyiiyyyiiddiiiddpdpdaddhdddhhhhhadhhppphppppppppppiapppiiipiiiakcvvvvvvvvvvvvvvvxvvvvvvvvvvvvvvcccadhdhdhhhhkhhhdpdaddpkjzkkkhhkhhhccchkkcvvccccvcvvvvvvvvvvvvvvvvvvvvvvvvvvvvvvvvvvvvvvcccccchpphhphhkhhhkkkcjkkkhkkkkkkjkkhkhhhhhhpipiiiiiiidpiiiyiipppippppipippddsfpiipppiiisdspiurrirririiw69wq9q6669666328228882<2895<<298959996udiyippyiuuwwwwwurruwwrwwuwwuuuuuwwruuuw0u0uuu0uwwwwwwwwt0000r0099990976q666666997667www0q96666043466999666696666666966666666966633666997q7667690000ryr0ryuiiiipiyiiypiirrrirtiiiipdddppihhphhhyhyiiyyyirihkccvvcvvcvcvvvxvvvvvvvxvvvvvxvvvvxvxvvvvcvvvvcckpphppiddihihhsssgppphpapdpaddphlcccccjhhkhkhjkhhhkhhhhkkhhhhhhhhhkhhhhkhhkhdhdaddpppppappphapidsdpppiiiiyiyyiiiiiiappdddiddssddiiippdpdjdkkkkdhhhhhhhdhhdhhkhkkkkjkkhhpiidiiiyipdddiiidddiiidpiiyiiiihhhjdiihuihkxxcxcccccccvccccc",
"jkkkhkhhkkkkkckhklclcccccccccccccvccvcvclczzckkkhfppapppyiiiiiyirtiititrrryrryw099q99rwiuuirrrrruyyyiaapappppiiipppdhphddddhhhdhddhdkfkkzzkzzxkzzzzzzzzzzzkzzzkkdwsiseiuiu665051::11::11:::::1:=::::::::::111111211222556599wsrww00600968t650eswuiw0uiw0idhhpsppsssirw969366566289667tw90q0680r0w00000e0r00000009000r0009000trusiipiipdipsidsspipiiispppiddiiirrwwwurwutpiiiiaiiyiiiidddpddpdppdddadddhdhpdhhhhphppdpaphadpppadapiiiyiiipkklcvvcvvvvvvvvvvvvvvvxvvvvvvvvvzvckdkdhhhdhhhkhdhhdkddphkkjkkdjkhklkkkkklcccccvvvvvvvvvvvvvvvvvvvvvvvvvvvvvvvvvvvvvvvcccccccklkhhhdphhkhhhhkzkkhhkhkjhjkkkhkkhhhhkhhpppppiiippdppiiipipyuiuppuippiipsdhfpappapiddddsiiirrrrririq97997q666666362822258125565<4555252522widpippiiyuuuyyurrruurryywuuuuwuururuuuu0urur00rrwywwwwww000000000900999696q96999667qwqq0q669639333666600q606qq66696666666656666339366666676366600000wrwiuuyuuiipyyyiyiiiriuirrriiippdipihhpphpipyiiiiwyudjjzvcxcccvcvcvvxvxvvvxvvxxxxvvvxvvvvxvvvcvcvzzkchpipaidiiiihhihssppdpdpppdhpdhakkcxcccjhhhkkhhhhhhkkkhhhhhhkkhhhhhhhhhhjhhkkhhdddddpppppdpphhpsdddppipiiiiyayiyiiipppsiiddddddidpiiiiddjjkkllkkdhhhhhhdhdhhhhkhkdkhdkhdiyiiipiiiipididdidsidsdpiiyiiiiiipdiiiiidhkccxxcccvcvccccccc",
"kkkkhjhkklkkcklkkzzkcvvcvccccccccccvvccckcckkfkfhhhpppppiiiyiiiiiiiiiitirryrrryw99q99rwriturrwrryiiyiaaaaaypipipiipahhhpphhhhhhhddddahkkzzzkzkkzzklkzxzzzxzzzzkkswyiswurrw662851111::11:::=:::::=:::::::::,::11111121555650etsuw000980616w8900rw0ww9wiw0ishhpappsssrw0966566566269667ww7w096990rw000w000000000009000t00090000uisiipippdisipipspiiippappiddsssurrwwuwrruuyyyyyiywyyiddpidpppaaddddadddhkddadhhhkphpddppappdaiiapaddiiyiipdpidzkdpcvvvvvvvvvvvvvvvvvvvvvvvvzvzhhhddddddhkkdhhhkkddphhkjkhpjhhkkkhkkkkccvcccccvvvvvvvvvvvvvvvvvvvvvvvvvvvvvvvvvvvccclcckckkkhhhhdhhhddhhkjkkhhkhhjkkkhkjhjhhhkkkhddppipidhhdpdppiiiiupypipuiiiiipddhpaipiapdpdddppiiriwrtiiiwwwq76696636653555<228256685<25955995659wisiyiduurwwwwwwywwwwwwwuwtttyyuurruuwwuuuuruu0rwrwywwww000000000900996693966q9990wrrw70q9696376436666666660q06666q6666933225353222335766553366800800ritutrwyuiypiyyyiytiiureriiiiiiipiphhppdapiwuuip7yihjccvxcvvcvvvvvvvxvxvvvxvvvvvxvvvxxvxvvvvvvvvczkhfppappisidhigippddhhphdphpphhdkklkccczkhhhhhhkhhkkjkhhhhkhkhhhhhhkhhhhhhkhkhhhdaddapappdddphhpsadipipiiyiiiiiiiiipippdididdiddiiiiiuispdddhkkjhhhhhhhhhaddhhkjdhdkddhhdiiipiiipiipidddidddddddpiiiiiiiiiiiiihghhkcccccccccvcvcccccc",
"hkjhhkkkkkklcckkkkkccccvccvccvcvcvvccvcczlkkkkhhhhphappppiiiiiiiirtiiruuyrrrrrwww6w99rwiiuurwwwriiiiypaayiiypiaddddahhhhhhhhhhhhddpdhkkkzzzzkzzkzzzzzxzkzkzkzklkkwyidwwuuu66282:1:::1::1:::::::::=::1:1:::1:1:,11,21255895w0rsrwee0900540009060059970uuydahhappptpsw9ww36237656299690tuwuw00000re0000w0000t000000000i000000000tiiidpdddidppidpppiiiisssisshstiurrrwrrrutpiyuiiiiyyiiiipspdpdpdpddddddddddhdddkpdphhphppppapiiipiddpiipyppiiiddiwkcvvvvvvvvvvvvvvvvvvvvvvvxczkhkdhdddddhkddahkddkhkjhhadpkdhjkhhkkkcccvccvvcvvvvvvvvvvvvvvvvvvvvvvvvvvvvvvvvvvcvccckkkkkckhakhhakddpddkkkhkhjkkkkdhhkhkhhkhkhhhddhdpppddhsshhhpppppippppppiiiididphaaiiipdsddddppiiwwiirriiwwq69699997552682<225569599<589985569519wiuuupwuwrywwwwwwyyrryuuuuyyytruururuwu00u0u0uywrrwywyrw000t000999999969666966007wqwqw009396366346633666666666666669669622<36532<<<255332<2233899900wr0w00wwyyiiiiiyyirruruurriiiiiipihffhpapphyiyyiyppkcccvvvccvccvcvxvvvvvvvxvxvvxvvxvvvvvvxcvcvccjzhhfpiippdiddidddgdppddhpddahhphdlcckcvcckhhhkhhkkkhkkkjhhhhhhhhhhhhhhhhhhkhhkkdhddddddpdpdddahdpssdddiiiiiiiiiiyiiiippppdidsddssdddpiipdpdhdhhkkhhhhhhhhdhhhhhkhhjkdkkkhdiiipddiipiiiisddpsssiidppiyiiiiiiiiidhzkccccvccccccvcccccccc",
"kkkkkhhhkkkkcckklklzzccvcvcvcccccccvcccczkzkkkkhfhhdahppaiyiiyiituirurirruruurrwwqr99rwritrrwwwriaiyaiyyyipppadhadhhhhhhhhhkhhdhddddkkkczzzlkzzzzzkzzzzzzllkzzlklwyidwipsu061511::1::1::::::::1:=:=::1:11:11:111,,,2258696w0rsrwww0998650009956066000wpiphhhdhpppdr70rw2669w767599600yutur0wr00rw000www00tr0r0000000t00t00r000iiiidpdsdddisppspiipiippipdddsiiwwrrwrruuiiiiiipiyidsddidspapadddaddddddhaddhhhhadhhhppaphphpiippidpiuyyipiiispiyykvvvvvvvvvvvvvvvvvvvvvvvvcvvfhkdddpddhhkahhhhhhdkkjhhhpphhhkzkkccccccvcvcvcvvvvvvvvvvvvvvvvvvvvvvvvvvvvvvvvvvccccclkkcklkkhkjkkjaddhkkkkkhkhkhjkkhjkhkkkhkkkhhhhddppppppppphhppppsppppipiiiiippdphhpiiipsppddddssttytiyttiyww76666963522566442685599644555525555<29wuuuuuwuuytwyrrrruuuuuuutyywuuyuuuwywwuwruuwuyywyrwywwt0www00w959999596666799wqww00qq907366366436666966666666666696669633556622<<<25532<<233388980ww00000wryuiiiyiiiirrirruiiiyiiiipppphhpapipipiiiypidkcxvvvccvcvcvcvvxxvvvvvvvxvvxxvvvvvxvvvvvvvvccddddppppishihhshddpdphhhdhhphhdhkckkcvcckhhhkhhjhjkjkkhhhhhhhhhhhhhhhhhhhkhhhhpddddddaddddddshdpadispiiiiiiiiyiiiiippsdpiidsdddddddpiiddhjkhkklkddhdhddhhdhhhhkkkkdjkkhkhduiddidiiiipiddididpppppiiiiiiiiiiiihzccccccccccccvcvccccccc",
"kjjhhkkhkklkcccklkzcvzcvccvcvvvccvcccccczlkckkfkkhddphpppiiiiaiiiiitiiuiyrrrurrwewr99rwrriurwwruyyyayaayyapppaddhhhhhhhhhhfhhhahjdddhkcczzzkkzkzzzzzzxzzllzzzzkkkyiidihhsi0615111::::::::::=:::::=:::::::1:11:111,,485660699wsrrr008000680e6606066009wiiahhhdhaiptw7wrw2659766q59900wyuuuq0rrw00wwww0000000rrrt00000it00r0000uuiiipiiddiiddisppiiyiiipiiidiiiuwwuryruuuiiiyyiiiyidddidsdpddppppddddddhdhdhphhhhhphphphhpphappappddiipiidppddpiyizvvvvvvvvvvvvvvvvvvvvvvvvvvvkhdddadpdddhhhdhhhhhhkkkhddajhhkzcccxccccccvcvvvvvvvvvvvvvvvvvvvvvvvvvvvvvvvvvvvvvvvcczcckzkjkkjkkkkhhhjkjzjkkkhkkkkhkhkkhkjjhkkkhhhhdhdpppppdhhhhhpppiisppuippiiiippaappipiiippspppirwuuuiiyyiwww765366322<8556846942555<>>8252222>><560trywuwyywwywwwrruurutuuutuurturuwwuywryu0y0rrywrwtur0twwwr099999999666996q9wq97907q30666636653696606q0606666q6066q696566665222223563<<<1223822580948000yytipipiiiuuirrirrriiiiiiiipiphdppppiihppduipakkxvvvccvvcvvvxvvvvvvvvxxvxvvvvxvvvvvvvvvvvccchdphhpphhdidhihspphdhphhhpphdadakcckcxcckhhhkkhhkkhkkkkhhhhhhhhhhhhfhhhhhkhdhdpaddadddddahsaaadpspidpipiiiiiyaiiiiipppspididdddddddiididddhkjllkhhhddhhddhddhhkhjkkkhhkkdiiiidiiddiiidsddpdidppipiiiiiiiiiiphkcxcccccccccccccvcvccccc",
"ajkhhhkkkklcccckzkkccccvccvvvvccvcvcccckckklkkkfhhhpapapppiiiiaiitiirisriruurrwwrwr99rwiuiuuyryuiyiiiiiypapapaahhhhhhhhhhhhhhhhhdkddkkcczzlzzzkkzklzcczzkzzkzzzkkipiaihhui06>511:11:::::::::::::=::::::11111:111112885990609wsrrr099906950w55e5665007wyydhkddddpptwwrrw66699669599qqwwuyuw00wr00tw00w0e00000tr000090s000r00000usiidiiddipdidpspppiipsipiidiiuwwuurrrtuuuppippipiiipddiidppapdpadadddddhhdppdhhhhhphpaddhppppiapadsdpidddppddppiikzvvvvvvvvvvvvvvvvvvvvvvvcvvkhkidddhdaddappphhhhhkhhhhhddhkhkcccvvcccvcccvccvvvvvvvvvvvvvvvvvvvvvvvvvvvvvvvvvvvcccckkkkljhkkjhhhhhhhkjkkkjkjhhhkkkhhhhhhkkkjkkhhddhdppphhhhhhhhhpppspppipidipppphppppipyppiiiiiiiiriiuuwyiiirrwq3566552<6566965024865<<<99525525<2259rtqwwww0wywwwwrrruruiuutwuwwruuuwrurwurrywwrwrrrwywwuwrywwww997999939969qq9wqw90900306376666636666q6609q66066q99999696996633324455532<<2333,2<4295>98000ryuypiiiiiiriitriiiiiiiipiippadpipaiuidhhiypkccxvvvvcvcvvcvxvvxxvvvxvvxvxvxvvvvvvvvvvcvcvccfpppppphidhsihshphphpaffpdhdddhhklcccccckhhkjkhkjkkhhhkhhhhhhhhhhhhhhhhhhfddhhphdddddhadshhdsksdpidiippiayyiiiyiissspdppdiddssdidsdsiiddddddakkkddhdhdhhhddhhkkhkdhhhkdkddpiiiiiiiiiiddidsidpdpppiiiiiiiiihhccxcccccccccccccccccccccc",
"hkkkkkjklkkcxvcckkkzczcvvvcvvcvcvccccckcklkkkkkfhhhppppppiaiiiiiirrrrrruruurrrwwwqr99rriruiuuyyiiaiyiaiyiiyppphhhkhkkhhhhhhhhhhpdddkkkcczzzkkzzzzlkzcczzzklkzzlklphpdiddww60151211111:111:=::::::::::::1::111:1122228990w609eswwwe90086850i6601166ww6waahhhhhhasptwrrr9967qwq7wq99wwuuyuit000rtw0000ewww0000rr09t000ss0t0rr0rrisiiiiiddiiidipspipiippppidsstuuwurrywuuuuiyyyiiiyiddisdadppddpddddddkadhdaddhhkhphhphddhppppiiipiiiiiidiiiippppiyyikzvvvvvvvvvvvvvvvvvvvvvvvckhhddadddddppppipphhdhhhhhjhhjjhkcvcvcccccvvcvvvvvvvvvvvvvvvvvvvvvvvvvvvvvvvvvvvvvvvccccklkkkkkkkaddddddhkhdkkkhkhhhhhkhhhhhhhhhhhhhpdddhhfhhhhhkhkhpdsdppppidsddiiihdppapiupppiiiiitiiiiuuyyiiiiiyw5666754<6569969w89895<<655522552:2225rrwuuwwwwywwrrriiiiiiiuuywuwruuuwruwuwuwu0urwywwywwwwwtwwwww09999999699697w990w0766363596666633326666996666q06099976699965<2<<2222333<<3332,<<,4224898900tuiyipyiuirrriiiipyiiiiiyupahhpphhpyuudkiykcvvvvvxvccvccvcvvxvvvvvvxvvvxvvvxvxvxvxvvccvcvxhpipppihidishdhshphhhafpadhhhhhdhccccccczjkkkkkkkkkhhkhhphhhdhhhhhhhkhhhdhpphhahddddahdhhhasahapipipppppipaiiiiiissspsppiddiddddddiiiidddjhddkllhhhahahdhhhhhhhkjkkkjkkkkdidpdiiiiidiisdddiiddppiiyiiiiiiihkcvxxcvcvcccccccvcvccccccc",
"akkzkkzlkkkzcvczcccvcvcvvvcvvccvcclxvcxvllxccckkhhhdhdiihssiiipiiiyiyiiiyyuuywwwwwqwwquirriiiiyiiiiiippiiiiidhdklkfkkhahhhhhkhjhfhfkfkkzxzzzklkkzzlzzzlzzkzzzklkkkkhsiur0996<5851,1:1::=1::1:1=11:11::11:::1:1::<2458699690wwerwqwweqw7567wt797>0090uipiddkdadpdsw0rwww655060000ewwwwuwwe00ewww0we000ww0e00000000w00uuwwrwwwwwriiiuiiapiipsiiiiiyiiassiidsdiyyidiirrititiiyipipuspppsspppadppdddhdphphhhhhphhhkhhhddapppiiiyiiiippipiipiapiyaaiy7yphvvvvvvvvvvvvvvvvvvvvvvvvzpphppdddddsipdhhkhhkhhhfddhkfzffkzvcccccccvvvvvvvvvvvvvvvvvvvvvvvvvvvvvvvvvvvvvvvvvvccclkaakkdkkkddhhphfhfhhhkkkhhkhkjkkkkhhhhhhhhhhdppahddhpphhhdhhhpsiippidddssiyppdiiiipuiiuuuisrrrsitrrutwurrrw99985599959990006699666989995522288>8erruurwuuuuyryuitussuisrrurwrrrrrrywrwrrrwwryw77wyyrwwww7ww0099999900969q9qqwq60063666666663225666736q9999966996699369976222212222323832211<>><5664656990yrruiisiiirrutuuuuyuiyppipppdpdddsrwusdddacvvvvvxvvvvvvvvvvvvvvvvvcvvvxvxvcxvxxvvcvvxvvvxvkfppfkpphddpdppphddapfhhdhhhdddhdhkccvclkkhkkkkjhhhkkkhhhfhhkhhkddhhhdhhdadhhhhddapappaddddhddpppppiipiipppiiiipyiiiiadspppppppafpppppphpdadhkzzphhhhhhhahdhhhkkkhhkhkkkkdpppiaiiiippdisdpiiphhppsiiiriippkccvcccccccccccccvcvccvcccc",
"kkfkkkkkzklzccczccccccccccvcvvvcvvvvvxxvvvvvvccckhdddddpidhiiipiiiyyyyyiyywuywwy990w79wiiriiiupyiipiipipdiidddkdkkkklhaakkhjhhhhkkkkkhklzzzzzzzlkkkzzkkzzklkllkkkkdjauyy8900888>111111111:1:1:1:::1::::::::11111<<2699999wwwwrwwqwwwq63236ww999299rtspiikkdkddapswwrrww62560699900ewruuww00wwwwer0000ew0000000e00000uiwwrrwwwwriiiiiippippiiiiiiiiiiiiiiiddiyyydiririisiipyiiidipspsphppppddddpdpdapphphhhphhkhhhdadpppiiiiiidispiipaipaaiiiadiyyihlvvvvvvvvvvvvvvvvvvvvvvvvzkfhdddiiiddpiihhdhkhhhhhddhfkzkkzzvccvcvcvvvvvvvvvvvvvvvvvvvvvvvvvvvvvvvvvvvvvvvvvvcczzkkkdkdkddkddhfpphkhhkhhhkhjkhkjkjkkkhkhhhdddapppdpddhpphhhhhhhppppspdidddpiiiiiiiyipuuuuuiiisuussuuurrruu09900ww9558965999099899969669599855286829wrtuurutuurrrruriuusrsuisryrrryrrrryrwrwyrwwwwwwwwwww7wywyw0000909666679999w006666966666666525656666696363399966696623542222222223232222216256909888590wrrrr0uidiuriuuuuusiyiiiipippdppdiiw0rpkzccccvvvvvxvvvvvvvvlvvvvvvvvxxvvxvvvvvvvvxvvxxvxvvckhpppppdhddaadahphhpphhpddddddahhhkkcccczjkhkjkkhhhhhhkhhhhkhhhhahhddhdhdhhhhdddddddddddadhhddpppipiiiiiyiiiyiyyiiiisapppppppppppppppiphpddhhkczhphhhhhhhdhdhhhhkjkkjkkhhhpiipiiaipiiddddiisppsiiiipipsskkzxvvcccccccccccccccccvcccvc",
"dfkzfzkkzlzzccczccccvcvcvcvvcvvvvccvvxvvvvvvvvvxckhpipaphihiipiiiyyiiyiiuwuutwww999990wiriiuiiipppspdiiiidisdkdkkfkkkahkkjkkkkjkkhhhhfkkcczzzzzzzlzzzzkkzzlkkkkkkdpkhiriw099589<111112111:111::1:11:::111:111111225699999we0errrwwqw6533529e966520rsddiudkkdkddddrwrww065560000000wwtiuww0wwwrwwww000w00000000000090uuwuyww0wruiupiuippspppiiiiyiyiaaiiiiddsiyiigirrtisiiiyuiipuuppdspsppdpddpdahpahhhhhphdhhjkhhhddddppppiiiidsiipipppaaiyappiypdzccvvvvvvvvvvvvvvvvvvvvvvvzphphdiiuusjiiisddhkkhhhhhhhkzkkkzccvvvcvcvvvvvvvvvvvvvvvvvvvvvvvvvvvvvvvvvvvvvvvvvvlzzkkkkfkdkkdkddpppphhhhhdhhhhkhhkkkjkjkhhhhdpdadddapppdhpdhkhhkhsiiidipsdddisiiiiipiiiiiu0uritissusiuuuwrut065590ww99999688990099999969999255558266659ruuuutirrrrrusrrirsruirrrrrtuuurryrywyrwrwwrwwwwwywwwryyyw0w000009699797q00q06660996666659556665636666636669666697622422232<232221322123256690w958900w0uruuuuiiiyuiuuuuusyiyiipipsddpiiiyrrsjccccxvvvvvvvvvvcvxvxxxvvvvvvvvxvvvxxxvxvvxvxvxvvxvvxkkppppphadddpdddphphhphppdhhddhhhhkkcclkkkkhkkhhhhhkhhkhkhhhhhhkhdahhhahphhhhaapdhppddddddadpppppiippiiiiiipiyyiiisiipppdpppppppppppppphphhhhklkhhhhhhhhhpadhhhkkkkkhkhjkdpippapppipididhiipspppiiiiiippcccvvvcccccccccccccccvcvccvcc",
"hkfzzfkzzkzzccccccccvccccvcvvccvvvvvvvvvxvxvvxxvvckdppppihiiiipiiiiyyiiiuytuuwywqwqwwwturrriuipipiiddipiddidkdkdkkkkkhhkkkkkkllkkkkklfkkcczzklkzzkzzkllzzzzzzzklkddkhiiuy099880832121111:11::1:1:1111:11:1:1111142589990wwwwwrstwwqw6566636q922219rtiipddjkkdddddrwwwrw95600w00e00ewtiuywwwwrwwww0wee0w0000000000000uiwuyw000wrippiuiappppiiiiiiiiaisaiippppiyyiiritiisiiiyyiipiipsshppsppapddpdphhpphfpphhhhkkhhhdddaappdpiiiddpppppippiaiyppiyhjccvvvvvvvvvvvvvvvvvvvvvvcvzkphddiuwyihiiidhhhhhhhhhhdhkkzzkzccvccvvvvvvvvvvvvvvvvvvvvvvvvvvvvvvvvvvvvvvvvvvvvvczzzzlkkkdddkkddphphhhphpddddhhhhkkkkkkkhhhdadpddddddddahhdhkkhhssiiiippddisddddipippiiiiuuuuutruuuuuutuiuuw056090w0959997999009996999966699955562265269uuuuuuurrrrurriuurrrrirrurruuuurwrwrwryrwrryrrywrwwwruyywqw00090wwwwwqwq00966666962535636355666536796666369996667522<<22322221122222282258689995900ryyrru0uiidiurrruuuutpiiiiyiyiddippsytudkvczlvvvvvvvvcvvcvxvvxvxvvvvxxvvvxvvvvvxvvxvvvvvxvvxvcxlkkppddddappddhphdphphdaddadhhkkhkkcllkjkhkhhhkkhhhhhhhhhhhhhhhdhhhdddhdhhhdddddddddaddddppppppppiiiippipyiyiyuiiiiappdiipppphfpphapdhphhhhkcchphhkhhhphphhhhhkhhjkkkkfapppppippipsdddddpippiiippiipdhcvvvcccccccccccccccvccccccccc",
"khlkkkkkzzzzcccckccccvcvvvcvvvcvvvvvvvvvxxvvvvcvvcchhdipisdiiipiiiyyyiiyuuuuwwyywwwwwyuirrrryipipdidpiiiididdkkkkkklkhhkllkkkkkklklkkkkzcczzzzkkkkzzzlkzlkzzzzxzkkkjhjpu99000094132111111111111111:11:1111:11111<4266999wwwweriiqew7666973378<,2>2quuiddkdkkdddddurweww9280ewwwwwwwwuiiwwwurwwuwwwwew00w0000000w0e00urwwyww00wusipiiipdssiiiiiiiiiissiiippppiyiyiririiiiipyyiipipuppphphpdpdppahhdddphhhhppfhkkhhadddddpddpiiipdppapiipppiiipppijzcxvvvvvvvvvvvvvvvvvvvvvcvcchdddddyyyikiiidkhhhkkhhhdhhzzzkzzzzvvvvvvvvvvvvvvvvvvvvvvvvvvvvvvvvvvvvvvvvvvvvvvvvcckklkkkkdhddkddppphhhhdhphdhhhkhkkjkkzkhhkhppaddppphhhdhhhhhkhdiiiiiididdsdpsddpiidpipisuuururrrruurtuuiywrw000ir00009900000000986999639992852282226559tturwrtuyrruuyuuyrrrrrrruuuuyrrrryuwywrwyrryrrwrywwyrrrwrwqw0999w9997q76006666q6966553563253555326696699369992693242<42532221112233122226669995980000uyruuusssiurriiuuuspiiiiiiipdsdidpi0udkvcccvvvvvvvvvvvvxvvxxvxvvvvvxvvxvcvvvxxvvxxvxvvvxvxvvvvvzpppddddddddphhpphahdhhaddhhhhhhkkklhhhjhjkhjkhkhhhhhhhhhhhhhphpphphphdhdddpddpdppddddpppiipipiipipiupipyuiyiiiisddpddiipppppahfhppkhhhhkklkhhhfkhhhhphhdhhkkjhkhkkkhhppppppdpdidssiddppspiiipppphklcxccccccxcccccccccccvcvcccccv",
"akkkkkzzzzzzvccccccccvcccvvccvvcvvxvvvxvvvvvvvvvcvxkhdpppddippiiyiiiiyiiuuwwywwwwwwwqwtuiriiipyppidisipiiiidahhkkfkkkjfkkklklklkkklkkkxzcczzzkzlzllzzzzkkzlzllzzkzldhlks090088923111111111::1:11:1:::1:>1:11111122669979wr090wrwwq663669333692,3>10uippidkhkkdddduurerw955000wwwuwwuiiiyruuuurwuwrwww00000w000000w00rrwwyrweewuiisiiippppisppiiiiiipsiaippppiiyytirrwitipiyiiidiispppdhppapahppdadadhpphhhhhhhhhhhddddpppiddpipdfkppapypppiipapicccvvvvvvvvvvvvvvvvvvvvvvvvccdppdddiyippiidkkhdhkhhkkhhkkkkzkzlzvcvvvvvvvvvvvvvvvvvvvvvvvvvvvvvvvvvvvvvvvvvvvvvvczkkkkkhkkhkddddphahhhhahhhkhkhkhhkkkkjkkhkhhhddaiiydahdkkkhkhhpddiiddididdiddsdddipidipssuurrr00uuuruuuuuuiiu0900000uu000000000999696666999555562<89666uuurrrttrrrrururyrrrrsuruuurrrrrrwwrwuywwrryrwrryrrwrywwrwwq7969w9q9wwww0q6600q69622555355535524<23666666669996622<<22522212221223321221555899998900ur0rttuuuiiuiiiissisippiiipiddddiddsiuudkkccvcvvvvxvvxxvxvvxvxvvvxvvvvxvxvxxcvvvvvvvvcxvxvvvvvvvckaphdddppadpaphapppddhhdahhkhhhkkkfhhkkkhkkkkhhhdhhhhhhhhhhhphhhhhhhhhhdadddadpddadaphppppppipiipiiyiyuyyyiuiiasddpiiidppfppphhpppfhhhhhkkkhhhhhhhhhhhhhhhhkhkkjkkhkhppphppddididddddpspipiiipdhkcxcccccvcvccccccccccccccvcccczc",
"hklkkzkzvczcccclcccvcccvvccvcvcvvvvvvvvvvxvvvxcvvvvckhppiddiipiiyiiyiiuuuywuuwwttqwwwtytiiiipippididddidpiidhkkklkkllkkklkkkkkkkkkkkkkcccczzzlkklzkzzzlzzkkzllkljkkppddsity0569911211121111111111:::11,:1111111126990wwwweww0we0e9666963293392,659rtuyyphdjddddidsurerr6680000wwruwriduyuuuuuwrrewrrw00w0w0ew0w00rewuuuuuurwwruiiipipdpipiippiyiiisppssiipiaiiiiirirriiiipyididiiipddppdpaddpdphdhddhhhhhhhhhkkhadddhaddiiidpiidhhppppaapppppdapklcvvvvvxvvxvvvvvvvvvvvvvccckhdddsppipypisdhhhdhhhdhhhakkkkkzkzzvvcvvvvvvvvvvvvvvvvvvvvvvvvvvvvvvvvvvvvvvvvvvvvvczkhffkkkddddddkhphhhhhphhfkkkhhhhkkjkjhhkhhhpphppiippddhkkhhfaididiididpppsididsiyyiiiiisuuurrr0usuuuuuyuipiw9698990rrr0000000099q6936639995585868259640wrrrrrurrrrrrruurrrurrrirrwrrywwrywuwruyrwwwywyrwyrrrywrwwq0070w9wwwrrw6q666q666662555<55633532253666666669966252<<<5252112222222332221>4555799990e0urr0ususiiiiiiiidsipiiiipipsddiipppdiidddkkfklvvvvxvvvvvvvvxvvvvvvvvxvxvvvvvvxxxxvxvvxxvvcxvvvvvlkpaddddadddphphhphddhhhhhhhhhkkkkfphkkkkjkhhhhdhdhhhhhhhhhhhhphphhhhaddhhhdadpdpdddhddaappiipiiippupyiyyypusppsddsdiiiphhppdhhdpdhpkghhkkkhhkhkhkhhhhhhkjkkkkkhkhjhhapahdpdsdidspisdppiippsippklcccccccccccccccccccccvvcccvkddd",
"kkklzzzccxccccczccccvccccvvcvcvcxvvvxvvvvvxvvvvvvvvchpppiddpppiiiyiiiyiuitwuwwyywtwwtuuydiiippppiiididdidsshkkzzkkkllkklkkkllklkkkkkkzxcczzxzzzlkzkzzkkzzzlkkkkhkhaaiyisssdi968411111288111:111121:11111111111236690wwwrwww9wwerwq666963283262,2rrwwwuppdkdkadddssur0rw009000wwwrwywidiyruutuwruwwuwe000eww00wewwwwwiuusiuwwewuiyidpsddspiipiiuiiisppaiippiiiiiiirirwiiiipypdidiiippppddppdppaphddddhfpphphphkhhddpdpdpdiidhdipdhpappappppippahphlcxcccvxxxvvvvvvvvvvvvvcvvckdppdipyuyiididdhdddpiddfdkkkkkkzkkkcvcvvvvvvvvvvvvvvvvvvvvvvvvvvvvvvvvvvvvvvvvvvvvvczkkkkfkkhkhddddphhhhhhphhhjkhhhkhkkkkkhkhkhdapphpaappdddhkhhkhpidiiddiiipsddidipiiuuiiiiiiur0rrrussuuuuydpdu0908900000r0000000997qq96666399999926622288600rrr00yrryrryrirrruuuryrrywyrruwwuwyrwrrwwwwyrqqqrruywrwwwwqww9wwweww9360066606665525<355559926669966962669665962<42562112312222322321<<59999989000uuuuussiissiipiiiispiiuiipiddiyyuiiiiiddddihffxvvvvvvvxvvvvxvxvvvvxvxvvvxxvvxvvvvcvxvvvvxvvvvcvvclkddddppdddhphhphphdhhhhhhkkkkkkkkphkkkkkkhhhhdahdphdhhhhhhahhhhhhhhdhhddhdddapdddddhaapppipiiipipyyiippypiisisddpdpiiphhpphhkhphkhdkhkklkhhhhhhhhhhhafhkkkhjhkkkkkhppphhdddsddddisipiiiiistppfkkaccccccccccccccxccccccccvcdddk",
"hkkkkkccclcccxcxcvvcvcccvvvvvcvvvvvvcvvvcvvccvvvcvvckpphpididsiiityuuiiiiwwuuwwuwytwywiiipppppaddddhpppaphhkkzzkkkklkkkkkzzkzzzlkkkkkklkzzzzzlzkkzkkzzlkzzzkkkhhjddhiiiiyyyw966<2<<<12251111111:21111111>:1<<1<46600wwrtww00eurriq66q656662662>20trrwuiphkhhhddkdsiwwwwy060e0wwwewrtiirriiriiwew00wweww0www00w00ew0wiiysuuwwwwusipipppdyiiiipippaipiaiiyappiyiiiiiuyyipiiiippppisdsiipppadddppppdadddhdhddhhhhhhdhddddpppppppppappphddhhdhppdhdpifzzcvvccccvvvvcvvvvvvvvvvvvlhphdsrrituddddhkkhdpppddhhkkklkzzkkvvvvvvvvvvvvvvvvvvvvvvvvvvvvvvvvvvvvvvvvvvvvvvvvzkzjjhhkdhhhphhhhkkkkhkhhkkkhhhfhhhkhkkkkhhhhpahapddhhdhphkkhhpaiiidihiiiiisdidiiiiiipiptsdiriitpiipiiiyiypiy02222559ur890r098969qq76666669966592666225420rrwuuruuurruuurrrriuuurrrrrrrrrwywwyrwyrwwrwyyyrwwyryywywww7w7wq00q0990q66q96926635354663666767666365528989995882222211<22321<2223212224899959990w0rrruuiipipiiiiiiiiiypiyiyipdpiyypipuiiikddiikdupxvvvvvxxvvvvxvvvvvvvxvvvxxvvxxvvxxvvvvvvxvvvvxvvvlfppppddddapdddahhhhhkhhhhkhhhjkhjhhkjkhkkhhhhhhhhhhhhhhhhhphpdhhhhhhdddapddpadddahdhhddpppipiippiuupyiyyyiiiapppsiiidhdhhhkhkhhdhhhdkkkzzhddhhhhhkhhhhkjhhjkkjkkkhhhhphhhdddpdsdiiippiiyiuiuyiphzcccccvxccccxcccxvvccckkkzzkcc",
"hhkkkkzzklclcccccccvccccvccvcvvcvvvvvvvvvvvvvvvvvvvckkpdiddsiiiiuuuuutuiuuuuuywuwuyywwuippphddddpdddppppdhhkkzzlklklklklkllkkzkzfkkklklkzzzzzkzklzlzzkkzzkzlkkkhhpddiuiiywuw999428242222881112111111111,1>12244656000rwwer0rerrw96536656365672270ruuruiydhhkhdddsiiywwwr0990wwwrurwwuitiirriteer0wwe0www00w9000w0w0wiipiirwwwriiiipiipiipippipiiipisiiiiipiiyiiiiruyupiiiippppditidiiddphpdddadpdddahhahhhhhhhhhhhhhddpdppppaipaphhhahhdphapdhhppppphkkhhkzxccvvvvvvvvvvvvvvchphdduriuidiidkfkhdhhdhhhkkkkkzzzzzccvvvvvvvvvvvvvvvvvvvvvvvvvvvvvvvvvvvvvvvvvvvvvxzjkhkkkkhhkpkhhkhkkjjkkkhhhhhdhhhkhhkjhkkfhhppapppdhadphppkhhpaidiiihisihippipidiippiidpsssurrr0yyiiipppiiipiq99555550r990009999966q63569999969966666556290rwttrururruuuriirruuurrrrrerrrwrwrrrwwrwywryrwwrwrryywywwwywww000007909996q6336633663666353336655366329899299822212221122211<12322212225956590900t00iiipippiiiiiiisppiyiiypppdppiiyyu0iruydiiikhpzvvvxxvvvvxxvvxvvxvvvxvxvvvvvvvvvvvvvxvxvvvvvvvvvvxkphaddpdadhdddhpphkhjkkkhjhkkkkkkphfkkkkjhhhhhhhhhhhphdhpphhphhhhhhhhddddddpddddddfhddapipppiiiiipypuyiiyiiipsspddiiddhhhhhjkhdhahjkkhzzzhhdhhkhkkhhkkkkhkkkkkkhkhkhhphhhddisddddppypiipyiiiiiipdiphjkcccvcvxvczkcczzckkkcckkk",
"hhkkkkjzkkkklczcccccccckcvvvvvcvvvvvvvvvvvvvvvvvvvvvlkppdidippyiituyuyuuutwyuwwuwuwwtytiphphdhhpphadpdpadhkkzkzklklkkllkzzzkzzkkkkkkkkklzzzzzzlkkkzzzkzlklklzkkkkddauuuurrt08905826228<211212<21,,<<11,,11256566690000ew0wrwrruw667367662639933q59qwrussshhkhddidiywwryr9690rewriuuuiiiiuwwurwwrwww00w0ww09900ww0w00uiipiuwrwupsiipiddiyippiippiiiiiiiiisaiiyyyiiiuuyipiipipppppisiiipppdhdadpddhhddhhdhhhhhhhhhhdhhdaaddpddppppfphhhhhpphdphhfppiiwiipyyipfkkcvvvvvvvvvvvvvchpdddituuupypakkkhdhhahkkkhkfklzczzzzcvvvvvvvvvvvvvvvvvvvvvvvvvvvvvvvvvvvvvvvvvvvvvzjkhkkkhdddhhhkhkkkjkkkjhhfhpphhhhhhkjkhhppppppidphpphhhhhhhhpiiiiidihihpsihisdiiiiidiipsssiu00ruyyippppddppyy99958559u090009009666663669900695566866286560wurwrrrrururrrruuuuuurrrwrwrrryyrrrryrrwwrrrrrrwwrwyywwwwwwww00000099q6666666366667966435423562254666989559962211<<12<1122212223321216266955509000ryuipidiiuuruiiipppyiiipipdddpyuyyy0iuuiiipukkdcvvvvvxvvxvvxxvvvvvvvvxvxvxxxvvxxvvxxxvvvxvvvvvvvvxxddddddddddadhhhhhhhkkjkkkhkkkhkhpphhhhjkhhhhhhhhhhhhhhhhddpfhhhhhdddaddddpapdddadddddappipiiiiipyuyyiyiyipppddsdiiidphphhkkkhhphjjkjkzzzkhhhkkhkhkkhkkkhhhjjjhkkhhhhhhhfhsddiddiipiyiiiiuiiiiyuurphkczkkchpppdjzcczzczzzckddu",
"hhkhkkkjkzkkkzkcccccccccvvcccvvcvvvvvvvvvvcvcvvvvvcccckpididiiyuuuuttytyuwtuuutuuuwuwywippppahphppddddddkkjczzzkkllkllllkklzlkzllllkllkklzzzzzklzzzzzzzzkklklklkkdhkppppwwww98065868886612111<112<<<<<<<<1<56569000w0eww0werrrrw6ww769w69999962w26090rissdhhhgdddpywrrrw0600rrrrrruissirurrurrwwrww009w90099900www00uiiiuyrwrypdipipidiiiiiipiiiiiiiyiiiiiiiiyiiiiiwyipppyippiiiritiiddpdddhddpadhhhhhhhkhkkkhhhhadddpdpddddppiahhhhphhhpphhhkhhiitiiiwwwipppfcvvvvvvvvvvcvvckhdsduruuyiiikkkkkkkhpddkkdhkkkzxzzklcvvvvvvvvvvvvvvvvvvvvvvvvvvvvvvvvvvvvvvvvvvvvczkkhhhkhkhkdkhhkhhkhkjkkhkhpppphhhhhkhhhppppppppapphahdhhhkhppiididishiidihiddidiyiiiiiidsidpuuuippiiiiisippiu09959550r090r09009q66666668995655866996225669rurwrwwruurrwrrrrruuurqrrrrrrywwwyrrwwywyrrwrwwwyrrytwwywwyyww09090999996666666343366633525<4332<536685859922<<22<1<8<111<11332333333252655990900r00rsissiiur0ruiippiiiiypppdidpiyyyy0isdapppudkhcvvvvxvxvvxvvvvxvvvxxvvcvcvvxvcvxvvxxvxvvvvvvvvvvvvcdppppahdddphhdhhhhhkhkkkkkhjkkhhppphhhhaaddhdddahhfpdhdhhhhfhhkkahahdddddpddddddddddddppippiippiiyypiyiiiupadddddiidhphhhkkkhhhhhhhhkkzzkhhhkkhjjhhkjhkkkkkkjkkhhhhhhphhddisdiippipiiyiiuiisurrrdkkkjddpiuyyyihzczzzkkdksduur",
"dddddkdkkkkkzzzcccccccccvvvvcvcvvcvcvcvcccvcvcvcccccccjpdidiiyiyuuuutuytuuwuywuiuwywyuuuppaphppppdadpdddkkzkzkkkzzzzllzzzlkzzkzzklllkkklzzzzzzllxzzzzzzzklkllllkkhhhpipuwwtw909586886666212<222<<2<22<<4<1<5666900r0wwww0rwwrrw07wwwqww7eq99q9569995990wiidssddgapywrrww060erwwryrryiitwrrrurwwwrww0000ww9999wwe0t00ysipuurwrusdipiiippyipipiiyiiiiyyiyipppiiyiyiiiyipppyiiiiiiiuuiupddppddpaphpdddadhdhhkhhkhhhddaddpppppaapppphhhphhhkahhdhhhpiiiiiuyuishdppzvvvvvvvvvvcvvvkdddsu0rr0ppdkkkkkhkdddkkkdkfkkzcczkkccvvvvvvvvvvvvvvvvvvvvvvvvvvvvvvvvvvvvvvvvvvxxzjjhkhkhkjkhhkhhhhhkhkhhjkahpaphphhkkhhddhphpphpppppphhdhhhhppppdiiddhiiihiddidiiiipiipidipddiypipiiipiuiiiddiw92559990090009009q66666768596958589006652826rtwwuwwuurrwywrrrrrrrrqrrrwrrrwywywwyrwyrwryrwrrwwwyyrrryywwwww000909999696666435355545554355635<<6665999992,<22111222<<<<,223233232256658990099wwwrriiuui0r0ruiipppiiiipididddiiiyuy0idsddiiykkjcvvvvvvxvvvvvvxvvvvvvxvvcvvxvvvxvcvvvvvvvxvvvvvvvvvvjhdddddahhadhphhhhhhkkkhjkkhkhkhhppppppppppdppppppdddddddhdhhhhfddhhhdhhddapdaddpdappappppiipiipyiiiiiiyipppdddddiiiphpfkkkkkddhhhdkkkkzhhhkjhkhkkhhjkkhkkhkkkkkhhhhhhhhdpsiidiippiiiiiitiriuuurppdppyyywyihjhhdgddddiiiirr0r",
"idkkddkdjkkkkkkkzccccccccccccvcvvvcvvvvcvvcvvvcvvczcckppidippiiyuuityuuuuuuuutuuuuwwwuuuphphphaadddddahhkkjzklzlzkzkkklkzkkzzklkllklklkkkkzzzzzzzzzzzzzzkklkkkkkkdhdiyuiwwut000699999665555486665252222221<25666000r0www0rrwwr006wqwwewq9939r02699952900uuiiiisddyyywyw00000rwwryyyyiisiiittrwrwrwwww0w90009990w0w00wpiyirwrrripiipipppiiipipipyyiiyyiiippiiiyyyiipiiippiiiipiyurtsipddpdaphhhphaddddhdahkjkhhkhdddpppppappdpiphhhppphkfddhhhhppiiiiiiihhhhhppkxvvvvvvvvvvvvvkdpddrrruuddahkkzhhdddkkkkkkkklzzzlakzkxcvvvvvvvvvvvvvvvvvvvvvvvvvvvvvvvvvvvvvvvvxxjzkhhkkhkkkhhhhhhkkhkkkkkjhhhpdphhpfhhhphhhhfhhphhahdhhhhkhhapppdiidhihsdidppsipiipdsddidppddpiyiyipdiddiiiidu015229599500090009q966q9qq9996999998989624260wiuwwyrwwywrwryrwrrrrrrqrwyyrrwyrrrrrywryyy0rrwwwyrytyrrrwwywwq069709999669669366655533336363632533665895882,12222122<1,<<<12222121214556690w0890wwruiiuru00riiippiippiiiiidddddiyuiprssiiipdydddlcxvvvvvvvxvxxvvvxvvvxvxvxvvvxcvxvvxvvvvvvvxvxvvvvvvvzkdhhddhdhdhhfhhhhhkhjjkjfkjkhhpphpddpapiiiiipiiiipiiipdpaphhhhdhhddahddpdddddadppdpppppspiiipiyiyiiiiyiippdddddpidhphkjkjkhddhhhdhhkkzkhhhkkhkhhhhhhhhhkjkkkkhkhhkkhhhsiipdiiiiipyiiiiiirruuurrruuippiiidkhdiuuuuiuiuir0rrr",
"ddddhddkkkkkkjkkzzzcccccvccccvcccvcvcvvvcvcccvcvlzzlckdididipppyyutiuiuuuwtyuuuuiwwyttyypahphpppddddddhhkkkkzzzllkzllkkzlkkllkzzkkklkkklkllzzzzzzzzzzzzzkllklklkhdhdiyiuywyy00w09998666685669686655585522<25666990w0wwwwewweew0976wwwwww9990r926225560090uruiisiiywwryw0069wwurusiiiisssiiirrruweewww99we9w00w0e0te0riiyuurwwyipippipppyiiiiipiiiiyyyiiipppiyyyiyiiiyiipiipiiiiyupispddpdpapphhpdddddhdhhhhkkhhhadddppppppapppphpphhhphhpphdhhdppiiiiiphihiiphhkvvvvvvvvvvvvckiiiirruuuddddakkhpddddkkjkkkkkklzkkafkxvvvvvvvvvvvvvvvvvvvvvvvvvvvvvvvvvvvvvvvvcczlkkkhjkhkhhkjhkhhjhkjkkhkhhphhhphphphhhphhhhhfhhpphpphdhhhkkaippidiishiisddpiiiiiiddddppippphpiuiuiiidddspiiit9<9228595290000009w7666wq9999899998555552<<6wwrurwywywwywryrryrrurr0wwywrrrwwrrrrwrwrrrr0ywrwyrrryrrrrrrrrww0699999966696663666343366666664<<<46369098522,2<2122211,,<<2<232122121<58569999890wyyuuuu0rrruisiipppyiiuiidiidiiiyuidussididdydddcccvvxvvxvvvvvvxvvvvvvxvxvxvvvvxxvvvvvxvvvvvxvvvvvvvczhddadpdhhdhhhhhhhhkhkkkhkkkkkhppphhahpippipiipiiiiiiiiiiaappadddddaddddpdpddddpddppppaipiiiipiiypiiiyiippaddssdiidhhhhkjjzkpdkhhdkkkkzhhhhkhkkkhhkhkhkjkkkkkkhfhhhhhddiiiippppiiiiiipuirrrurrrrwriahdddpiityuuu0uuuuuutrr0r",
"dddkhdkhdkddkhkkkkccccccccvvccccvcvcvccvvcvvvcvccccckkdpidpdiipituuuiiuiutyuutuiitwwyyytppppppppdddapddkkkkkklkzlkkkklkkzzkzzkkklzlkllkkklkzzzzzzzzzzzzzlllllkkkkhhhiyiywwrw00t09995698985698999586958888258996900wrwrwewrw00009w77ww977990ww9282969999590rurr0ryyywrww0069erruyyyyidpirtirrwwwwwwwwwww9www9w00w0r09wiiiusrwrripiiipippiyyippipiyyyyyyyisisiyyyyyiiiiipippiipiuutipppddppdpphpphhdhhhhhhhhhhhhhhaddapapppippaiphphhfhhppppadahhpaiypkhphsihhjkccvvvvvvvvvvvvxfywuu0rtuupkdppffpiypddddkdkkkkzczzkkpkxvvvvvvvvvvvvvvvvvvvvvvvvvvvvvvvvvvvvvvvvcxczjkkkkkjkkkhkkkkhhkkkhhhhhphhhhphhpppphpdhhhhhhfppphphhphhhfappididdhihidiisidipiiiippppypapphpypiiidiiiipypddi00959959>900000r0q66699qw99656685095<5854<9wrwuuwruwwwwrywwwrwrrrwwwrwrrrrywwyrrwrrryrrr0rwwwwrrurwyrrrrr0006999996666662656005<366666343<<4<53460005<<11222122111,,<<<2232223322489669959990wwrruutu0tuuuiiiyyypiiiiisddddduuuia0iiiddiipdccvvxvvvvvvvvvvxvxvvvxxvvvxvvvxxvvvvxvxxvxvvvvxxvvvvvvkfddddhhhhdhhhhhpphhhkhfhhhhkkkkhaphhhpypiipippippipippiiiiipppipppppppddadddddhadpppppppppipiipiiiiyiiyipipddddddiphhhkkkkjkdpjhhdkkkkzkhhkkkhjhkhhkkkhkkkjkkjhppppppapiiipipiiiippiiuutrrrrrrrrwrrdddurrrruwruyyu0uyruur0rr",
"dpddhhhkhhhhhkhkkkxcccczcccvcvcvvvccvvvvvvxvvvvvvcccczapdiidddiduuurusiyuiuuiiturrrwwwtitisdddpadsssddkkzkkzzzzzkzzzzzlkzzlklkzlkzzzzzkkzkzzzzzzzzzzzzxzzklkkkaahhahaiiyw0rw0w9ww0099990999999996666456665669968000000wriyw08800999qw006060r95265696599990uur00rrrwewtw08000wurwuuuiipiiyuyywwwr0wwww0000000090w0w0wsuwssurwwyusiippppiuyyppiyiyusirrruudusuur0ryiiyiiiiiiiiisirtiiihdhdpphhphhhhhdhdhahhdhhfhhhhhhdddpaiipyiiddiphkahdpddddhhhppppppphpfhkkkxvvvvvvvvvvvvvvchiwrsrrrwwppidkfaypipdddkhdkkkkzzzzzffhfzcvccvvvvvvvvvvvvvvvvvvvvvvvvvvvvvvvvvvvvccjkcczjjkzjjjddddkhdkkkdpahddhphhhfkhppppipdhhddhppdddakdkkkdpappddidddiiissuisiiyusdapppiapipkpuuuyiipiiyiiippys9226965569w90qqtw969wtw7qq63566766445624260wurr0wuwwyrwwrrrwwwrrqwrrrrrrrrrrywrywyyrwrwrrwrrqywuuuwuurww00qq7q906668666699997332733663<<6<<676330082222,11811111<::,22222828852<55555699960ww00wttrruiiiiiiiiiipiuuipddiduduyiiiiiiiphaaudcvxcvvvvvvvvvvvcccvvvcvvcvvvvvvvzcvccxlxzkvvvzvvvxvvvvzkhhppfhhhhhphhphhhhkhkkhjkhkkkhphhhdiiypaiipppppipppppppppdhhdaahadddhadpppaddddddidssdiiippipiyyyiiyyyidpdpphpsipdhhfflkkckdhhkhhhkklckhhhkhhkkhkhhhjkkkhkjkjkhhhpppiiiiiaipppiuiitirtrqwrwrrrrrryrryryrwrryuwwuuwrwurtywww",
"dddahhkhhkkhhhhhkklzcczzcccccccvvccccvccvcvvccvvvvvvvzkydiiidiiiuurruiuyuuu0iuwurrr0000wtisdpdppidsdddkdzkzzzzzzzkzzzzzkkzzkzzlkzzzzzzzzkzzzzzzzzzzxzzzzllkkkkkkhddhapiprtrewtwwyw00r0000900999666665568998999900e0rrwru0r00989099900q00000q02262222569990tut00twwwwwrw0669wwurwutuupiiiyyywrwwywwewe00000ww009w000wsurusuywruuupiipdppyyyiiipypsuur0russsusuuuuyiiiiiiiiititiiriisssddppppdhhapdhdhhhddhhhhhkhhdaddpdpaiidisiiiphhajkhhhhhkkkhdppppphhpkzzclcvvvvvvvvvvvvvvcptyriuippyppppkhpyyipddddkdkkkzzkzzzkkkkkzzccvvvvvvvvvvvvvvvvvvvvvvvvcvvvvvvvvvvccczzjzjzkkkkkkdkhhkddddkdpipadhhdhpphppppiiphhdsshppdakddadkkiyapadiipipiiisurtiiuyuidppiiyypypdiywusppyiiypyippui2236975529096676qq9wqq07<39999969982862<59w00wwyrwrrwwwyqwwrrerrqwwerrrurrrryrwywrwryrwywqwrwrrrurrrurww9907099766666666869766367346733432<3666798811,<2121211111,,22<<28221255545556699990000wt0uyruuiiiiiiiiipdiippddpdiiuyiuiiiipppppihkvcklcxlcvvvvvvvvvvvvvvvvvvvvcccccvccckkkfzcxkpfkkllcckhhhphhhphphhhhhdhhhhkhhkkjkkjkhhfhfkhhhpppiiiipppppppaphhhhkhhhhhhddaddddppdaddsdsdiddidiiiipiiippiiyipiiddphppiipphhkklkklkhhhfhkhklklkhhkjhkhhhhhhhhhkkhjkkhkhhphfhaipiiippipiistiturrerrrrrrrrrrrrrrwrryrrruurruriwrwwyww",
"ddddhhkhkhhhhhkhkkzzccxzzzcczzxzcccccvccxxvxvxxxvvvvvzappiipdpiiir00uuuuuy00rwwyre000099wuiippiisiiiddhhkkzzzzzzzlzkzzzlklzlzzzzzzzzzzzzzzzxzzzzzzzzzzzzkkkkkkkkhdhhdiidrrswrtrrwwww0rw090999966999989999666690w00r0r0ww0tww090999w0000000wr9525295859099rurr0reww0wwrw08800rwrwuuuiipiiyrwrwwwwwww00000000we090600wuuwrsurrrrrupiipppiiyyiiyyiytuurruussiuuuuttyiiiiiiitiirtitriiiddddppphphhphhdhdhdddhhhhhhhhpadpdpppiihihiiippdhhhhhhhkhkkkhddppdhhhzcccxvvvvvvvvvvvvvvvkiur0rrrpiyhahhkhiipidddkkkdkkjkzlzzzzkzkfkkxvvvvvvvvvvvvvvvvvvvvvvvccccvvvvvvvvvccczzzzkkkjkkkkkddddhpakhkppppdhdddppppdpippppppiidppdddkdddddiiippiiiiiiuiirrr0rr0ruisppppyiiipddi9widpiipipiypiq01233632529q06962769q9766&27670969866666<90rw0ruuwrwwwwwy0rwwrrwrwwwrrriryrwywwrrryrrwyryrrwruruurrruywww0q900096666666866666767q433334<52223337w85212,211181111111122,2281222255286666980090e00w0y0riiippiiiiiipdididdisdiiuyyyuaipppaiyipkkhhhkfkkcvvvxvcvcvvvvcvvcczkkkkcccczckfkhkkkppppkhkhkhhpphphhphhhphhhdhhhhjhkhhkhkkjkphfahkhhphppppppppdppdddhfhhhkhhhhhdhddddpppddddsddidddddpiiiiippippiyiiddpdkppfpiiphkkkcckkkhhhhhhhhkcczhhkjkkkhhhhkhkhkkkkkkhhppppappiiiiippppiiiiuurwrrrrrrrrrrrryrryyrrrryywruuruwrrywwyw",
"hhdkhhkjjkhhhhhkkkkzcczzzzzzlklxccccccczzvvxxvxzcccczzkdiiydppiid09uuiuuuuy0ywwu00990099wyiyyiiisdiiipkkkkkkkkzzkzzlzzlkkkkkzzzzxzxzxzzzzzxzcxzxzzzzzzzzkkkkkkkkhhhhaiiarrsrrurrwwwwrr00990900009000009099699900000r0r0wt0rw0000009w0000wwrw6225588259990rtrr000eww0wtw0000eruuruuuipipiuruuyywwww000000we0ww000906esuwuuruwwrwwypyiiiiiiiippiiiuuuurrusstrruurrwyiiriiiiitiiiiitispdddspppkphfhhhdahdhahhhhhhhhpdpddppipihidiiiipppdhhhhkhhkhhdddppphhhlccvvvvvvvvvvvvvvvvvhiyw0rrrpiyakhhkppppdddddhjdkkkkzkzkzzzzzkkdvvvvvvvvvvvvvvvvvvvvvvvvvvcccvvvvvvvvcccccczcklkjkkkkjddddphphhpyppahahhhhphhdadippiywuspddkdddihdpiipppdiiidiuitrrrrrr00uuiiiiyippipddi00riiyiiipyipr62,1363<<25wq97972323657q7-59739969662266460rwruuuyrywyrwwtwrwqq0wwwrrrrrrrrrrryrrrwrwrrrwrqrrurrrryruyyw9709700966q69669669qq69q7334335<22233697w2211<2211111111111,2222882228955599669990000000turrripiipipppippdsdddsdddypyyy0ipappppayyphhhaakklcvvvvvvvcvcvccjzzjkkhhdhkzjkkkkklkapaihfpppppphphhphphhhdhfhkhhhhfhkhakkkhkkkhhpppppppahffhhadaahdhahdhhdhhhhddhddddddppppdadpdddddisppiippipiiyyiiyiysdphfpppiiiphkkllkcckhhhhhhkklcckhdhkhdhhkkhhhhhjhhjkkkhhppppapiiiyiiiiiuiiiiurwrrwrrrrrrryrrrrrwrwrryyurrwuruwiwyywy",
"khjkkkkkkkkhkhkkkkkxzlkffzkkzzlkzzzzcccczccczzzzckkzkzczpiypdpiuu09uyyyy0u00ywwy09990000wuiippdpidiiddkkkkkkkkklkzlzkzzkkkkkzzzzzccccccxcccccccczzzxzzzzlkkkkhfkhhhkhdphtusrrirrutwtytuww0wwwrrw000000r000wwwyrwrerrutwwrr0tt000wqw000000rr065<2822125980rrr000r0ww0ewrw0000ruuruuuuipppuuuwurwuw0000000w0wwwe009990iuwwrrrrwwwwiiiiiiippppipiiyuururrrssrwwrwwryyritiirriiriiituuisdppppfphphphdhhdhadhkhhhhhhhaddaaiiyiidididdaaphajkkkhhhhhhhdsdsddjkvvcvxvxvvvvvvvvvvvvvjiwiiuiupiyaadddayppsdddkkkjkkzkzkzlzzzxzlkkzxvvvvvvvvvvvvvvvvvvvvvvccccvvvvvcvvvvcccvcccckckkkkhhhahhphphhhddpppddhpaadhdhhpppiywyiddhdhdpdhppiaipadidddiiirrr0rruiuuuiiiiiiiiiidiir000uiiyiiuiiq1::1332,<<5993366262<257qw<60659066662666556690tu0wrrywwywwr0rwqqwwrwwrrryrrrwrrwrwrwywwwywwrryyrrryyrrw99w7qq9666966966999q7wq66363534<45633699332<<<12228111:1182<12228221828552699969090000000rtr0iiiiippiippidpppsdddddiiuiiydapiipppyiipaphhhvvvvvvvvccccvcczkkkkkppppkkzzzkzlccclzpppppppdhkhhhhhphphhhhhhhhhhhkhkkkhkkkkjkkppppppiippaahfahhhhhhhhhhhhhhhhhdadddddappppdddddsdpdddddipipiiiiiyiyiyyidddddpppiipkkkccklclhhhhhhkklcxkhdhkhdhkhkhkhhkkkkhkkkhdapphppiiiiiipiiriuiiurrwwwqwrywrryrryrrrwyryrryrwuriwrwyywwy",
"hkkkkkkkjkkhhkkcfkkkzkkhkfkkzkkkkkkzcvccxczzkzzzckkkkcccdiyiidiir050yyyy0r00yw0wrr00w000wuipipppdsdddkkzfkkfkkkzklkkkzkzkllzlzzzcccccczzccccccvczzzzzzzzlllkhkhhhhhhkashuusuusrruwtwuwwtrtwrw000www00r000yryutrwrrwrwrtwrrw0000uwwtw0990wrr062<<121259550rtr0r0000w0wwww000wewuwuuuiippputurwuuuewww0000w0eww0009659uuwwuryuwwwwyyiiiiipppipiipyuurtrrrusw00w00wwwiritwirititiirwuiddkpkhppfphhpdhhdddhhhhhhhhhhppppiaiidipipiddppphhkkkkhhkkfhhddddddkkvvvcvvvvvvvvvvvvvvvckiiispiiiyiadpppipaaissddkkkkkkkkzzlzzzzzzkkzxvvvvvvvvvvvvvvvvvvvvvvvccccvvcvccvvvccvcxcczlckkkhkhdppphfkhpkaddpppdhppphdddddhppywypddhahahphpipaippdiidddidrruuuuuiuuuiiiiiidiiiippuq99wiuyyiuii9==*,2221223631132275226979<6699006696656662246wit0rywwrwww0000wrurwwrrrrrrrryyrwrwywwwwywwwwqrrrwwrrrrwwww7qq776676q6696999qqwq763665334<36666993,1<<122111,,,1111222<121281,,228999999900w000090w0ytuiiiisippipipiiddssddddiudpydppyiippippddadhavvvvvvvvvccczvczkkkkkhfkphkccccxkkccvczzhkppppphhhhhhhphhhhhkkjhhkkkkhkjjkkkkjjfipppiyapiiiapdaaaddhaphhhhhhfhhhddaddddddpapdadddsdsisisdiiipipipyypiiiiidisapkppiihkkkccckkkhhhhhhfhkcczhdhkkhkhhhkhkhhkjkkjkkhdappppiiiiiiiiiiruuuurrrrrwrrrwyyrrrrryrwrryrrrrruwuwwiwtwwyw",
"hkkkjkkkzzkkjjzckkkkkkkkzkzzzzzkfzkzvvvcczzkkkkzkkzzcccvkiyiipiu000riiyyuu00uw0wrrtrwwqr0tidppppddkkkkkkzzkkfzzllkklklkzzzlkkzzkccccccczcccvcvcczzzzzzzzklklkkkhhddhkhddursrruww000000www0w00000w0000tw0yy0000wy00000twtt0000000wtww00000rr0524<222299929rur00r00000ewwr0000eruwuuyyipppuuuuurwwwww0w000w0wwre090959urwruuuuywwyyyyiiiippiiiiiyyuy0uurritr00www0uwiiwwwirirrriirwyipdhppppppppfhhdhhhhddhhhfhhdppapapiippihididippphhhjhhhhdhhhhdddddkkcvcvvvvvvvvvvvvvvvvcchpiiipiipiypaiiyppapusddjkkkhkkklkzzzzkzzkzlzxvvvvvvvvvvvvvvvvvvvvvvccczcccvcccvvvvcccvccczkkkkhddhhhphpphhkhhdpdadapppdhpadpdhiyyypddapppddhppiiiapddiddiipu00ur0rsituiiiyidiidiiddsr00wuuwyuuut2===,212222363<,2223225667q62<600099966266585260rrrwyrwwryw0070wwrqwwrwrrrrrwwwwrwwwwwwywywrqrrrrrrryyw7w7wqw06699w6996699qqqqqqq63734563346963683<12<1211<81:,,818222<<12<2<,,<5896995600000e0000w0tiuuiisipdiiddiiisddisdiiiupp0dapaidddidddiddhhcvxvvvvvvvccvvzzjkkkkhkkpkhzcccxckkcvvcvvclzkfpaphhdhhahhhhhhkkkkkkkjkjkkkkkkkkkaipiiiypiiiiiipipppppappppdhaddaddpdadddppppdddddddddddisiiiipiiipiyppiyiiidhpddppihfklkclcclhhkhhhkkkkckkdkkkkhhhhhhhhhkhkkkkhpdpppppaiiiiiipiiituyrrrrrqwryrrrurrrrrrrrwrrrrrrururwiwyiwwyw",
"khdkkhhjcjkkkkjczlkkkkcckzzklkkzkfkzcvvvczkkfkzkccccccvvzpuippyu0uuuddpuuiuuur0yrrtrwruuuidjjkhddkdkkzkkzzkkzzzxlxkkkkzzzkkzzklkzcccccclccvcvvvczzzzxzzzkkkklkkkkhhkfdiyursrry99w000000000000000wy000w0000009000we0w0wruwr0ru000wwww0900www054<<11,1285280ir0r0000000wrr00ewwruuuuuiipppywuuuwww0wwwwe00wwwww0000060isuiusiywwwyyyiiiiiipiiiiiyuuw0utrrsir900wrrwwwirtwwriirigirttidddpipppppphhaddhdhhhhkhhkhhppaiippppiihpdiiiipphhhhhhdddppppidsspdkkccxvvvvvvvvvvvvvvckkhiyiipppapiaiiyyyiiydddddkddkkkkzzzkxzkkkkzzlzvvvvvvvvvvvvvvvvvvvvvvvcccccvvccccvvccvvvvxcclkkhhdpphhpphpphpdddhdddhhahhhhdhidpi7wypapiipppahpippiiasiiddpiiuu0uu00iirruiiiiiiiiiiidsuw0wwryuywy0:$%=12,112,232,,12:><56667ww2>200699965228>52<<80r0rrywwwywrrqwqw97wrrrrrrrywywwwwwwyywwwywqwrrrrrruryww79wwq667qww666979qw7969w763652366636973222,1<<212<,11:::111112:,188::,259598095590w000r09000iiiuiispiiiiiidiidddddhddiypy7ppppahhdiididphhhkklvvvvvvvvvvcvchhkhhhhkhphzxcczvfhzvvcvcvvvvczlpppaphphhhhhhkhkkkjjkkkkkkjkkjkkpapappppppiipiipiiippppaiiiipppppddpdddaapppddapddisdidipipipipiiiyiyiiuiiiippddpiapkkklcccckhhhkhhfkkzljddhddddhhddhdhhkhhkhhhippappppapiiipiiiiiurrrwrrrwrrrrrrryrryrrrrrryrruwuwuwiytwywww",
"khhhkkkzcckkklccckjhkccccvcvcvvckfzxccccvcczzkzvvvvvvcvczkudusur0uipdpppppippipiiiiuuipippkzkkckzjkjkkzzkkkklzzkccczzzlzzzzzzzkzzzzzlcccccccvvcccczzxzzxkkkkkkkkhhjdsyryrrwwrrr009990wew000000rr00900000wwwywywyrrrruurrut0000990000000090tr9>>2,,28225580t000099900wwww00000wwwtwuiippyewruuuwwwwwwww000wws0r0w999wutiusturutr0rusiidpiipyipyyuuurruypiu00990trrwrruuwwwriwiiiiityippppdpaphdhdhpphdhhhkhhhhhhdppiiiappppppiiutapdhkhakhpphapphhaphhpkzcczcvvvvvvvvvvvvvkjzkpwwirypppppewwipiiipiipphkfhjkkkccckkkkzzzkkxvvvvvxvvvvvvvvvvvvvvvvvccccccccccccvcvcccvvcckkkkhahpahhphddhdpphhkhhhhhdhkhhppuuw657diypppphpppiiiiddiiisdiiiir0r0uruypiiypiiuyiiipipstr00ww0tqwt8==%,,112211662,**=,<250022w9<<26969950688<,14245wwwwywwrwww07qq0qqwqwwwryrywrrqwwwwwwwwwwwy9wyurryyrwq900q006660q0696769q7wqwqqq79666666667666322228111111111,1111121,22212<<489645966999990009000wyyiiiiiiyiuipipiiihihssshpipiridyhpdduduppadhhkhhkkkccvvvvvvvvvckkkhfkkkaddkhhhhckkdkxvcvcvcvcvvkhhdphhhhhkhhkhkkkkkcklkjkkkjkkkddpppiiiiipiipipiipippipipiiyppipyiipypipippppppsddsddddiipiipiiiuusuruuuyppddpaddppklczlczkxkhkhhhjjkcckhdhdadddpphpahhhkhkkhhdppppddipiiitiuuriirirrw7yywyrrryrwwwuuwuwrruryrruuruuuurwwyww",
"khpkhaklccckkccckkjdkcvvccvcvvcvzkzcvvcvvccczkzccvccccccckddru009uipppipiippipyyusiiiipiyihzkzczkkzzkzzkkzzzxzxzzzlzzzzzzclzzzzkzzxzzcccccccccvccczzzzzzhkklllkkkkkduryyuuwwwrw99990wwwewww00e000000w00rwwwwwwwwrruuuuuri00000009000099900ww91>12,,21<5920rr00099999wwww009000wwrwtiippreerurwww0w0we000000u0w80w9wrisiuuiuuusy0rusiiipipiiiipyyuurryuiitw000wrurrrriywwtrwuriiiytupdppppdphpphhpphpddhhkhhhhhhdappiiaappdppsssupphfhhakhdphhpphpppphphccczccvvvvvvvvvvvvkzzjhrrpyriiyrruwupdppippaphhhfihkhkcckzklzzzzkkccvvcccvvvvvvvvvvvvvvvcccccccvccccvvccccccvvcckkkkkkahhphpahhhdhhphhhkkkhdhhkhpiuwq959ipupppahpiiiiiisdidddiddiururruriiyiiiiyiiiyyypppsit00w0009e02,1111222111622::::1:<<6712q9<260w669506268<25259wuwwwrywwwwwwww0wwwwwwwwrwrr0rrwwwwwwwqwwqw9wwrrrrrwwww0w0w07600w06999997wq7qq7999836336396666552<<11111111111111211,:,,,,1<426856996966999000000w00yyiyyiiiiiipppphiihdhhdpiihdiihphupppdpdppdhjhhhhkkzzccvvvvvvczkkfkkkkhkkkkhhhpkkkjhkkccvvvvvvvcckhhpahhhhhkkkhdkhkklkkkkkkkkhhiiiiiiiippippipiipipiipiiippppppppippppipiiippiiidsdiiidddipdiddsuuuutuuiyippdddddhddcczcckcckfkhhhhjkkckhahddaddhppddhhkhkkkkhdpiipppiiiiiryrrutiirrrwwwwwwyrrrrywywruwywywrrrruwrurrrrwwwww",
"kgphdkkkcckkkcclkkkkkccxvcvvvccczkzcvvvcvcvczkzcvccccccccjii00005yipippiiipiipiiuiiiipuywypkpakdjkkczkkkzzzzzzzxzkzzzzkzzzzczzzzzzzzxzcccccccvcczzzzzzzzkhkkkzklklkpyyyisiyw9www00wwrurrtwww000w000w0rrrwywwywywrruuurrw0009000t999999990900052:<,:,<>2529000099999900w0eweewewwuwyiiipywwerrww0ew0w0009000t0080wwwrssiuuusssur9ruuuupppiiiiiyuuurrrwuypw0900wrrtewiurwwewirwuiiuuiiddddhphphpdhhpdhdhhhhhhhhhdpapiyappppppiiisuypphhhhaddphdphdphphppakczzcvvvvvvvvvvvvvhzzhhsuppsspyywiripdpdhppppphppddhkkzzklclkzzkfkzccccckccccxvvvvcvvvcvcvccccccccvcvcvczcccvcvcckkkkkkakhhhhhhhhfhhhhkkjkhhhhkhppyur926riiddphhiiiipdididddsddiiuuu00uuuyyiyyppyiiypuiidisiw09900091$$==,12221:,2211::::122591198,,16q66620659886559wrrwwrwyyyywwq7qw9w9w7wyrwwyqrrqwewwrqww9w9ww0wryryww99w00007079qw076699qq7wwqqq79896669666666553,<,1111111,11111811,,,,:,,2654858559699999909900wwwywiyiiiiipippppppppsdhiiduuidiidpdippipuhhdhhkkhhhjkjkhkzvvvvcczkkkzkzkhkkkkhhhhdkhdpphkcccvvvvvvckkhdhhhkkhkhhkkhkkkckljkkkhkhpiiiiiiiiippiipipiipipiipddppappdapppapdppppipiapididiiiiiipiiiiisuuusuuuyiippdhdddddkkcccclcckhkhhhhklkkhhhdhhddahppdddhhkhjkkpadidippiuirrrrrrrtitryrwwwyywyrrrwrwrrrurwrrryrrywuryrywrwywww",
"hdpddapkzcckcvckczddklvccvcvcvvvzzzzvvvcvvcczzzzcczcccccjdr000905ypiippiiiippyiiuuidiyy00wpdppapdjhkkjkhfkkklzzzzzzzzzzzczczlzkzzzzzzccccccvcccvxzxzzzzzkllzzzklkkkpiusassitwww90werrrruwwe0rewrwwrw0000wwywrwrwwrrrruww0090900099899990099095<>:::,<<<2<8990999999900w0wwwwwrrrwruiiiiywwrrrrwe00000090800ww000w0ersiurruruuyw7wuuuyiiiuiuiiiuustrwyuiy00690000qwwwuwwewrrwuiiiwtsddipdahdddaahapdphddhdhhhppphaiaaiapppppiuuutiiphhdphdahhhhadpphppppakzkzxvvxvvvvvvvvvkkjppuipppsuyrriidddphkhappppppjhhjkzkzcckkkzkkkkccckkkkcccvvvvcvvvvvcvccckcccccccvcczzcvccvvcczzkzkkhahhhhhhkhkhhhjkjkkhhhkhhhpuww9360diidphduiiiiididddidiidii0yyu0uuyiypyiyiyiyyyiipisst09600091=:23=111::::31:::::1225662199::;<969620686526850rrwrrryrwrwwrwww0w9wwwwwywrwrrrrrrwwrwwqw9w9ywwryy799w9wwq99600q00669999qwqw7qq9999966666666655222<<1111111,8112111,,1,11<2558255995609989099000wwwe0wyyyyuiiiipsipiiiihdsiihuwridddpppuuupuhhhahhhkkkhhhkhkjkjzzzvvzkkzzlkkjkkkkkhhdkdpiphkhhkkzzlkjhhhhhhhhhdkhkjkkkkklcklkkjkjkhppipipppppiiipipiiiipiipidaaapaahappapaddaaddaaapiddiddiiiiyiiiiidutuuiiuyyyiddkddkhdhkcccckkckfkkhkjkklzhhhdhddphpphddhahfkjkfpisdidpiiitirrrriiuuuurywwwwwrrrrrrywyruywrywrrrrruwrrruwrwuuwy",
"dppdhkhkkcckvvcczzjkzvvccvcvcvvczkzcvccvcccvzzzcvczkccczdr9900005yipiiidpippiipiipdiipyywuddppdpkkddhhhjhhhhkklkzzzzccccccccczzzzzzzzcccccccccvcxzzzlklklklkzlkkhkkaapdhsssurww9990w0w0wwew00wrrwwtw0000wwywrrrruuuurwwu0000000099590000w0q06225:=:<2225<5590999999590000000e0www0yyiiiwuwwwwww0000w000000wwr090w0ersstrwruyuuw60rtuuiyuuusuuuturtrrwruu996990ww779ewrrreiiwuiiywiidppppdkpppapphdsdddhhshhdppddaiaiipppdppruuiiuipddpaphhahhpdhhpahpypakkxcvvvvvvvvvvvvvkkhiprrrssurywripphahhkhpppppppzhphhkzzclkkkkzkkzczkkkkkcccvvvvvvvvvvvccccccccccvvvccccccccvccczkkkkhhafkkhhkhhhhhkkkjkkkhhhhhhyw9q6226iriddipwiiipddiiddppdiiiur0rrryuiyiipyiipyiyiypptssiw00q60w3::33==,::==:82==>,2<222562<29::*<9668,5586555480rrwrrwyyrrwywww00w9wwwwywwwyrrwrrqwwwqw9wwqwwwwywyw9qqww999660000660777w7wwwqqq9999966667666555522<2111111111111221,122222599955566998990008990000r0wwryryuiuiipiiipipippppyhpuidhhipipuupppjhadhhkhhkhkkhhkphhhfzcvlzkzkzzkkkkkkhjkkhhppkhpippffkfpddphphhhkdkhkhkhjkkkczzkkkkjkkkpppppppipipiiipipiipipipiaappapaaadddaaddappppddpddddddidpdididiidittsuuiyyppdhkdddddhkcccczzczpkkhjjkccchhhhhadppppddaddhhhfkhppppiddiiiritrruuuruuurrwywyywwrrrrywrruwurwrrrrrrrrrrrrrryywyw",
"iiphkkfhkccccvvkzzkjzvvvvccvvvcczkkcccccccvvvzzzcckzccczsr99u0099yippdispaapddppiipiiipy0uddidddjddkhjkklklkkklzczzzccccccccxzzzzzzxxcccccccvcvczzzzklkkllzzzkkkhkjasapssssirww699000000wrrwew0000wwwwrwywywwrywutuuuuuuutt0ru0099900rrwrtuw95561,,<<29065500099999967990000w0ww00yyyyi0we00w0099999009900wwr900wwrtisuuyuywrrw99wuuuuuruusuurrwrrrrruuu9990q0wqq7wwirirwrriiiiitisppppipppppppppppippsddhddppdiiiiipppapppyuuuusispppphphddahhaphhpayyiihzcvvvvvvvvvvvxvkkpuiisiirwwwywipapdhkkhaapppppjpihjkzxlkkkkkkkfkkkkkkkkcvvvvvvcvvvvvvvccccccczccccvcccccccvccclzkkkffhhhhhhhhhpdhhkkhhkhhkkhhhy9696666yrusiiiryiiippidppipiuiiuurur0yyyyyyiiyiiiiyiiipsisiu00q00q6;*=======&==31,::<2<222692>11::;:61<2=4846554860rwrwwrrrwrwyrwwww0wwwwwwywwywrrrrrqww99w9wwwwywww779ww9w996769000606qqqq7w7qwq77666366666663252222221111111111112211112125955855569699899900900rrr00wwwrrwuuuiiippspiippppiidiidkhdruupiphdhjhhhhhhkjhkhhkkkpppphkcvxzkkkklkckkkhhhhkkhphhhpphhhhpppdhddhhdahkhkjjkkkhhkklkkkjkkkkhpipiiipiipiippipipiipipipiappppppdppppadpdppppadpsdsisididipssdddsuuututiyyippddjjkkkdklccckkczakhkkhkkkkhhhhkhdpapdpdpdahhhhhhpidiidsdiirrrrrrrrrrrurrrwrwrryrwyrrryuuurryrryryrryrryrrrwywww",
"iiikhkkkkccccvcczkkkzcvccvvcvccczkkcvcvvccvvzzkkczzzcvkksr09r0r900ypppiddddaddddiiiiiipi0wppypdikhkkkkkkllkkkzkzczccccvvcccczzzzzzzzcccccccvvccczzzzzkhlklzzlklkkkayispuuusutrw99w099900wwwwwwre0wwwtrrtwrwyrruwuuuuuuuut0000r000090rrrrwrur0525221>12909580r0y099990000ewww0wwr000wyiurw00600976999969906w0r699w0wwuiuruuywwww00wrrurr0rruutrrw0ewrrrrr96670ww9qwweirriwiiryiiyuuiipdppappppiippiipdpsdsddpipiiaiiiippppppyuisuuusppiphphhppdhphphapyyiiazcvvvvvvvvvvvxckzhipuruuw0wwrwippdhkckhpdppphpjppkkkkzlkkkkffkhhkhhkjhkccvcvvvvvvvvvccccccccckcccvvccccccccccclczkhhhhhhhhhhhkhhhkkkkhhkhhhhhhi0689669rrisriiyuyuiiiipdiiiiyuyr0yrrywyyyiiiyyyyipiiiiiissiu09999q9:=,2==*%%&==,,:,<2<5162606,,:::=:2:,4:152885890rrrrwwwyywwwwqwwwwwqw7wyywwwwwrwrqwqw9ww9wqwqwwrw07ww9990999997766790qwwwwwwqqwq96999669666655225<2<<111111111111111122<><559668268968998999890rrre0rwwrwryyryuippppiiipippiiiiuihdiyuudidkddhhdhhkhkkkhhhhhkkhpdkkckzzkklkzkkkkjhhhhjkkhpkppfhhhhhppdhhhhhhhkkhhkjkjhhkkkklkkjkkkjhpipiisiiiiipipipiiiiiipipiipppiiappppppppddddddaddddipdspiiiiiiiisiuiuuusiiyppkkkjjddhkcclclzckkkhkkkkkklhhhhhhhpdhpdppdpdphpdhppipidipiirrrrurrwrrrrrrrwrrwwwywrrryrrrurrrwrrryrwrryrrwywwwww",
"iyiphfkzkccccvvczzkzzvvvcvcvvcvczkkcvvvvvvvvzkhkczzzcczki0r9r900977ppiddkkdkadpaidppdddpwukkiyiipdjkkkkklklkkkzzzxcccccvvvcvzzkzzzzzcccccccccccvzzzzklkjlkzzlkkkkpi7yssussuutsr990965660wwe00rwwtwwwwtrwyrwyrwruwwwwwwrri0099000000yrtrw0wwt05<<1<1222559580u000w0w0e0000www000e000yyiiuw00000096559699596w0w6969960ruuwuuwwwww70rrrwrrwwrtirwwe00w0rrr056666797w9wwrrrrwwuyuiyyuuuuphapppppppiiipiiiipidsiippiiiiipipppphppusiuiuuuiiihphhpphhpppdhaippypcvvvvvvvvvvvczcjchiir0rr067wrripppkccfhhdphhppkppkczkzkkkkkkhpdhkhhkhjkcvvvvvvcccvcccvckccvcccccccvcvcvcccvvvccckkfhffhdhhkkkkhhhhkkkkhhkhhhhki0366356000i00yyyyuyiiiidiiiyyyyur0ru0wyyyyiippiyiyipiiisiisu099r099*#%===*%%%&&=:,1212<<<<592,:1:,*:2<<1:85554550rwerrwywwwwwwwwwww0qrwywwwwywwrqrqwwwww99ww9wwywww997w999990w0qq000006wwwrw7qqwq796339666766355522<<,,:1::1111211,<11111<><995595559968998980000rrt0r0rwuw0y0ryyyiiiipdpdppppihpuuihpiiidsidrihhdhhhkhhhhhddddckhhkkkhzzkzlckkjdkjhhkkphhhhpkphhphhhkhppahhhhhkhhkkhkkjkkkllkkkkkkkkhyiiipippdppipipipiipipipippyippipippiippipppddaddddddsdiddddddddssiiuutusyyppppdkdkcdpkcccckzckakjjjkkkclkhhjkhhdpppaddppppppppppiiipdiiiiiiiirrrrrryrrryywryrrwrrrwruuurwryyrrrrwwrwrywwwwyww",
"iiipkkkkkllccxlkkkcczccccvvcvcvcckcccvvvccvckzkkccvzkzky00tw0090090wphkhfhhhhhppiuiipapaiiitrissfkzzzzccccczkzzkkkkkzzzzzxvzczzzxzcccccccccccccczzzzzzzkxzzzzkzzkpuipsuwususuuuuq6666260w776qwwwywwiwwrwwyruururyuuuyrrww79wwerr0t000t00t0u00811111282695<60u0009w000w06e0690000rrrwuiur0009666858555859990r00999900uu0uuwwwwww7qwwyyyq00rtuy00000099r0088959500000rrrrr0tiruwiuuusisdddspiiidddpiipiipppipppspirypppuppisrsrrisipiipphiidihhphphpppdpiiuikvvcvvvvvvvvvczvvie756q9w90w00iddsddddihpipdkhhkkkzzkjhkkjddhkhhhhhczzvvvvvcvvccvvvcclzzzczzzzvccvvccccccccvcckjjkhhhhdhkjkkkhfhappppphssiitirq7q966699ww0uuw0wuurypipuruwurwuuy00uuu0uuruiyiiiiiiiipisyiiyw999w9,*==*%*%#%%%==&&===38=21888=2=,1$=811:-128;>9wurrwurrrwywwwrreww00we0wwwwwwwwrrwee0w0erwwwrywrw09990000we0www600069euww7wrrq9q9699996669683343<3<<<<<,,,1111,11,111311111331111,26q96992699900qrrtrrr0truryyyyyippppihpipdsuikhyiipdytrdrphwhhhhhhkhahhkkpppdhphkkdhkcfkcckhkhhhhhkhhhhkkkkfhdhdhhhhhhdhhhhkhhhkjkkkkkkkkzkzzzkkkkkhhidiipidiiipiiispippipspiiipipiiipppiapipipppadddaapppppppppdpsppiipiiiyistuppdhkkjkahjkzzzjkkkhjkkjkkkzzjhhdhhdpdddhddspiisiididpdiddppituuuryrywyrruyrrwwwyyrrrryuuuuuyryrrrruryryrrywrwww9w",
"iiidkkkkczzccclklkkkzzcccccvcvvccccccvvlvcvcckkkzkcczlayr000w098090wpdhdaaaddpppiiiiipppiitr0iidkkzxzzcclczzzzkzkkklzvzzzzzzzzzzzxcccccxcccccczzzzkzzzkklllzklzzkpiupsuwuiiruiru9656659qreqwwewwwtyyiwwu7wwrrrwurrurrrwwrwerwrrr0r00r0tu0r0u092111<2<,495<50u00y00000w0660600000rrrruiut9966565655595999290000999900uuuiuuwyuw07wwwyyyw0wruuuw0000090rr055599900000rrrrtrrrrwyrrruudpippddidiiidipiiipiipiippiypypipippprissrrripiipiiiidihiapphppippppdtuikvvvvvvvvvvvccvkiq623www9000quuuyspydpppsphhhhhhkkkzjdjkddkkdjhkkkccvvvcccccccvvvvccczzzczzkzcccvccvcccccvvcckkkkhhdpphhhhhkkkapappaagdsiiitiww0q966559650u09uuytypiyrrwrwyuw00uru00u0uruiyiiiiiiiiipiiipiy099991:%&:=*%%=*==*&&=8==111=18==,128&=8,1:11:<<wtwurwttwrrwwwywywww0000w0ww0ewerwwrwwwwwww0wwwwrrw000999000wwwwww766600wwwqwwrrw9w9699996969966333332,<<,:,,,111111111111111111131112296659996690000rter0rrurruyyyyiiippipiiadi00ssyuppdyirdidhukhhhfhhhhhhhhpphhkhphddhkvkhfkzlkkkhkkjhahhhhhhkhhhhhhhkhhhhhjkhhkkkjkkjkkklkzkkzkkkkkjhdidipdiiididipipipiipiiippiipippipiipiipiiiipipiiaiiipiipipiippipiuyyyiiysityidhhhjjkhkkcjzkkkkhkkkkkzzzkhhdhhhhddgdhdppipipisidpuuppppiuuuuurrrrwwruuuwwryrurruyrrrrrrrrrrryyrrryrrrrwwrwww0w",
"piiphjkczzzzcckkcclkjzcvcccvvcccccccvvvvvvccccckzkcczzkyww0rtw06990yippiiaiappppiiuiipppuuuruidkkkcvcccczkkkklkllkkzzvzzzzzzzzzzzzccccczcczzczzzzzzkzzzkkkkklkkkkdiyriryuurrirry0626669ww999wwwwwwwwwwwwwwwwwywwryrrrrwrwrwwewww0rr00000t00u002,11<1<<80558000000000000666600096wyywrury9998669659955955990000995990uuuiuwyuuyq7qwwyyywqrriyyw000w000rr955989900900wrrre0rr00wu0wuudppypdiiiiipippisipiipiypiiyiyipipuypisssirrriiiippiiihihhpppppiiiidiu00icvvvvvvvvvvvvciyww66999wwwwqsuuudiyhpppppdhhhkjkkkkkkkjdpjkdjjhkkccvcvvcvvcvccvvvczzzzzczzczccccvccccccccvcckjkhkhhdphhhkhkjkhppppppsstuuiuurwwww76<292>6q96rruuyiyuurwwwwwy0u0uuu00ru0uyiiiyyiiiiipsiippu000990,##=2=#%=&%=**===2=21111811=281%=2=:+21<:2900w00rw0rywywwwwyw0090wewwwwwwwwwwwwwwweww0wwyryrwe0099000wrwwwww666600wwqwwtww999666999686997633222<,<,,::,,1111111111311,1,1111113236992969999000rrr0rerr0ryuuuyiiippippipddu00ddyuppdytwhdihihphhhhhddphhhphhkjaphhhkkckhhfcckjkkkkhhddhhhhhhhhhhdhhhkhhhhkkhhhhhhhkkhkkkkkzzzhkhkkhdpiidiiiipipiiipiiiipiippiipipipipipipipipiiiiipiiiiiiyiyiiiiisispuyyriiiyuiiyddhkhkkkhkzkzkjkkhhkkkkkkkkkhdddhhhppddddsdipiidpdppipippiuruuurrrwryrrurruwrrrrrrrrrrrrrrwrrrrrrrrrrrrrryrwwwwww",
"ppiphjkcczzkcckkccccccvccvccccccccccvvcxcccccckkczkkkcxatr00uw06990ypppiyyaippppiiuuiiipiuiiiikzkzcxvccckkkkkkzczkzzccxzzzzzcvcczzcccczzczxxcxxzzzzzzxkkkllkkklzkaiuupyrrrrrruurr0960900979qwwwqw77www7w7wwwuwuwwwrrrrrrrrwwwwww0t0000000000098,,1,229008980000000090w065860009600w0rrr00999996958559585590000999990iiuiwuwuuuw0wqwyiutwwtuiyyr000090r0958595990000w0r0riuu00rurruiiypipiddppiipiipppiiipyiiirypiipiuyppruirrrrudipddihdsihippppppiiiidiuwyuidcvvvvvvvvvckywiw9w999w0wttsuusdpykiiiipahkkhkhhhhkkkdddkkhhhhkkcvvvccvcvvczcvcclkkzzzccccccccvvccvccvccccckkhkhhkhhhhhhkhkhhappppaisuuuuuuwwewrr76292122220wtuuwuurryrytwru0uu0uuu00ruuiiiiiiiiipiiypppu0099ee6&O#q1*#%%%======88=881182,1===%&8:1+121>5669w00rw00yrwwywyww00000wwww0ewrrwewwwwwww0wwwwwrrww099000ewwww00960690wwwwwwww9w996666966999966662222<<<,:,,111111111111111,,1111318236669599999000r0rrrrrruryuuupippiipipiiiiuyrsdriiii0iehhidddhhhhhhhdhhhfpphkjkhkkkkhkckkkclkkkkkkjhdpppddhhhkkhhhhhkhhhhhkkhhhkhhhhjlkklzkkkhhhhhhpipiipidpipiidpipppiippiippipipipipipipipiipipiiiiiyiiiyiyuuiuuiuiuruiuuiisiupdhhjhkkkkjzkjkkhkhhhdddkjjhhpppdpapppddsdpidpididipppiippipuuuruyrrrrrrrurwywywyrrrryryrrrrrryryrryryrrrrwyrwwwww",
"ppiphhkczzkkkkkkccvvvvvcccvvvvccvcccvvvvccccccckcczzkccft00tii05690uppiiayaippppsuiuuipyiiiuiihkhkkccccckkkkzlcczzkzzzzzzzzzcxcczzzzczzzzxzzzzzzxzzzxzzkzzzzzzzzckdpdppurrwrrrrrrw0wwwwwrwwwrrwrwwwwwww7wwwwwrwywwyrrrrrrurrrrrrrr000r0r0000r08,1,,2800098900000009000085866000000wwyry960868666959959959900r099800riirrywwwuuy0wqwyyutwwrtyuww00w090r09855899999000wwwwiuurrruuuiyippppdidiiiidiiipiiypiyiiiuyyiipyyiyprrsuirsrpidddiddsdihipphdppppiiyutrw0yyklvcvvvvcppyyiw7w79wwwwrusuuiduydiiippdhkjhhhkhjkkkfppkkphjhhkccxcccvccvczccczkaklzzzccccvcvvvccccccccccckkkhhhkhhhkhhhkhhhpppippiurruuurr00qrrq9600882229qiiw0wiytwywyuw0uy00uruuryruiiyyiiiipiiiispitr089006:#.88=%&===&&%%*111811121=1,:,&:918111689rt0rewtrrtwwrywyww0w900ewwe0wwwrwrww0wwweww0wwwryr0w0000000w0w009906700wwwwww999wwq6669936q793633732<2,,,,,,11111211,,,,,,111,111122<4606396999990000rrrr0rr0yuuiipiiiiipiiiiiiyrudpyidiiwstdduiddhhfkhkahhhhhhhhkkhhhhkhhhlxkfllkkkkkjkddhpppphhhkhhhhhhhkhhhhjkkkhkkkkkzkkkkckkkhhhhhdpipiiiippiiiiisppiispiipippipiiipiiipipiipppppppipiiiiiiyiuuuuuuuurrrruuiuuiiidhhkhjkkhjkkhkhhkhphdhkdhjkdppppphppppppdiiiiippppppiiipppiituuurryrwrrrrrwwrrywwrwywywrrrryrurrrryrrrywryywww0qq",
"hiippphkkkdkkkkhcvvvvvvccvccvccvvvvvvvvvcvvvvvvccxcckzkpi00uiu0960rsippiiiyiiaiiiiuuiiiidsiisskzhfkkccccclcczccczzzzzzkzzzzzzzzzzzzzxzzzzzzzzzzxzzzzczzzzzzkzzzzlfppddppurywrrrwrwwwrrrrrerrrrtruwuryurrwwyyiyywwrwwryuruyrurrrurtrrr0r0tu0r0r811,<18092000000y0009600955660900wwyryrry00000066699979599590rrw08800tsirryw0wwwuwqwyyiiuq0rruurww0w000r0999559999000wqrqwuuu0rrruiypiiippdpiiiidiiipiiipypyipiiiiyipiyyiuwrrtruuspiiiididhidpphppishddiuytw0uywyyyippkhhpiiyiiqww99qq0wtiuiwidiydpiipapphddhhkkkzkkkpppkphjkhhzcccccvvcvczckckkhhkzzvcccccccvccvcccxcczcckkhhhhhkhfkkkhhhpppippyiiturrruwrw0wrwq950q098299wuu090iyuuyywwuu00uu0r0r00ruyiypiyiiyiiuiipiit0890699:+=21=====&%##*==1131111=11,2*,918::1199r0errwtrwtrrrwrrwww0000wwwwwwwwrwwwwewwwwwwwerwwwr00000000w000099669900wwewww9999w9q996696q79336663332<,::,113111111,1,,,,111111812<<<363459999700000rr0r00uuuuuiipyipipippyppiyr0ipyidipiditiiupdppppppppkhhkkhhjhhpypdhhhkkhipahjkhhhhdppppppphhhhhkhhhkkhkhkhhhhkkhkkkkckklkkfkhhhhkhppiidipiipiddipiippiippiiiipipppippiiiiiipiiiiiipiyiyiyyiyuuutuuuryyrwrrrruutyidhhkkkhkkkjkkkkkhphhddkkkkdhhdpphapspsspddiipiippipiiippppuiituurrryryrururwwwywwwwwwwrrrywrrrrrrrrrwrywwwwww0ww",
"piipppphkdhddkkkccvvvvvcvcvvvvcvvvvvvvvxvvvvvvvvcccczczir00rut0969wsppipiiaipipiuutuiippdddsidkzckkccccccccccccccxzzzzzzzzzzzzzzlzzzzzzzzzzzzzccxzzzcczzzzzllzzlkfadddpuirwrryrywrrrwrrswwwertrturiuuiuuwuwrwwywwwyrruurrrrwrrrr0er00r0r0ut0u001,1<<25520000r00009696995580000e0yrrryur908000e00009595909900rw00000eistrww0ruuuwwwwyiiur0riyuww0ww00wt0599990000000rrrwwwrur0ruruuiiiiipiiiiippppipipyiiiiiipyyiiiiiuypprruiuussiiiiidipiihspphhdddpiiiytr0wuy000wuttuitiiiyuww7909900uiuiiydppppsipppphddfhkzzzkhhiippkhkfhhkkkkccvcccckkkkkppkzzzccvcczccccccccccczzlkkjkhhhhhhhhjkhpaaiiiiyyuiurrwuwurww0www77000099009wt059ywwywwwwy0uu0r0rurr0ruiiuiypypyyiiipiisur9097001#===%====&%#&*==1881121=21,1==8=1+;1-080>0w00ww0wwyywrww0000wwww0wwwwwwwwwwwwwwwwwwwrwyww000000e0000999696000w000qw99w99966969699966366363323<<,,,11111211111,,,,1111131122<<4666599099000w0w00rrrryuuiipippipippiyppiryrdiyipipidsuipipdpppppppphhhhkhkhhhpipdhkfkkkdpphkhhhhhdpppppdhhhhhhkkkhkkhhkkkkhhhdhhhhkkkkkffhfhhhkfhpyiddiippiiipiipiiippipisppiipippiiipipiiiiiiiiiipyiiyiyyytrrrruurwwwwwrr0ryuuidpphkhhhhkkkjjkjhdhhaphdhddadpaadpppipiiiipiiiipiiaiiidppiituuuuryrrrrrwurrywrwwywwwyryrrrrryyrryrryryrwywwww009",
"piiiiipdkhdddhkjvvvcvccvccccccccvvvvvvvvvvvvvvvcccczzvvftrr0t09890ypppipaiiiiaipuuuuiippdssiddkccckccxccvcvcccccvczzzzzzvcvcczzzlkzzzzlzkkzzzxcczzzxcczzklkzkkzkkkhhkhddsrrwryrrrrrw0wwrwwwwrrwwwwwuwwwwwwuwiwwwywrrryuiiuururuurrrrterr0ut00t81:22<<58900r0ruu09096700755000ew0yrrruuw96990000e009999990r0rrttr0urriiuiw0wuuiuwwtwtiiuqrtuiyrrrtrw0rtr8090000000000rwww0uur0urutuyiiiiiyiyyyiiiiiiyiiipppippiisyiiyyuupriiirruuiiiiiddpididddhpdsppiiiiiurww0wtwuuuwtiuisiwww76999966wursiyppipdpsppippdhkkkkjkhhfiiikkjhhhhhfhdjkkkkkhjhhhhphdkzzvcccczzcczckkkcvclkkkkhhddhphpphkhhapiaiiiiyyutrrururwqqwqw0900000990099q9259ywwwwwwwuu0u0uuur00uuiiuipypyiiyuppiissu989676:+1=%%=&==%##%=&*==8111=111:1&,8=,==1O66s50rwwrw0rrrrrrwww099www09wwwewwwewwwwwwwwrrwwrww00009000ww009699060000000q999ww96666969qq76776634<2<<2<2211331,1311111,1,111131112223660659999090000wrrerr0uiiiiiiiiiiiyiappyiyisddyipippidwuhppdahhhhhhhphhhhkkkpkahhkkjzzxccahkhkhkkhhdppaphhhhdhhkjhkhkkhhhkhhhhhhhhhjkkkfkhhhhhhkhapppiiipiipdiippiippiipiipiiipipiipiiiiiiiiiiiiiippiiiiiiiyrrrrtrutrwqrwrwrrrruiipphhhppphkhkhhaayppppppddddppppppppppipippiiipiipidipppiiiiuuurrryrywrywrurrrywywywrrruyrrrrrrrryrrwwwrwwyww9w0",
"piiiipipppdhhhhhzccccccvcczzzzzkcccvvvvlvvvvvvxxccxzkczz0t0u0r000wusppipiiiiiiuiiiiiiippdhkkdkzzlkclcccvvvvcvvvvvcvcccclccclxcxxkkzzczkkkkzzcccxzzzzzzzzzzzkzkkkhhhhhhhdpppupaadpsrwyuurururuurriuuiwywwyyuyyyywrrwrruururrrrurwwwrrrrrrrtu00r0>,,,1<258900rut0009090rr555e00ruuussuuur0ewww000009098099r00ruwww0uuriiiiuuuuuuwuywyuitwwwwwiir00wywwui0009990009q000w000000wwrruiuuuiituuuuuuiyiiiyiiiiiiiipsuuurttruuurrruiuuiiriiridppigdiddhpdhppdiirtrqt070iwtwttwuuuyiwwywwu00090r0wrussduudiaaiudhdddddhdjkkhiipahhhhhhhdhdddkdddpddddhdkkkzczcccccckkhkzcckcccckckkfhahpppipdhdiipsitiuurew9werrww626wwwrrr0uw50re0tt2199wwtwwrwr0r0r0t000rr0riiuiiiiyiypiypippiy7760092<88q1&$$&&####***11281118121::,221,=;500669999rrw0wrre00099wwwww0wwewwwwwwwwwwwrewrrwww00009900000e0069000www00999999ww999669qq65667663563<2635<<3111,,<,21,,,1,,1=11133==<22366399999900r00r0ruuuruiuiuyiiyipyiiyipiiiiiiiuiiiuppidiudihdhjkkjkhphhhdhkjjkhkkzccvvvvvvvvzhhhkhhhfhhhkkhphjkkhkhkhhkhhhhhjhhhkkkczzkzkzzklhpkfdipiipipiiiiiipipipiipiipipiiiiiiiiiiiiiiiiiiiiipiiyiyiyiyiurruruuurryryrwwrwwuusdphhhdpfhhhhhkhdpdppdddsddppppppppspppppphyiapiiiiiiiiidiiyuwywwwwrrrurrwwwwqrwwwwywwrwrrruwyurrrrrwuwuwywwq99w",
"pipiippphphhhhhkcccccccccczczzzkkccvvvvvxxxvxvxzxxzkzckhr00tr00800rippiiiiiiiuuuuiiyyippiddkkkzzccccxcvcccvvccvccvvvvcccccccccczzlzzzzzkzzzzccccccccczxzzzzzzllkhppdhhhkpppppdhdhhpiyupuuuuutissuiiuiruuuiiuytuwwrwrrrururrruurwrrrrrrtitiu0uu0211<<<2555000tu00w000err559000ruururuusyww0www00w09r99000rq0wrwqw0uu0iiui0y00wrrwuutuuuuuuuiisutuwy00uy0999699999wqww009000000000iuuuuitwtyuuuipipiiiiiiiyiiiuutrrrwwuiurwruurrrrwurwriiiissdddpppdhpiiiwitww0560wwwwwryuquuwwww0099090ttuuuusdiuayyiiphphddahkhkdhhdippakhkhhhdpdpdddkhpddsjkdddkkkkkzccjkddhhkkkckkkkckkhhahhhppiiddsiiiuuruuuyewwwrrrw02>500990000050rw9ww9299wqwwwerw000rru0rt00rrutipyiipyiyyiipipii006000628qw6<**=&###%=**::11111112<:;:<2=::>9r06w00990wwwrwrww00900w00wwwwwwwwrwwwewwwwwrrwwe00000000ew09w0000wwwwe00009909w99966669q7966766323333663<4413212,223111111,1111131122368q0695990970000000rurruuiyiiuyiyyiiyippiiipidyyyiiuippdpididdkkkkkhhhhhhhhkkkkhhjkjjkzcvvvvckkkkjhhhhhhhhhhhhhkhhhhhhkhhhhhhhhjkkkkckzlklkzzlhhkhdippiipippiiipiiipiisippipiipipippiiiiiiiiiiiiiiiiiiiiyiyiyrrrrutuurwrwwuwurwwuidsihhhdhphhhhhfhpppidsdddsdppippppppiippppsiiiiippipppipiiiuuuwryrwrryrrrwwwqrwwrywwwywrrrrwuwurrurwuwwwwwww99qq",
"iiiiipddkhhhhkhkkccckcccczzckczkkcvvvvvvvvvvxvczcczzczhytuuty09660wuppiiiiiiiiuiuuuuipdpiakkkzzzcvccvvvvvvvvvvvvcvcvvcccccccccczcccccczzkzzxccczcccccczxzzzzklkhhhdpsppdspddddhhhhhspupdtrirrrtsiiuiiiuuriiiiiiwrrrruitruuiitiuuuuiyrrtuwrrrur022212225590r0t0r0e0000r05500e0ruuruuusuw00wwe00ew00r99r00r0wrrq000u00uiyy000uuuuuywwuuuuuwuisuuuuwt00tw079999999890q0000099090966uutuuuwwwttyuiidiiiiipiiyyiisurwrrrwruurrruurrrrwrrwtiuiiiippdapisdiiyuwtwww067q0000wwuu0wtwwtw7000099r0uuuuddpuhryuihdpdpsphjjhpdhhphpphhkhhhappdpppdddsddhdppkdakkhjjdddddadhkkkkkkkkkkhhhdpppyiiiiuiyuurrrrwwwww9wew09243wq009r000909q90w0900wwwtwrrw0reru00t000rtuiuypyyiiypyiyippiiy06660999062::,<%#%#*1===::11,1111,:*:,1-=:80r09rw0960wrrrwrwww00000wew0w0w0wewwwwwwwwwwrrww0009009000009ww0ewwww00999009097999666669q666666333437734<<32211212231,1131=1111311,23360076999990900000r0r0rrtuiiyiypiypyiyiipiiiiiiiyipipppudppdiihhkkhhhhhhkhkkkkkhhhkkkkfkklcvvvjjcckdpkfhhhhdhkhhkhhhhhhhhkhhkkkhkkjklkzzzzzzzkkhhfhpipipiiipippipipiipippipipiippipipiaiiiiiaiiiiiiyiiyiiyyiyirrruruuurrrwuwuwrryuiiiphhhhphhphhhhpapppipssdddpipiippppipsspsiiyiippipiippiiyyuurruyruwyrrrywwrrrrwwwwrrrrrwyyuwwuyrrryryrywwyww997",
"iaiipppdhhhhdhkkkjkkkhkkjjgkkkkhdkcczkcvvxxccclkzzkkkkpr00u0r00989wtuipiiiyiuuiuuuiyyiiidkzzzzlkcccccccvcvcvcvcccccvvccczzzzzzzzckzzkkkkkzzzccczccczxczzcxzzllkhhhdprruprrruupphppdiyyuuwwww9wwtewrruweeewwewqwwrwwerrrrrriturupuur00r0u000rrr021211259890r0rr00090000r5556700r0rruwurw600000000990000990rwtuw950u0uuuyy09900u007wwyuuw00wwtrrrruw09w06665222662799900qw99000069wtuuuuutuiuuiiyyiiiiipiiiiipuurrwrrrruuruiirurrrwurwiiiitssiidppidhiywwy0000q0qt9766qwyy0uuyuiw7r0008900trrridpuhyyiaphppddddpphphkkkhpppidddapppyyiipppsuipdppdiddipddipppippppkkkkkkkjhhhpppsuuuuuurrurrrrrruwwww9ww996<:466999r09990263900900wwwwrwew000r0t00t0r0riuuiyiiyyiyiiypiipiuw666000903,**,<&#&%*1==:1181111:::=*:,:,@-<0rr0r00669wwwwewrrw00w0w00w00w0wwrwrww0ewwwwreew090999900000900wwwrw0009999990w99969966q7q76666354366775<53411112,1211,,,1,,2111111,386qq066989909900e0r0rr0rruuuiiyiyiiyiiiiipiippidisdpppppuppddiidhhkhkhkfkkkhjhkkkhhhkdkkkkpzcvvccvczkhhkkkkhhfkhkhhhhhkhkhjkkkhjhkkkkklzkkzkzzzkkhhkhpipipppipiiiipippipipiipippiipipiiiiaiiiiiiyiiiaiiiiyiiyiyyrruruutrrrrwywrrwruuidphhkfppfphhhppippsiddpdsdipipiiipspppppiiyyiiipiiyuiippiiyrrrwrwryruryywwewwerryrywywyyrwwwuwrryrwrwuwrwwwwqww",
"yiuiiiiipppippphiiipiiipiiuiiiiiypddpphfhhddddpppphdddiy9990000999000yiuuuuuuyyurirriiuiddkkkkkkzzzczzcccczzlkclcczczzkzkkkkkklkhhhhhhhdfkkzzzzzzzzzkzzzklllkkhauppiyrrsw06700ririsr0066963223367679997777776975636336669wrrwwrruu000000r0rrrr9511<<22559000r0000000600511590e07rrwwwrw06086656688990u960rwwwq059000yuuu7090y0r090wrrr0950wrrr00uq66qq66655222626996690099009999wwwuuuuiuuuuiyyiiiyipipipipyiurrqrrrwuuruiyrrrwrrirwupiiridippppidduq00qw099996966669qw07wyuuiuw000059uirw0ridsuiyisipdapjjdasajphhhddpppiiipippuurtuuiiuyuiippdipppipiiiiiiiiyudhhkjhhddpipuur70rrrw90rywqqwwwww7ww9w9962<<56006r00660569999880twwwrwwwr00err0r00rruuitypiypypyyiyyipiiuw766999699663:$=%===2==,1818,,::==&*::=:@@:6w090w06690wrwwwrreww000000wewewwrrww00wwwwwwe0000900000wwwwe000wwwe099909970w096699666qqq66666322367732<63412111222131111131111=211666q000699990909eerrr0rr0uuuiuyiyiiypipiuiaiipppdppdpiidpupppdspdhhhhhhhhkkjkkkhkkhkjkkhkkkkkkzczzjcczkjkccckkhkkkkkhkkhhkhkhjkjjjkjkkklklzkkxzzzkkhhhiipipipipiiipipipiippipiiiippipipppiiiiiiiiiiiiiiiiiyyiyiyrruuruuirrrrryywrruuuiippkkhhppphhhhpiipidddsdiddiiiipiissppisiuiyiiiiiyyiipddiiurrrryyrwryyrrwrrwwwrrwyrwwywwryuwuuurururrwwrwuww7qw",
"y7wwwwwwuwwwwwriwruuiuuyywyywuyy0ruyyyiiiiiuuuuuyiiiry002246896869869wryruwywwrwr0rr0uuuuidipakzkkkjkkkkkkkjkjkkzckzkkkhfhhkhhhhhhddddpddkkkzzklzzzzlklkllkkkkdpspsrwwrir056666629006666622,<<,2<355555233552322222222213338699900099000trtitr088111255<90000090w000055115700wr0wwwwwrw0000096692,820d090098690w80990uuuyy0yyyu00tw00qw060rrwwrrw956ww6766566656796<2399599952<5wuuuuuuituwuiiipiiuuiuuuiiyrrrwrq0rq0rrrruurqwwwruwwuiyiriidipapissu000w9655566609990006460wwuuw000059riruuusspuiruirrisissiuruiipppiippppiiiiiitwwwrtuuwwwuiiipyiipiiiyrrrruuuuuuphddiriyuuuw0900rr099wqq77qqw79qwqw09906556www6y00w0w69qwq0980wwwwrwwwe0re0r0tr0r0uiuiyyyiyiiiiyypiipdit0996669969w02==&=====1111111=:==**:::=1+;:8002rrw96900wwewrew0000000w0wwwwwrrrww0wwrrwwww099900009e00000000w000990w096099995996q6766666664339q932<<33<222122221131111311111112q690000789999090r0r0rrrrrruuuuiyyiyiyiyiiiiiiippdppdpiuipipupdupddhkhhhkkahhkhhkkkjhkkhhkhkkkhdddddkcczzcccvlkkhhjhhhhhkhhhhkhkkhkhkklkkkkklzzzzzkfhhhpiipipipiipiipipippiipdidiiiiiiiipiiaiyaiiyyiyiiiiyiyiyiyirrrruruuyyrrrruwrwtuuiispfkhpphpjkhfppppdpsddddpididiiiispppppppiiyiiiiiiiipiiiyrrrr0r0wwrrwwrwwwwwrywrrryrrrrrwwuwuwuwuyryrywuwwewww",
"66675363ww997wwrwruuuwuuwywuiwuwyruyyyuyuuyyrrrriiiyy092<<<<<222255260ryyy0w00wwr0000uu0uudiidkkhjkkjkkhhkjhhjhkkkkdhkhhkhhhhhhhhhhhdddddkklzzzkkkkkklkkkkkklfhdpgpsrrrrs0609622<222599682<,<22<<<<232222532222<222<221122222335858555550900rr0911,<252<50090090w00055557600wrrrwwwwww95580008092=,,0u0559556wwq800590u00070iiiu0w060wr0wtuw00rr0656752696656666662>>1525222<><<ywywryuiqwuyuiiyyyrrruuupiyyrrw00rrqrruurrww77wwwuw7uiuuriiiiippiiiu000065<<26970090qq0760wwwuuwr0i088rrruuuyiyuuwriw0rrrrwwrryyiiiuuiiiiipiiyyyrwwwwrtr000yuuypyiiyyiiytrrrrrrtwruuuurerq0rw096q0rq936w79679799699ww900665269065wqw00ww6w99r09rurrrww00rr00tr00t00tuuuiyiyyyyyipuyyuidiuuw9699699639ww98=8=81=11181111=1==*=,=&:=-=16520wr09990ewwrww0w0990000wwwwwwwewew0wwrwrww799000000500000w00eww009990009099799q7q97q76356335367q63<2223322221222:1:11311113112366600q70699990909000rrrrr00uuiuuupiiipypiiiiiupppsspppuupuuppspipddhkjhhjhhhhkkjjkhkhhkkhhkkzkkhdppddjzzccccvxclhhhkhhhkhhhhhhhkhjkkkjkkkkkklkzzzzkkhhhpiiiippiipiipiiiipipiiiipiiiiiiypyiiiiiyiiiiyayiiyyiyyiyiyrrruuuiuuuurryrrrruuuiidphkhppdhkkfffiipdsdsdsdspsdiiiiisippppipiyyyiiiyiiiiipiiuuryrrrrwwwwwryr0rrrwrywwwywyrrrwwwruruwrrrrwuwuie7qq",
"9qq679899q9wwwwewwrurywwywrwwiuuyw0yyyyuryu0r0rryywyuu0252<<<442158<60uyww000ww0000ru0uyuiididkdkkkhkhhkhhkhhkhhhhkkkhhhdhhhhhhhddsdssdsaaklxzlkkzkkkklklkkllkhhspsspisppw7wr962<22<2222q2<<2222,,<23<2<<333232<22211<<,<<123222<<<<<<<<<2800r00:=::<1<>500900900660090560550000wrrtw05>156696652:*:2r5525597twq909280055557wuur59069006uut099wt09662<<66652522255<;;<6299995256tyuwqwwuuyutuuuuyyyyrrrriiiyuuw7qruruuuurrrrww7wruwwuiuuwttiiippiitq00w0062269q9990quww7yiiwuitw00tr99riruiuuyu0u0wrw0r0rw0wrrrywiiyyuyyuiiiiiiywwwwwww0000wuwyiyyiyiiiyiurrwqrrwwwwwwrw700ww066q0q0666qq7q7qq9967w90w0w9969www9<00w6566<2<20w0rwrrwreww00rr0r0r0r00uuiiyyiyipyiyyyuiiipiuw9669939wwwww9e=2==8=31111811=8=**===%+==@=182500069900wrww00w90999wwww0wwwewww0wewwrwww999000000000wwww000wrww9999w09w9666q66q7qq66366635667y65<232282212,2,21:,1883:1131223q6667w07699999090000r0rrrtruutuuuypypiiiiyiiyiispiipdpiippudpupupdhzzzkkkjhahjkkkjhhkhkjhkkhkjkkkkhdkhhjzvvvxvllfhkhhkhhhhhhkhkhhjhkkkkkklkkczzzczzzhhhpipipipippiipipipiisipipipiiiiiiiiiiiiiiyyiyiiiiiiiiiiyiyyrrrurrtuuuurrrrrrruuiuidphjhhpdhkhkkfiiiiddddpdipddipiiiusppppppiyyyipiiiyyyiiiiyrrrryrryyrrrryyrrrrrwrrwywrwrrruwuuwurrrrruuwuwrwwwq",
"9999399600000wwurryuuiruurruruurutruuyuuyuuurr0rwyiiiw6628822222222500u0rrr0000w000ru0u0iippppdiapppiaapaaadhhkhhhhkhkkjhdaddhhhddapppppdhkkkllklxllklkkkkkkkflkddpppppiy24qr6<<221223366522356521113932323222<12111121112128=8811111,11,1888899==**:**:559599999959599022290000ttrww05::12568888===8q311:1269:=6t0565299::30wuwqwwq09w69qiw699wr5629::>1,,,,11:2<:>::,18292592qrwqww00qrrwrrrruwwewwwrrsurwww09w0wrrrtwrr00wrrwrwwrrrrrriitippiu06<88q922669900666wq536qwtqqtt90909980iu0uris0ir0rtturusiyiiiiysuuuuwwwtuuyyiiitr0ryuw0990wtwuyiiyiiiiyitwiut0wwwwwwqw009qw99697qq66676qq667www7qq00qq0652670wq00wuqqwq550uurrutewwer0er00wwwt000u0ussutruuuuuutyytwiippiy769966900000ww63,*1,:8,,<88<:1:;;:**&=&*%==8e099000000wrww00w9099990w0w000000000wwwwwe099900099990000weww0www0669ww996699996937q96662332369981323222,11122212;,3322<,11332666666900098000000000r0rrrurruuuturuiyiiiyyiiaiiuiappiippspiipppypahkkkkzkckkhjzzjhkhkhkhkhkhjzjkhkhhhhkkhkcccvvvvckkkhhhhhkhhhhhhkhhkkjjkkkkkjkkhhhhhkhdpiyiupiiipippsippppiiiaiiiiiyiiiiiyiiyyiiiiiyiiiyiuuruuuurrrwrruuuiryrrrrrrrwsiuipphkhhphhkhhhpyyppaapdpppppiiiiiipppppdidrryiiiiyyyiyiiiiiuuywwwwrwwwrwrryrrwyrrwwuwywywuwutywiwuyryrryrrreeww",
"39696998699970qwwyuuuurrriuuurruruu0ruiiuuiiiriruwtwtq9622222212228800uyrre0w0w00r0r0tttuiiiipidppipiiipadhhkkhkhhkhjhkhhaddddadddddappppjkkkkklkkkkklklkkkkkkkfddppppaiir06>222211222236555555512<233323322332<211122112111188111=11==1=1,,<122=:=;:::<55569995859555898225999500ww0951,11155111=8=1q821=,236,=506266281::260tq9699666567q52999w662911:,===,=::1<>:=:,:112112<0ww000000qq000wqwwq7qqerrurrrrww9q0wrrrtrw099wwrww00wrewwrruuipiir99,3<6626999900q56qw65769wqww098900990u00090i0i000ruuuiiuyuiiiyiuuuutrtwuutiiiiuuw0wyyu99qwwwriyiiiiiiiiiwiutwwwwqw0w00999973636q6636q643677q997qq9797665566966660w6697580rt00rwrww0rrr00wwww0r00t00uuuuruuuuuttiyiiyipipy96969690000wwq992:,:,81112852<:&*::=&1*=*==9t000ur0wwwwrrw0ww9000900w0000000000w0wwww0099900099090000w00w0wwww66990966669999999q66972353677632123232288212121,23322<,323336666690000999000000r00e0rr0rruuiiiruuuuuiiyyiiiiiippdppdsasyypsppiphhkkkjkkkkkkzzjkhkkhhkkhhkjkjkkhhahhhkhhkkkcvcvxhhhhhhhhhhhkhkhhjkhhhkkkdkkkkkkkddppdiiiuiiiuppuspppppisiiaiiiiiiyiyiiiiiiiiayyiiiiiyiiyttuuuuurrrrruururrrrryrurrrriuiphhhhddhhhahhdyypypphpppppiipiiiiupppsddiuuuiiipiiiyiyyyiyuyywwwrrwywqrwwywrwrwywywwwwwuyywywwiwwrrrrrrrrrrrww",
"36669999909090wwwrruuurrrrrrrrrrur0uuuiisisiirutiityww9682222212<2890r00r0r0w0wrr0er0uutuiipdidipipipippdhhhhjkhkhkhkkkhhhdddddddhdppppdpkklkllkkklkkkkkkklkkffkddpdpppissi6:>66212222<2625556522222333212222221,1,1,11111181111111=1,,81,1,,<,<,,;*:::225669099955885851212668269999651:::,::::==81,822,:,<26::>1,:22,=:=:269qq525625625262<966q665911:====::::21:>::::=,2,11,00990099779q9909q76799wwrrwwwwww9769000w00699www906609999wwriuiiyw99:,,22256666666357656q29999wq78900090rr0990u0s9900utisiiiiiaiyittytwwr0utyryiyiu0000wu999qwwwuiiyiiiiiiiuiurwqww7q00qwq96666356736666634qqwq76qqq9796522569009960q66965000rr00rwr0rrr00rw00w0w0000riiuruuuuuutiwwtuiiiipiw9966999960qw9qw8,,>,<1222228<;**::=*=%&%:@10490w0980wewrew000000099000000000000www00995700999990000w000eww0009699w76666999997q7699325539q73<232323,2122212<2<383121,2233666q7679w0099099000000r00r0rrrruiiurtuuuuiiiiipiiisssssspassyiaaapppdhjkjjkhkjkkckjkjkhkkhhkhkkjhkhjhhhhhhhhhhfkzxxxkhhhkhkhkhhhhkhkhkkhhkkhkjkkkhjkfhhpdsiiiiiiypippppiisippiiiiiiiiiiiiaiiiyiyiiiyiiyyiyyiuiuuuitrrrwurururrrrryrurrriiuipphkkppdhhkhhdiiaapppppiiippiiiiippppdidipiuiiiipuiiuiyiiuuyrwwwwwrrwqyrrrrrrwyrwwyywuwuwtytywriwyrrrrryrrwwrw",
"6996699960w0wqqqwrruyrrwrrrrurru0uuuuuiitiiiiuutiiiiuq9782222222,28900y0rr0rwr0r0r0rtu0uiiipdpsdppapapppdhhhhhhkhhhkhhhkkhddhdddppddahdaphklkkkkklkkklklkkkkkkkkhaddaapiirsi9699322221223552334<2112122<112122<,=,,=,,,,=21=,111821881111811<1<,81:&::1225699999599595551<<<5662969661:::::=:::===11=2=2,;<<22=:::=:12,=&#*,169652552255256<<62302629><:==*=:::>221::=::::1,222e09909999q77q7qw0wew9qwwwwrwwwww99666669609909939355669699wtruuyy00q,,,2<2666222>52252<25699979wq890r090rr000ru0s9990wuiuiiuiiiiiitywrwt00riiuiiyuuy060wu990rutwwwyyyyiyurywtuw0wwwwwwwwuw9666656q66443634636qq9657779w06>><2699699qq969980r00ru0rww0w0r0r000t0w00t00riuruuuuuuurwtyiuyiiipiw96699906690w9qi92<;,122<,2258,;:::===&=&:%2t60wrr0w0wrwwe0ww900009999900009900www0959990079990000w0000wwwe000069096666699999q76339625377773<31333121212221<23632122,2232366899700q09990990000r0er0uururtituurruyuyiipiiiiisisasasssayppaaipphhkkkkkkkkkkkkkkhkkhhkjhkhkhkhhhhhhhkkjkhdhkkcxchkkhhhhhhhkhhhhhkhkjhkhkkkjkkkkhzkkkhdiyiiiipupuisppppppipaiiiyiiiyyiiiiiiiiyiyiaiiiiiiyuuuuuurrrwyruuuryrurrrrrsrrriiuppfhhhphhhhkhhpiapphppppipiiipiiiuuspddsdppiippipppiiyiyyuturryywrryyrrwwyrwrrrywywtwwutywwywiwwyrryrrurrrweew",
"6996999966009999wwyyyrrywyyrrrryt0uuuyuiruituiiiiiiirt7522222222<282900u00r0r0rr00errrurppppddspiapppppphpdhhhhhhkhkkhhhkhhhddddaphdddddpkkzklkllkklkkkkfkkklkkkhhhdddpirripir053212<2235256332<2<<2<<<12212222<1111,,11111211112,,211,,,,1,,1<<11,&::29559999888965592<1,,1282265995>:=::+:::::==1==1====2<2<&&::=,18==%#%=:2625255<2522292<5296<226::===&::1,<821:::;:==,:8920000009099900w0wqreww9ww9ww0www999369660696999336325666699rriturww0q<1,<<6566322232<4<<249qq766qq5900000i00r0ru9u0000wuuuyyyyyiyiirwww0r00rsiiyiisuurwwyy990rurqwwwwwytuuiiittw09qwwwwwtwq9666636666626663366776966609ww6665560669790639629999rr0ww000e000r0rr000u000iuiru0uuuuuutwuiyiiippiiq6690766790q9ww9w3:,2221,<228<::1==*:%*&=&<r900wtur0wewwwe00900099990000000000wwww999990009900000w0w000ww0009999999666669999w66676623677332332323131122222<<9932<222=28228336990ww0000099000r0r0rrr0ruruiitrrrruuiiiiiiiaipsassssdddiipddppakkkkckkkkkhjkkjkkhhkkkhkhkkkkkhhkhhhhkkhkhhhkkzzkhkhhhhkhhkkhkhkhkhkhjkhkkjkjhkkkkkfhpyyyyuyyppyppspispipipiaiyiiiyiiaiiiiyyiiiiaiyiyyiyuuuuuuurryyruuuuurrrurrurruiiuiidhkhpppfhhkjdpddpppaiiiiiiipiiiippdddsppdppiiipppppiiyiystuuuyrrwyrwyrrrrrrryrrwywyyuwrwywtywyuwyrrurrrrwrwww",
"6999909990007ww9wwryrrwyrrwrrrrwrrr0yuuuuuiiuriitwttww6328222<22<22229y0er0r0r00000e000tuuipiiiiaappppiaphhhkhhkhhhhhhkhhhhhaddapdphdhfdphkkkklkkkhkkkklkkkkklklkhhhhappripyrsy232,11<23562666221211<11<12<12<1,,1,1,,1111111,118==12,,,,==,,221181=>159855989955562565>,,,,2222556061=::::=::::=========:222<&*1:11,28=====:3922<33<1322692,369<>1<2=:*==&;=:,1981:-***=&&=2828000990099900q997ww77ww9qww9www966566666563606359524266669wtrrrww700<,,<<2222232222553366w9956699890r000irrr0r09r0rrrwtuuyyyyyiiisrryw00r0uiiuiuyuuuuuwww099wrrywwwwywiwwiiiiuq0099wetiwwq9666637q63666666666qqq70000qq05006990w096w0669988900r0rwew0r0r00000000t000tuurrutsuuuutytyiiyyipiiit9669976690969w9wq>2221:::,<81:::=*=*+&%&@>9889990000000www0990099990000000000wwww99999709990000000w000w00009999909996369q9q763696636963223612222322223122558331,2212==22=23666wwwq000099000000re0r0r0rutiurtuuuyiipiiiiisaissasddsdpppdppdhkdjkkkjkkjkkkkkkhkjhhhkhkhhkjhkhjkhhhhhhkkhkkkkkhkhkkhhhhkhhhhhhkhkhkhhkkhkkkkjkzzlzkhiyppyipapppiippppsipipiiiiyiiiiiiiiiiiiyiiiiiiiiiiuutuuuuruwwuuutuurrrrrrutrrriuipihhhhpphhhhkadpdppapapiiiiiiiidispddddsddiiipppppppiiiyiuuuuytrrryrwwrrrrwyryqyywwwwuuwrwywitywwrrrryrryrewwq",
"3966699900www9wqwwywrryrwwwwwywyuuuyyuuuiuirruuiuwwwww932282<32<<222290rr0r00000000000t0yupyiiiuiiiipaiidadhhhhhhhhhhkhhkhhdadddpdhahddddhkzkllkkkkkkkkffkkllklkhhkhhhapiipiipsq322222366666665321211112<111<,,:=,1,,=,111,=,,111,=,11,,1,,12221182:2889599900992965698,1,,1222<886861,1:=:=:::+1=====%===222<**,:12:12=2==*=3922<22,<32<22,:629>;,,2=:=*&&*::,,22<::***&%&=18,80ww999769970w767q7669wwww0qww9662426366255366229244566363wrrwwwwww0,<13<<<24<<263356669999666966990000rir0uruu5u00wwruuryryiiiiiiyww00000rtruiiyutrwur000960www0wwwwyuwutiiiiw0ww67qwtww7969656q7q63663266366qqq00060065<<<55696q9qw67qq9900r0rrww000rr00000t0r0u00uurrruuuuuuruiwwiwyuiiiiit069995960996976t9>5:22<:*:2111:==&=,*=&:;29900000080990www099999900000000w00wwww00999959999090000ww9009099900000096955699q963399339962<24533223223222222336333,,<22=1=213339660q0w00009990000eet0rr0ruuiiiirtuiypiiiiiiissiiddddsddpppadphkkjjkkzjhkkkkjkjkhkhkkhhjkkkkkkkhkkhhhkhkhhhhhkkfkkkhhkkhhhhkhkhhhhkkkkkkkkkhkhkkzkkzzkhdfaphhhpipsispisisipiiiiiiyiiyiiiaiiyyyiiiiiyiyyiuutiuuurrryrrurryrrrrrrrsruiriyiphhkapphhdhkhppappppaiaiiiiiididiippdddpiiiidiippppiiyyyututyrrryrrryrryry0rrqwwwywywuwyywywwtwyrrrrrrrrwwwqw",
"999966950000q7qwrwwwwrrrwywywwwwu0yyuuuiturr000riyywqq9888223<22,<2<890r0re000090000er0ryuuiuiiuiipaiiiiphhhhhfhhhkhhhkhkhdpdpdppdddhhdddhkzkllkkkkkkkkkkkkkklkkkhhhhhpppyiapipj3323322326256566222221<22<<<<<,,1111,,11111111118,,222,,1,:1121,182159909999r000699990921111282<886061,5:::1+:=:1=1===%=,=2322:,::22=:1=1=%#&12,,,22,2361,<:,833::<,2====*&*:::<951::*=;===,88189006999669q09966wq999wq99q99w0666699663<63695<462<<5535369ewwq7wwq0:<<8<2<<<<2263676363696669966590ur0rirri000909000witryyyiiiiiur000900wwrryiiyiuwuuuw09669www0wwwqtititwtywq9qw76qwirt6qwq937q66224664666677670076006<65660006q9qq69qw980r0900ww000000000e0000t00ustrrutuiui0uwtriiywipiiiu076595990966wq6q7;5<298::298211:*===&*+&@><00y099089997www0999959000000000w00www0999599909990000ww0099999990000009795359wq932399639734<563412,1233352<<2669332,,22,218==8239970w009000990000errrrr0rrruiuturriipiipiyyiissaddiidddspadddddkkkdjjzkhjkhhkkkkkhkhhkhkkjkkkhhhkkkhkhkhjhjhkkkhhkhkjhkhkhhhhhhhjkhjjkkjkjkhhkjkzkfkkzzczkkcczfappppppsaipipiayiiiyiaiiiiiyiyiiiiiiyiiiyuuuuuuuurwwuuuuuiyrrrrrrrrriiyippdkfhppphhhhddphipppapaaiiiiiidippppdsdsiiiiiddiipyiiyyyyyuyyrrryrryryrrrwyyryrywwtuwuuwwtyuyyywyrryrryrwwwww",
"33355353697q99q6w00wewwwrywrrryw0uuuuurutirr000utwwyww065533322212221299qw00900958990000uyuiuiiiippyddpdphphhhhfhhhhhhhhddhhdhddhppahdpdhkllkkkkkkkllklkkkkklkkkkhdddhppiiiddiidhq<,1226665566653332211131,<23212,,2,226881<131><:2<,221,>,,12221222259999990r00990000052<<25685969031:11:=1=&&==%====&&**65922=,=1222>11:&$%1362328:1<3=2*$21:2:::<2:%===*==811622:*:****&,2<,<966700966qq7r8*<q7369qw700w0009666266666966635252266667969wrwwwrww9<,<<2222622252<2556666262656624500yuirr0r000r00r0trr90t0tuuuiurw00990ywwruurwrwuu00q90969990qwwwwyuuwqrtutwwwq67wrriwq799q9qq64366666666663660999996936996999wqw0990w99000r00e000wwwe000t0r00000ruuu0uuuuurrrytyitywiittiiyw7995999926700y052:1299222888,::=8=&2=@:;1t0rryir00006000w9599900w070900w000ww099799969909999900000999999900096999696q6q7q3696369692,,2212,2333322222269963321222,11>,<366670www9w000000000wwruururusuuutuuuuiiiyiyyiiiiappdsddddddispiaakhjhlkkhkkhkhkkhkkhhjkkkkfkkklklkkjhhhkkhhhkhkhkhkhkhkjkkkhkkhkhkkdkkkkkkkkfkkkkzkkklcckzzkkklzkhiiippipipipipiiiiyiiyayiiyyaiiyyiiiyiiiiiiiiyiyyrrrrrtiirrrrrrrrrurruiyippfkhpppdhhdddddppppppppiiiiiiddsdpsdpdiiiipipippiyiiyyirrrrrrrrruurrrywy0rwyrryuwruwwwyuu0uuyrrrrrrrywrrwwww",
"663366656676997700wqrrewrwwwrrwy0u0iuruu000uu0900wwqwq0966655455<222,2880000000999990900wyryuuuuydpipiiipphhhhhhdhhhhhhhadadhdapdppadipphkklkkkkkjkkklklklkkkllkhkkhddppiiiiiiditq212236655366533222322231,,12112,,,21338111292,2:2<,2<<,,,112222222569099990rr9990000524<225255689831111::11====*1=====-*62921===1232:,1=&%=1263339,22218:&2<=2=:><1=#%%**==1=12,,==>;****,6327066600966006q8*2e6669qq60099900666666666665355454256609699wwwwwr0r6<,<<2>245422255266666562556668<8000uurirrrr0r000rrr090u0u0ut0yrr00007wwryiuywtruw00w99266990q7wwywyywwwuuwwweq7qetiiuq9696q7w6363662666666676666999666696996699w990009000r00rw000www00t00r0r000ruiiururi0ruuruyuwiwiwiiiiiuw0999999900ww0w05522282228218,18:81=8:*,:120t00y00999900009999990099990000000009996999999999990000000009900099696696669999566639993<,<3321,2122331,22399921332212<22,<<2366990w0w90e000000000rwwww0ruuuuuurruiuiiiiiyiiippppddddsddiidiihlkkjkkkkhhkhhhkkkkjkkkkjhkkkkklkkhhkkjhhkjkhkhkhhhkhkhhhhhkjhhhkhkkkkkkllkkkkkklzkkkkffkkkkzkzzkaispiipippiipipiyiyiiiiaiaaiyyiiaiiiiiyyyuuyyyiyywrrrrrruwwrrrrrrrrrrriiipphhhpppphhhhddhppppppipiyyiiddididdisddippippippiyipyyirrrrrrrwuururrrw0y0ywwwwruwwwywy00uu0urrrrrryrrwrww0w",
"67366676666979q90wqwrrwwwywyrrrw0uuururrr0u00999990ww00663422242222<,,180000000999969990wtwtyytwyppiiiydphdhhhahhhhhfhhhdddddddddpppayipkklkllklkjkkklklkkllklkkhkckhpppiidiiiiiie9233635335665633222223222222222,,212232211899,3,<,,32,2,1222112222299q99000rr00000w092<242626469081::=::::===1==8======*8222,&==8823,,1:=%=,862228,222,8==21:8=1<11&#&*=%==1112,,*=:::***,353q096900097666q3=2w766q6669006909696566222625552<35536006699www0wwww6,,<<<>222525655655553553563662<5000uiiurrrrrrr0wwrre00u0uuruurrrrwww0wrwtturruwtw69w79626669qwwwywwwyqwwww099799qrirw996669qq36666333636666676669q996699696769999000w0000r000wwewreww00000t00t0rttuut0uuuruurytytwititiisiitw59099699wwwqwq70882821231,,,12:2,*==@:;@=0i09wy9590w000w0009790069590000000096969960999990900ww00e0000000995999669q7999665366776<,,<21222,2,2223<236996<,399,,,<122222366990ww9w000000r000qwwwwyuruuussuuuuiiiiiiiiiiiippssddsddhipdiidkkhhkjkhhhjkkhkjkkkhkjkjkkkkkklkkhkkhkhhkkkkhhjkkhkhhhhkhhhhkkhkjdkkkzkkkkkkkkzzzkkkfapfkfkkzzxkdpisipiispiiiiiiiiiyiiiiiiiyyyiiiyyiyyiiiuppipiyyrrrrrrirrrrrrrrrrrrrrupppdhkhpapshhhddahhhppppppiiiiihddididdssppippihdiiyyiiyyyrywrryryruyuryrww0w0wywwyw0ywy0y000urrurwyywwwwywwqww",
"qq76q6q69999www9q0qwwwrrrrwrrrwy0u0urr0ur00u0999w0qww006752<<23522822122590900099566689900wwwwwwwiuuiiihpphddhphddhhhhhhddadddpppppppppakkklkkkkkkklkkkllkkkllklhkkfhdppipiiipiidse3266254256365333211121333222322222,2311:1396,6,<,,62132212222121250w09000rrr09000w095425566566991:::==:==**===&==&=&=**92981===1233,21,=&=1832<23112,,,=%11:2:1221*#%%==,=2,=2<<:*:**==:<333600000099w0q6wq<3ew6qqq97909990966656624224255253655600069wwww0wr7w6,,<<<4266656652525<2222656626859000uiturr0r0r0wrwrrr00000u00urrwywywywryuyurrr0ww6695925669wqwwwwywww00qq9797q67qtrw7966667wq46366442666663366669999936699996667000ww0r0000erww0wwwwwu00000r00urtiuuuuutuuuuuytyyiwwywussituy900938999wwwitqt212221228,,&==&11=::::,;+8u0000859ww000000090999999900www007966959999909099900w00000909008658965q69q996665267q62,,<3221322222133,367975<23832,,<1122236999wwww9qre00000r0qwrwywwuuiisusuuuuuuyiiiiiyiispppsdddsddippuskkjhkkhkkkkkjhhkhkkkkkklkkkkkkckkkhhhkhkkkhhhhkkjhjkhkjkhkkhkhhkhkdkklkzlkkkcczzzzklkkhakkkfzkxkkdipiiipiippiiiiiiyiiiiiiiiiayyyyyyiyiiiaadhhhppirrrrrrrrrrrrrrwyrrrrrriyipdhhapipshhhkhkkfhhhppppiiipidddidddiddiippiiiihpiiiyyiywyrrwyrwrrrrrrrwwyrywwwy0yw00ww00y0u0y0ywwwyrwyrrw0w0",
"ww90q7990w0qwqw9w0wwrwrerywyrryyr0turrte00r00999000000667332236682822111269999999958969900r0rwwwqqqwipihphphhppppsddddddpdpdddapppypppppkklllllljkkkklkkllklklkkkhppphpppiiidiiiddr51662525566663322111<1222211332222,2322,,38819:,,193132223221<1<260qq0000rru090090r9522668266892:=======++&&*=%=*&==&**5288==%&,212,11::%=>6621222,<,11=*,==,:1111&@##=%=*===222:*:**,,,166579979999977w00046q96qw99990679009663662422426525565360096q0qwwwwwww6,,<<2422425662252<<<<55665955859900uiuture0rtwtww0rt0t0r0u0u0rrr0wwwywyuuuyurr0rww995966679qqywyywy0wwqw0w909q9wwrrww66536we94633<42433343666996669q93657qq9779600wqwr000wwr00rwwwwwrt00000000t0uuuuurrrrtruuityyyttywuisittuq9969993990quq9q21<11112121=&&&8:**,:@::*180r0089900950990090909099900www0009999997900990999000000000900086869686qq766699639966<<<232113122231212699322233322<<2,,<2567679wwwwww0000000wwwrrrwuutuusuituiiuipyyyiiiiiiipsppdddppsiipyadkkkkhkkkkhhkhkjkkkkkllklkkkkzklkkhkhkhkhjkhkhkhkhkhkkkhjkkhkjhkjkkdkzlzkkklzzkzlzfkklzzzkkkkkzzzzpiipipaiiiiiipiiiiyiiiiiyyiapipipdpdaaaahkjkjhdpsurrriiuiuurrrurrrirryiupphkhpiphhjkkckcjkhhhdphppippddiddsddddddipphihipipyyiuurrywywryrrrrrryyrwryrywr0u000yu0uuu0ry0rryryrrrrwwww0",
"w0w97wq990wwwwwwwwqwwrwwwrwrrryw0t000000000r0956559909666632223622222,1<1569859595588998000e0twwrrqwipipfpapphphsdsddddsdpadpppppppppiiakkllkkhkhkkkkkkllkkllllkkdpihhhppiiiiidiiir3<26652222526223221221232222322222<,2122129313,,,,83232222221121260ww0wr0quwq000000955556566996<-&===*==*=====%====&%$$2118=&%*==>1=,::,#=:2231322,2,8=&*===111122*@#%%#%#==82,2::::==,,2556w99q9999766w000336656676990069009666666222226652656669099qwwrrwrwre6<<2<32222222555524<<525299585859900uiiiurtrrrwwwwtrtt0t0uuuuurrr00yywwwuuuytutrtuwwq0976569qq0www000wurwww9996q9weww797636eq76634<334666664669663999933367wq999000ww0www00w0r00wewe0e00000t00r0tutuuuruuuuuuuwuytyyyywiiiiiutt09669969q0qq2:10522<<22,88,,:&8***:;@;@=*:0tr00050w95099990000079900w000090909999900999099900000000000000656006677q96696697632;22222212122233212996<22662,,,,2<2<226996qwwwewwq00000w0w0000wwwyuussuuutiyuiyypyaiiiiipispppdspspipiydkjhkjkhkkjkkkjjkkkkkzkkkklkklklkkkkhhhkhkhhkjhhkhkhkhhkhkhhhhkkkdkkkkzkczlkcxkzkkzkkkzczkkkkzkkzxxipiisiiiiiiiiaiiiyiiiiiiaaiakkkkkkhkffklhkkkkkhhhppppddpphhhhdppisitiypiphhhhiaphhkkcccklkkkkhhhhppipididdddsdsdidiiihihpppiiyiuywwrrrwrryyrrywrywrwrryyuyuuu0uuy0uurrurrwwrrrrrrwwww",
"w9909w79999wwwqwrwwwrwrwrwywrrwwr00000000r000556655999656522<42511222211>59559995999889880000rrwreqwiiypphhppdpdppiddddsddddadpppiipppppkklkkkkkkkjhkkkkkkkklkkkkhppphdphppiidiiirr64<5625255232223321<2222333333323<,,2,22129329,,,,3222212222222259qr00rrwrrw0000000955956688882>:=*==*===*==*=*==&=&=&%2,8==%%%=,=,=,:=:@=&2<3132<;2,==%*==,2:2232&+%%*#%%=,8223,:<:,;,1<36679999666666w09w63653666997996900966266665522662253669099999qwrrrwww3<22<2254222252565<<4225295555555090uuiuuu0t0uwtrw0tuurruuuuuuryyyywwwwytuutyuirrtwtwq996539w90www0700r0009w99699wwq9769666wq52334<643666663366669999653567q06900qww000wwwre0000r0000w00000000000uuuiuurruurrrtyyyututwttisiiwtqq9699690999,*:0811122518881,=812,8,@,:=*+<8yr0w50w96009909099999900ww00099979999000090099900000000090069658606q979366q6q963<<42222221233332232696322323,,221<2225569967q7eww9700000ww0w0rwwruruususiuuuuupypipiiiiiiisppppsppppsdpiakkkkkjkkkzkkkjjkkjklkkkzckzzkckkkkhkkhkhhkkhkkhhhhkhhkhkhkhkhjhhkdkkkkcklkzkzkzlzzklzkkaaafzzzkzzkpiisiissiiiiiipiiiiiiiiiiiaihhhhahhkhklkhkkkhkhhddpsddddpghhhhppsiiurpiippfkhpipdhjlkzllkckkkhaappipidiiddsdddsddidsihsdippiyiuyrwywwwywyrywrrrrwryrrwrruuyy0uu0yu0u0uy0wywyyrryrrqqw",
"qww99q963699wwrrrwrwrr00yrwyrrrwu0098000r00r9999997999555542343322222222125955998959989988000wwwewqriiihhphhhhddppddssddddaddddpaapppiahkkklkkhhjkhlkklkkkkkklkkhhhdahddhhpidiiiiiuw5<555522552223933212111222122212<,,<:,2123319,<,:2221212232262269wtwwrrrqrww0000r0059855558992>:1==1====****%*8,&%&==&2:==*#&=,,:,==1=:O=&1<3,9<<*<,=*%====1:122,$O%+%#==,=23261:1:,,332379w67676666760960667636966q6666607962699666555652<43690999999wrrrrwrq2222<36666225625555<2552552985825990uuutu0rr0r0ww00rui0t0tuuuyrryyywy9wruiuyuyi0009qw9996227960wyyy000rrw0wqw997wqww9966656w922634<366666663462690q99655569q97qq00ww000wwrrrrr900000000000t000u0tsutiiuuuruurryyttyyytuiriiiiytuw9639969999<>21,::<1<<811,,,:881:8,*1,=*+@:0090>0y99w599000006666000ww99597999999000090000000990990699009656909qq663qq67q62<<52<,2212233221323976233222<,22,<<2699996967qww9wq0000000wrwwrruuutuusuuuuuuyyyyiaiiiaiaapsippppdsdpdsphlkzkkkkjkzkkkkzzzzlklklklllckkzlkkhjhkkjhkhkhhkkjkhkjhkhjhkhkkhkkdjjkckkczkckckkkkzzzkppppkzzzzzfkisaiiaiiiaiiipipyiiiiiiiaaiyyyyyyuiidafkkkjkhhadirywryyrriiiiyryrrrrryrspphkhpppddkklkkkkklkahappiipdidisdsdsddhidishihiippiyyuywrwwywwwwwrwyrwywwwwrryw000000000000yr0ywwwwwrrrrqwww",
"wwqwr990990wrrr0wwwrwwwwwrrruurrqqr09w9wwwewwq666qw96652222122232112181111288899993666669556qwq9wqwwirruiishsshipapphpphphhpddipiipppipkkkkjkkjkhkkkkkkjlclzzzkkkkkhhhdpppssirrrisi0w292211222123699654<3323223381118181111:201>9,,1<122222322223229qtwwwwwqwwyw09000095255955990,****:::==,=&&==&1=&:$:$$,%%==#====1822,,=%&2823<231:,,::$:*@:;===1==++&%%===8183232112,1256669699663,<36676q66q3<26999w9699wwq6q99664422223=32322600090wwyyrrwr2<2134222<25622552526669665696633567qyiwrrrtwwewwwwwuyyyyrrririrruuu00u0t0urw009900969098366690qqywr00wwwq099997q6qq36q66646w63233<2233333344465<3696696269097w0www00qw69wwrwww00909099999900900wtuiiyiyyuuuuuwruutyyuwuyuisiuuuuiu9667966y0<:,111:1111118111:851,5,:821&+*&=8e667uuywwww00800080660wwe99796997999999990000r0090090000990669006r0966669q9653<,,<,,11322533<366693222211<<321,12q76660000w0rqww0www0000rrrrwuyuuuyiiiiyiuiruiipyiiiiiiiipppppphhphhppkkllzzzkkzkzklzzkckkzkzzkzzkzzkkzlkjhhkjhkkkhkjkkkkhhkhkhhkhhhhkkkhklkzzkklzkkzzkzkkzckhdhdkkzkzzlhpiiiiiiiiiyiiiiaiiyiiiiyiiiiuuiiiiuushhhkkhkkhkhsuyrrryyyyruiurwirurrrrisddkddsupdakkzzzkkkkkhhaippipppiiiiddddpdsidddipiiidpyiyur0uu0rur0uu0u0uu0u0ytywww00000r7ww0ww0yywwwwywyqw0ww",
"wqww0000890w0rrrwrruurrrrrrrurrrrwrq0ewwwwwww6997qw9qq63222<22232181181,:11285559666666633236966996wwwtwiisshsphpapphppappphapdppppipipakkkkkkkjkkkjjkkkkkkzzzkfkkkhhdpidissstrrdsssu>909226822233332222<2112122111,::11:1<:8w589,>1:<212223322822280tyytwwwwuww0090009525955559q,;===::====&&&==*8=$:**%#,%%==%===1111228=%%1213,23,:,:,1@;:@:*+118==%%%+%===1121222112<<3563699999632,3696066063226699w999wqw09669663322223=233336ww00wwwywuuyr2<212<2244225556655666665256662366677yiiwirrywiuwwyyyiiwiiritiru0uuuuuut0tuww062895225983323660wwwq000rwwq00999q667966663636w682332<2224343363663369969669q000wwwq00wqw99wwww99090009099990000w0wuuipyyyyuuuwuuuyruytyttwuiiiyuruuuw076666w0<::1111118851811,=865182151:=&+&&=100uiauiurrre009068680wwe999999999999999000900we00000009900000000w0966997q765<,<,<1,1<3325436566932211222232<123qq766690000www0r0000000000rwruuyuyiiipiipuuruuuiiiiiipidpppddhhhhhjhhhkklkkzkzlzkkckckzkczzlzzzzlzkzlzzkzhhhkkhhkhkhhhhjhhkhkhkjkhkkhhjkkkkklzzzkkzlkzzkkkkzkjkhdkklkzzkkiiaiiiiaiiiiiiiyiiyiiiiiiyiyrrwrwispakkkhkkhhkhhsuiuuspiipsdppiyrryrrursiikkkdssaakklzzzlkkckfhaippippppiddddddddsdisddidiidpppyurruurwru0u0u0u00uwuwywywtrwwrqrwwwywyywwwywwwuwwwwww",
"wqww000099900rrrrruusrriurrruiurrwrwwr0w9wwwwq66qqqq7q7322<2<<2281112111,:,2588596669363532536666q79wwwirihhhhddpipppapppppaadpphpipiipkzkkkkkhkhjkkkkkklczkxzfhzkkhadpiriiditiissuut5008829822266256665<<<<1<1<11111:::,,,:20559112<122122221222226qtywwwwwwuuw00000095559859999,=:==,:==%*&&===&8=&,*&%$=#%%=%&===1111881%%:223222::::11#*:$:&%111%=+%%%%==11=11122123223336990969082,669969667525666999399q9q666666343233321365360q00wwwwrywwq<21,21<<4225536355566626255265235666qwiyttwywywiywyuiyiiriitiituurisuui000uw09415555269632653690www000w0eee9990q6q7936q33q46w7233322223434334646669999969070ww7wrqrw00rw9w9qwq999090909999w0www0wuupypyyuuuururutwuyyyyrrtusiiiuwrruu06677w05::111:1111111:::*1***::*1:1=&*&+&&250wuurrrtir08906009wrw066999090000090099990we00000ww0090000w00000969900w65<<<223<1<23323466979932222121222236qe96669900qwww000q00000000wrrwuuiyiiiipppiuuuuiiiipiipdiidpadahhhhdjkhhkzzzklkzlzlczkkcklzzkkzkzzkzzzfzkkzkkhhhkkkhhjhkhkhkhhjkhkjkhjkkkhkkkkkkkzzlzzzkkzfzzkkzzjkhlzlzczliiiiiiiiiiiiiiiiiyyyiiiiuiiisssiphkkhjkkkkkhjkhhkkhhkhhdhddhhhadpppiirrisskkkkhjkkkzzzzkkckkkfhhipsisppyipdddkkdddidddpppiiipiyuuuuruuwuuu0u0u0yuwy0utyuwtwwwrrww7wywywwwwwywuwywqwww",
"uwwwrw0099900wrrwrssussuuyrruurrwwr0wr9w9qqq966699769q66322,,,,<2811111111,1259969696969555566657696weuwriihipdpiaippippppphppaphpiippddkkkkkkhkkkkjkkjkkkkckkkhhhhhhhaptrripiitii950uu2998228336626696522<2<<<281111111,<1:202295222552122211112229wuwwwwwwyww000000095855999996,=====*1=*&&*====1&&3:&$+=###&%===,1112=1=%$1263122::::2=+#&$*@+==:%&+%+%+=====11122223333366799636662=6606q60q65556666q9969w9966666333223333226<367wqwwwwyruwuq,22,2,<255355665255532426625266366q9wwiiiwiuuwtwwwwuyiuwirririisuruuu00tt0000852525555933226699wwwq00ww90wwe099q7qq7q6734q66w633833228233663333663696666009qrr7wrrwwwr0999w99ww999990906900w0900wruypiyiuuuuuruuuuyuttyruuuiipiurwuiyy06600006:1111:11:,11::::1-**:=*111:::*&+%:5wwuiurriru00995660wrw0999000000000099009990ww0w0w0e0000900w00e09699700q65<<322<<112222<369qq6622212222,<37wq76966790000000rr0w00000wr0rrrruyyiiiipipiiuiiiiippppsiddsddddhhkkkhhhhhkzzlzzzkkzkklzzkzkzkzzkzkkzzzzzklzkkhhkkhkjkhkkhkhkhhkkhhkhhkkkhkjkkklzlzklzkkzzkzkzzzzkhkkkkzzxczkiiiiiaiiiiiiiiiapiiiyiiiiiisdddpdkkkkkkkjkkhkkhhhdddhddddddhhdddhhpsirrrsdkczkkkkzzzzzkzkzcklkkhpppippppiiuipddpdddiisdsipiiiiiuuuruywww0yuuy0uwwy0uwuwwwwww0rq0wwwwywyywuwywwywwwqww",
"wwwrww0r0000rwrtrruiiriuiruiuurrwqrwwr0099w9963369636w932211,,,<1111111121>1298566996969665556666q756ewyttidhihpppppppppppppppippiidpddkjkkkkkkjhkkjkkkkzkkkkkkhhhhdhhaiirriiirrui250ii188223222242567622222222281,11121,1828055622559952232222222260twywqwwwyww00000095585599099,::===*1===&&====8==8,*##*#O#%&&&=,1111%=&$#=292221=::*2=+#&%&@%=:1%&##++&=111111<23233363666979666633=666066q696669666966999996666555<223333236536790wwwwyrwyw9,22,<<253635236535663556666626625667wwityyuuyyytwwyiyyirrrirririutiitrrr00009952252256533363699ww000w0079qwqq99w7q76q6q646q7q743332238363363332535566666q000rr7yrqwwqwqww99qwww79999999909009008ewuiiyputirruuuyuttyyurtwruiidiiuwyuuut6666qt8,1111118112212,:1:::11:81:12:*&&*&5ruuuiuuuuruy0766000w09999900w000w0000099690w000000w0000090000w069970q0753<3332<<<2<2<25697q76532212221<27eweq37666900900000r0r000900w0rwrruuippyiiiiyyuuuiypppppididdsdddahhhhhjhhhkzzkzlkzlkzkcckckckzzkzkzzkkzlzkzzlkkjhkkhkkhkhhkjhkhkhkhkhkkkkkkjkkkkkckckkkzzzkkkkkzkpiihlklkzzzkiiiiaiiiiiiiiiipiiiyyyyiiiuiiyryyiiphklkkjkkkkkhsuyyiiiiiiipdpiurirrurruidkzkkfkzzkzzzzzkzkxkkkkpppppppyiyiyppapddiipiphdspipipiuuuurw0yuy000u0uwywyywww00r0r000wwwwwrwrwwwywywtyww0e",
"rrwwwwer0000rerryypuipyiiurruurwrrtwrr009qqwq66667999qq93321<,,<8111181111:12255666799665334556666q57wwtuishshphppddappafpapppaidiiippdkkkkjkjhkkkkjkkjkkklklkfphhhhddpiirrrturrst2996698221222222266624<<<12<22::::1111,1229089525229922222112212260wywwrqwwuyw0090099555999990q<*:=*:*11==&&=1==8==8>*##=%#%&*=&=82111%=&%$=122122=::*,=$#$&$@%==1&&+#++&=11111112333363356996q666963,66q66660q969936666669wq9766655<322333212653679q7wwrwwuwww<<2<<42552<4225555553256266666636q767wiiiiiuiyiwwwyiyyirrrrririirriiyryiu09998532322228933266990090000969wqq9966636q66763q7qw333332233364463432556566666600qrwwrwqqwwqwwqwwq77q99999699900900900euuiiiiiiruuruuytyyttuuturuipiiiuuwwuuu0060qw82:1111118888:11=:1811::51165:**&&+:90ywrriuwutuuy0wwwrue099900wwww0e0000009990w0090ww9909600990000969ww06653553<<<1123<3<677qq7633222223337qwww6666690000000000w0w0000r00wruuuiyiipipiyyyuuuuiiyiipiddsddddddhhhhhjhhhlzzkzzkzkkzckckklkckzzzzkzzkzkzzkkzkkkkjkkkhhhkkhkkhkhkjhhkhhkjhjkkkklzkckclzzkzzkkkkzkpyihkllkzzlhaiiiiiiiiyiiiiipiuuiiypiuuiuiiyyiiiihllhkkjkkkhhdppiiippippdddppiuiiurrrphkzzkkkkkkzlczzzkzccklkpppppaippippipppppdiiiipppiipiiyuuwwwww00uu0y0u0u0w0ywryer0r0rwrwywwwwwwwywwwywytwwqw",
"rwrrtwwr000r0rrryppipyyuurriiirrtrtrrt069w0w06632699qw993212,,<111,1111,1:::><22256636632533335639w7qiiiiisiihdhdapaappphpppppipdipippazkkkkkkkkkkkkzjkklkkkkfhajkhhhhdidrriiirriw<92<23222,122226566322<<<,,111:,:,,112::1:80809955269211<<,,122<250wy0rrqrruwy09990995589999009,:===::====&&==1=2==1*&##1&%%**&&=22211=:=&#&162221:::*==%#$&#+%%%1&%++##%:1118211233338336666666666622666666666999662663669999666553<4233331225359q7qwwyrrywywq412,22255442252524252526622565236w9q7wiiiiyiiyywwyuriwuirririitrrrii0ryu0099952232282823325267996000096999qq66674366366q3666w33232<22223364342235635665669ww0wwwwwqwwwwwwwwwq9q000996960060600w00rupypiituruuuiyyuuyuuryrwruiidituuuuuuwww09982::::1121121:,1=:188111815681:::&==10yrriuuwuuiuuuuiiiir0900w0www0rrwe000000900000000099050w69we97690ww64345533<31122<33399q0796331121388qqwwwq7699699099000000ww0000qr000rtuuiiiiipyiiyyyyuyyyiuiddsdddidddhhhhhhkhhhkzzzkzzlkklklclklcklkzkzlzkzzkkzllkhkkhkkhkhkkhhhkhkjkhkhkhhkkhhkkkkkkklkckklkxkkkkzzzkduskzzkkzxllhiiiayiiiyiiiippsdsipypiiiadhhhhkkkkkkkhkkkjkkhhhhhhfhhaapdhhhadhhhssrrwphccxzkzkzkzkzlczzzxczlkhppdhddddppippdpipppiiiiiiiiiiyuutuuuwwyu0u00yu0wwwywwywtrr0rwrwwwrwyrrrwwwywyywtwwww",
"rwwtrwrr0errrrrruspppipusrrrrrrrrrrwwr9366006355<36969993221<<<<1811111,11<:>><222256262535555663qwweisssisdppphdppppppppppiapappdddpidkkzkkjkkjkjkkkjkhkzkkkkhhhhkhhhhidtrutiuruw>2<981121,123255222422<21<11<1,1,11122,11:2090w009596>,21<<,221<<5www0w0wwwwww99900085555999006:====:==88=&==11=1=*=%###=&&%&*=&=18211::=%#&191231::,*===##%+@=%%==%+%%#*111813<<232223336qq666666632260q666669669632662269q996533433<223332226367qwqwwwwrruwwe<,1,2<<32<22555552256666242565237qwqwrdiiiiiyiitwwuiiiuriritriirrrui00y0099098<21111222332525679990w095699w99666336666664666q22322,,22,36666333333436625290yq7rwwq7qwww9wqwwwyw09999676609900ww00ruypyiiuuurrutturruruurryruiiiiuwtiuuwwtww6:,2:1111211111:861,152514646651111:=&-50wwywwuruuiyiiiutuw000e0wewwer00r0r0w0900ww090ww00905ww66wr09690ww6<335543331122323399q77663221128996wrwq55567990996900000wwr0000009rwrusiiiiiiiiiyiuuuyyiuudippiddddddahkhhdhkhhkzzklzkzzkzckkckckczkzzkzlzkzlzklklkkkkkkjhkjhkhkhkhhkhkhhkhhhhkhkhkzkckckllkllckkkkkkkhihzlzzzzxxxfiyiyiiiiiyiiippkkladpiypdhkhadhkxzlklllkkhkkjkhhhahahhdaapdhhhdhhpsirrrphzxzzzzxzzzzkzkkzzcccckkhhahddadpppppapiiipiiipddiiippiuywuuyww0u0u000rwwwwwywwrrr000wwwwwrwyyrwywwwtwywwwww",
"yu0ruiurr0rertruiipiipiuuuiisuurrrryiuq632<,2222<6qq79w7222<<<<<,,,,2112111,,12,222222325<<269956ruqtwtiishsshpippphhdddpddppaaipisspppajkkkjkkkckclkkklkkhhhkkdhkhdhhppiiiiiididw6221228111112211<332221,=11=111,,,<<25<>5<69506995455<,33212211<20wwwwwwwwrwrw59999955>96050009,=*=1:,=3,*===8,,2=%%+###&==&&===18181,=:=*&&,2<22,:::$=%%##%+#=====%%+##=,<2332244562433366996636566>4299526766996352466569qw06663333333376335367q0070wwrurrwyq23<22,<25552255344535562625556537www7wiiyiyiyiirwwiiiiyiryyppuyuuutt0rt0959988312<<122<223225606q966q7539766663336666664467762422,212223333383,5565663<5569qww0rq000qqw7wqq7wwq0099699699990090wruuiyiyriiirrriuruuruwuu0ruuuuuiutwyuuutut2$%,%:1111111>1>,>2,165861266128881:=**&++5uuuuuryyipiiiyiyywr09wyiiu0000r00000009000690009996ww66re5669qq625655563551,<38666q966063411126w077qwq6636669599990000rrr0w099000wyyyyyiiipyippiyuuuyuuuuiiddspdhhhgkhkhkkjjhhkklllkkkkzkzkccczzzzzzzkzzkzzzlzkkkkkkkkkzkkkkhhhkhhkhkhhkkjjkkhkkkkkkkkkcckkkkzzkzzzzkkpwrzzkklzcccayiiiiyiyyiiiapylhhhpiyiuiissiiuphkkkkzklklzkkkhhhhpiiyypppdhkhdpstryrriiphzzkkzkcclkllkzzzzzzzzhhhhhkjhpdppipfaippdsiiiiiipidddiuyuuwwwr0t0rr00r00rwrwr00000r0r00u0r0trywywwwwutwwww",
"iiuuuur0r0r0rirtyippiipiuutuuurrrrryuuw5322<<<21<6w9999w322<,,2<12212222111,,,1,22212222556559596ww0000twtiiihhppppgdddddpaappipppphpppjjzkkkkhkkckckcckkjkkkkdhkkkkkfhhpiiiiiiuppy6<2328211111122333555121111112,,,<<295>6669993972<2<<2332,2211,6wwyy0y0ywwuwr979999552969500091:*===:=31=1==3122=%%+%##&======1=8111,===&&=,22282::*&%#%###+++%&===%+#%=<22685522555255669966636696:4269526656966556566669qw06666432353666345666670wwwyyrrrrr8221,2,125525256333353666262656659wqwwerypyiyiyyrywwiiiiiiyiipiyuuuuu0tyy955882221<<,221322225666996666569q999664336666336q6q324222,<2122222231=355543<<5<667wq0ww000007qq7q7www0099999796590060rwuuiiyyriutirrrurtyruuurrrrtuiuitywtuuuwww6=$=*811:1111118281225115>>5522111111:=**&:690wuuyuiyyyipiyyyryytuiitt0w00w0r000000000000999979069r06569q722655635555<<<396666969q634122367wwqqw0666669999990000000rew0090qwwyiyyiyiiypyppiyuyuyyuuiidisdphdahhhkkkkkhjkhkkkkkkklklklckckzlzzzzzzkzzkkkkzlklkzkkkkkkkkjhkhhkhhkhhkhkhkkkkkjkkkkklckkczzkllkklzzkhiyrdkkkzcccxiiiyiiiiiiiiiiipddsipiyiutisiitusdhlzzzzkkzzkkhkjhpiyyyyryupdppssirrrrryypdkzkhkkkkklccczkzzzzzzkhhhhhhkpdppiaapipdihiiiddipiiiipyuwww0urr0000t00r0w00wq0rr0r0t00t0tww0wywwwwiuwwwwqw",
"dpiuitiue0rrru0uypppipiiuiituuurrrrypuw62222<<,,<69979ww3322222<22822122211,,,,121121222559999959ww970wutuiipphpspppdddddpppppaiishpyphkkkjkkkkkckckckcckjkkjjhhdkkkhhhpdipddddpihp7<<5211121=1122<3255631121111,,1,,>59559990999996522<3982<<2,2<6wytyw0wwruwrr999995552955200992:====:,21=1112228=%%#%##%====&===111=1:=&%&=,18282,:::%#%#++X++====%%+%%,2<2326525365266669666666699,3269625523665566666667ww09963333<55365343666660ww7wyrryrwq22222,24245225553345666665253666ww9wwripyiyiiiiiryuyiiyiuuuipiyuuiutrry0058882511,<<212922<2566699636526999996634666q36q3663362232,21122232122,434<<3<<43360qqwww700099q777qwwq9099769696996006wruuuyiyrtuiuuturuuuutywurrruruuiiuuuuytuqwt,@#=811::111:12522,,5158>25>21:=*=:21&&=***:>0uuyypypyyipypiyuuuisisitt000r0u00000000wwe9999909w0e06599624255353533<33269669966969332336699wwq76556689998900000000r0ww00wwwqyyyiyiiipiippiiyuuu0uuiiididddhhhhkkkkkkkjhkkkzlkzzzklkzckckzzzzzkkzzlkzzzkkkkklzkkkzkfkkhkhkhjkhkjkhkkkjhhjhjkkkkkklkklklkzzkkzzlfpiywiisidhhfpayiiiiyiyyiiiiaiiyiyiyyyuuyutryuuiidkkkklkkkkkkkjpyyyyyywyupppyyrrrrrrripiahkdddkkkzzcxlzzzzzzzkkhhhhjhhpapiipppiiiddiiidiiiiyyiiyyuy0wwtr090t0r0wr0000wr0000ut000rutrt0wuwywwwwwwww9",
"ddiiuuu0w0r0ruuuripiipputiiiuuurrryuupw6662<<<22<399999q99653222822212<2111,,1112111122252559995500600qiiiiipddppsppddddpapappiprphpaphzkkkjkkjhklkclkkckkjkkkkkddhhkhhhddiiiiddiddw5<528111211=11222323211==11=,,<<:<5995999090990665659962<22,1<6ywuwwwuywuurr999999658812599961,*===,,21==,=2,18=#%#%##&========1188===%%%=,12122,*:1%#%%+++#&=1==%+%%*<<45633522565566666663637366<5566655222666266666359qw096663<<3666664<366766000wwwywwwr822,13,2<452522655363566566666666ww67iiiipiiyiiiiruyyyiyiuuiiiiyuurrrrrr005582521<,<2<1232,<2666699535526qq996626666766663666662212<121223333222353<554<5<36997ww70000907qw97qq70999696906990000rwwuuiyiriiuiuruuururuwuuwrrruuuiuuuuuwyiwww9&#%111:111:2228822281112265211=*&=11==:*&*%-1wuiyyiipiyipiiuuuiiiissuw00r0rt0000t0000009799989we9996996<265355653<5666q966666966663337qw9wwq9533665958969000000r00rwwwq0wwriiiyiiiipiypppyyuuiiiiiidsddphhhjhhkkkczjhkkkkzklzkzzzkzkkcczzzzkzzkkzzkkllzklzkzkkkkkkkkhkkhkkhkhhhkhhkkkkkkkkjlklkckckzzkzzklzzchyyywy000wyiyyiiyyiiiiiayiiiyiiiiuyipiiuytryturrrpkzlfkzkkkkkpdiywwwywwrrryrrwrrwrrrruipaadidddkckkcclzzzzzzzlkkkhkhhhpppiiipaiidipshdsdppyiyuiiiuwwwwre0000000w0wwq000r0r0t0rr0t00rr0wwwwyuwuwwwew",
"kdpiiuuur0rwruruyppiipiiiuiiuuurrrpuipy7952<<256259797ww9996636322222,,<1111,1111211122855557999509569quiiipphhpppppppddddappppipppphhjkkjkkhkkhlzzkzlkckjkkzkkkjhdhfkhphhpiiiiigpiu9228111111111,1333258111111=,:,,<>295295909066996666qq755662119wuwuwyuuuuuuu00000098621:5909811*===,=2,=1==2&=2=$%%&#*=,===8==&=8=8=1==*%%=28112:&*:%#%+++O&*==1*##%%&1242633522562266669963669676<6699655246666536566639ww09766332266663433060000777wwywwwyq<22<2<22225256653535555526365667ew6wiiiiyiiiiiitirriyiiiyyiiiiiyiyriuuy008965252<,11,1232,<5666999325537qwq96624636633363632222,,,211<21222222255345665665666999wwq00007ww99w999999766699060009rwruuiyyuuuttuirutuuruwuuu0uururtuuutwwytwww0<%#::::111:81>2521>21:::>658811:=;1:12:=::=+->rstyipiyiyiiiiiiiituiuw0000r00000ut0090909997990ew960997>2662356636667699q96666666555366qqww7w663566366598900r0r000r0wwwwwwwyiyiiiiiiiiippyyiiiipipipdssshhhhhjkkkzkzhkkkkzzzzzzzzkkzckzzzzzzlzlkzzzzzzzzzzlzklklzkkfkkhjhkkkkkkhhkkkkkjkkkkkkkzkzkkclzzzzlkkkzpyyirrr0r0riuiiyyiiyiiiiiiiiiiiipyiiiiuuttwyiuiuypkzxklzzzzzkkitwwwyywyywwrrywrrwrrrrriddddiiihhkkkcckzzzzzzkzkhhhhkhkkppiiiippipihihididiiiyyiiiuyuw00rr00000ww0www0w00000rrrr00t0rrruwywwwuwwwwww",
"ddppiuuur0rwriuurpppiipiitutiuitrtippprw0624226925www0qwq9996663828221211811112121112222995899999w99979qqwiiihhhsppsaadddpdpappppiiiakkkkhkjjkkkkckzkkckkkjkkkjkkdpdhfhihdiiiiidiq9wq312811811,1,,12355528122112,,:<12592<990090699006799934565<229twuuwuwuuuuuu00u000092><:2509821*=,=:&11,11==%*,%%%%%#=11====*====8===1==++=88212:%&==#%#+@#&#%11=%###&12<6836554522233669666659696<96666652<6966553666639ww99963323266363443600qw000www7wwww823,28222255555656345563233666669ww9wrriippiiiiiritiyyiiiiiiiiiiiiiiiiuyr00999651<121<122222376696665556qqwqq652336666643433222<,22<<,<22,1222,23<335665666666699q70000qqwqq97997099767696667006rrruyririuuiuuurruuwuuurwuuwrurutiiuuututiyyu6=#:::::18151:111111::::152112811:::52:&=1:&+-6iiiipiiyiuyiriturrrrtwwwtr0rt0000t0099996790990ew66999622662666623697967966666966366967qwtw6655566656669990000000errywywwywyiiiiiiiidiiipiiyiipippppsdhhhhkfjhjkkzzzjjhjkzzzczzxkzzkzlzzzzlzkzkzzklkzzzzkzkkxkkkzzzzkjkhkjhhhjhkkhkjkhhkhkkkkzklkcckkkzkkzzzzzpyuirrttrtyissiiiyyayiiiyaiiiiyiypiyyiiuurtuuuiuuakzlkllzzzkhptwywtutwrrywwyrrrrrrrrrrisdddiiipphahkcczzcczzzkhhhhhkhhpkhpipaiipidshshiddipipiiipiyiuq0rrrrre00w0wqwww0099000rt000000twwwwwuwuuewww",
"kdhadiurr0rrriuuyppiipsuiiiisriryiiipppw06525663360qw99e99997636882881228111111821222828599999999r099w70wwtyipppphppppdhdppdpppppiiphjjkhkhhhkhjckkczzzzkkkkjkhkdppiiiiidiipppii9329931281=21111,,12233381111121,,:,55592<599090700qw99w552<565<219uuwuuwrrruruu0r000099,=::229992,*=,:,&11:====%==%#%%%#*=1,======11=:=====++*12222:===%+%##%+$#%=1=&###*33<5q36622565265666966366666<6666662228996536966669w096666533365565336q000w077wwww7wwy822<282352555225433432<3556666669wwwrryppiiiiiiirriiyiiyiiiyiiiiiiiiiiiyyw0w098521222<2322336666962525369ewwwq6336666333323222<<2<<,21,<32,23212<44<43635566666999w0w9907ww99qq90999669996069000rwrrriiutuuutiurruururwurrwu0uurtuiiuyyuwiiyi0*#+11:1182682861<61::1:151::1111::::1:&=1:&++-6tiipiiyuiiuiruuurrut0r00r00r0t000009996666989w060669326522655552590096766666666635697qwwq736663655695599000er00000rwuuyywyyiiiiiiiipiiipiyiippppadpddhhhdhkjkkjkcckkjkkkzzzzczzxlzkkkxzzzzzzzkzkkkczzzzzzzkzlzkzkkkkkkjkhkkkkjkkkjkkkkkkkkkkkzkclkczklkkllkczpyiyryrw0ururiiiyiiiiyiiyyyyiyiyiyyyiiuyutuutuyyupdzkfkkzzckpiywwyyuywrrrwwrrrrwryyryuiiddddiiipppdkclcccczlkkadddhkhhkkpppppipidipihidsiddipppipuuuuw0ritrr000000wwww009900r0000000t0wyywwwywwwwwq",
"hhkhsiirrrtrususrippiisusiutuuuiyiyiipurw655665255wtw9we699666662282222118181211222222995585995550959960wwiiipppphppdddhdppappppipiphkkhkhkhkkkkkzlkckkzkkkkkkkhhadpiipdddppiw762232388=82=11=11111111122=1=112=1:,2999952999090660qw6695642606<116ywwuuwuwrruuur0000099:&:*2:9981=&=221:81========%#%#%%=11281====1=8======%#=822221,:=#+##%#+#&*===###%=2326829355256266666963669566<6653322429666369699666009766653336536543600007wqww7wwwwwy822<<8<24522225533434553556669669qwwrwwpiipiiippritiiyiiiiiyiiiipiiiiiiyywwyw08662293129288663666652223377wq796243436442333322,<,,,211,<2,,<21,,33<<363435565566790099909q9997qq00099999000000w0rurrriuuiuruuiururuuruuuwuywuu0rwuuutwuutyyyy5@O@=1111111112>==1=::1::11::::1:::1-:1::11*+@O;uiuiiipiiuutrrruuuuit0r00t0000r00000996656999088696222654265552229076669666666655669qqwq76399663355569900utt0rrere0wwuywtyyiiiiiiiidiipiiiippppdpppddddhkhhhkkkzkkzkkkhkzcczzzkllzzzzczzzzzkzlklcckzzzzzklkllkkkzkkkkkhkkkjhhkkkkkkhjkhkjkjlkkkkczklzzzkzzkcfiyiywrryuriyuiiiiyiyyyiiiiiiiiiiiyiyiyutyyuywyuyupfkzlkkkzzkpywtwwwwwtwwwwwrwwwywwwrryuidddiiiippipkkkccclzklkddddhhkhpkkpappadpippdshiddiidipipywwwut0trer0rr00000qwwe09990et0ru00u0rwwwwuuwrwwq9w",
"dhdpppiyrrrtiiypypddipiiiiiiyyyiyiiippywww636w62339erw9w9369999695622<<522222222225665925959999959298990ruursddididddddddddpappppippakkkkkkfkkkkkkkkkfkfkjjhkhhhddpuiippphuwuw<;3:,3q6<41111=1111<<<<2121111=81211235656599997990qq996361,,880<22<50iu0u0uu0uru0r09998992:1>2,669:=**123========%==&##%%%,21,===**:11=*=%1==%%=8228,=&=1*%+%%+#+*%*==%#+&=<2266665<225526266666996962<299966222>99956699966990q9996666666365666637w9www9qqw0wwww02<2<<52225555663<46366636666996qq7rryippupupppiiipiiiyyyiiiiiiiyppyipyyut00t09413332222<266655296624226560www94<3366664<666364<<<<,<1123,21,2,242<233323364243366669999766969q799966899069wrw00ururrusuuruuururuuuuururru0uru0uuuutuurryirw09<O-11:1,:<1<2224121=::211112::1::111:::11:1-=-+1swyyyiiiuiuurrruur0u0y0rr00000000999995999009900096996256566224907q999666666665566q9wqw655366666665959990rr0rr00rrtyuywwwipiiiipddiiipiiiiipiihiihddhhkkhkjkkkzzzkkklkllzczzzzzzzzzzzzcczzzzzzzzzzllkzkkzkkzzzkkkkhkkkkkjjkkhjkhkjhjhjjklklkkkzkzxkzlkkzzkzxkuyruwrrwuuiiiiiuuiiiipuuiuyyppyyiyyyiyyurtyrryrikzkzlklzkkzkjuuwwwywwu0yuu0u0rrrrruyriiddhiiuppadkzcczzzkcckkkhdhhhkkkkhdppppapppipppdidsddssiiiurr009wruurw7wqq7qw00w70wwwwuwwwuuuwuwywwwywww9www",
"hhhdhaiyrrriiuiiypdppiiipiiyiipyyppuipiyie669e9<336wr97q99699666585522<<222222225622696658999999999999909y0ridiiddipddddddhpppppsiyphklkkkkkkkkkfkkzlzkzkzkkkkhhkdpiiippyiuwui733<11,222113=1111,,,<<21111111=111,2366669999090000976666,<,8804<259uirrruuruu0wr098885592:,:22666*=*=222===&&&&&#*=%#####=22,11,,,,21,::&==%%&&82881:&=,%#O##O##=*===&+#=,<<366265<456626666666696962<389962255>666526966669q0009966699665636536667w9qq7qqwwwqywq55642422555562655355666636699q9q7qwruidpuippppiwipiiiiyiyippiiiyppyypiyu000009622222<,<<26965669662243336ww9w0443634633223632<<1<<<11223,22,2,,<2222323333323466679q79q666qq77q999969669699090rrrrrurrusurusrut0uuuuuurrruurruuruuururrytruy08O+:::1118<<<<1121:***1=11111:1:=::::::1::::+O*150yiiyiuyyuurruuuruu00000r0rt0000999599999909990r0707653626662670999969666666656697q9w7632536666558559990uwre0rrrryuytywtiiiiiipiipidipiiiiisiihihddhhhhkkkhkzzkzkklkkkkxzzzzzzzzzzzzxcccxzzzzzzzzkzzklzzlkzkkklklkkhjkhhkkkhkkkkhkkkkhkkkklzlzzzzzkzkkllkkzkiyrurrwuwuiiiiiiiyiyiyypyppuuyyiyipyyuttuuyrriuskckkfkckkcczduwwuwwwy0u000u0urrrurrutiiddaiuuyppddkzccczzcvckhhdkkhkkkhhdpppppppippppididddddssiu000t9qwrrwwww9qw0qww007wywwuwwywwwuwwwwywyrywwwww",
"hhhdddaireruidipipppdipipiiiiiiippipppiiir66wr72226ww99w9339q9369692524<222282989669696685595999999999009000ididsdipddhdpahpppppppiphlzkkkkkkkkkkkklkkzkkkkkkkhdkpsiuiiippiyuiu7=,<<<2223113=111<,<111<<111111,1122363669999909999663569<1212u5<<9000utr0uruur0y99999959:=::32966;:=:21<=&&%&&&&%&=%#+++#*,,:;**,,,11,,211=&==1892111==,%%+%#O+#=&*=%OO#31,,8962635266526665666666962<<8969422246662266666667000666666666665343<60qwqwww990qwtwyw2254<2<326566256353633666669997qqqyuiidppppppiuwupppiiyiiiiipiiiyiiyiiyut00000021222,,1426666266762425666006w02233226422243642<212<22323,22,2,221<22223<33246337669999796696q7q99986999667669wrwuwuruuururruuuuruurruurrrrruurruuruurrruiwiii9++=::11122111>1111**-:;11111:::;:==:=::11=1@O::-9yuyyuuyuuuuruuuru0u000000rr000099295598590990000wq09666526226609q996669966635699wqq96335666666638585990u00rr0rrrtwuuwwywipiiiiiidiidpiiipiihhidiphdhhkhkjjkzzzzkkkkkzzzzzzzxzzxzzzzcccczxzzzxzzzkllkkzzkzkkllkkkkkkkkkkkkjjkhjkkjjkkkklkkzxlkzzzzkzzzzzzlkjpuuuruurruiiiiiyiiiiyupypyiyiyiyiyiyiytyytyrrrydkzkffkkkkzkdytuuwwywwu00uuyy0ryy0rruiuidsdiyyipapppkzcckjkczhdphkhkkkkkhhappppppaapppdidddddsdsiur000wwwrrrrrww9999ww0790wqwwwwwywyywwwwwwwywwwwww",
"khkdkkapiuwudiiiipppdddpippspiiipppipppiiu939ee6669rrwww99909966595954<2222528299295696255599999959900qe0uwrssiddidshhddhddpdppakppdjckklkkkklkkfkkkkzkzhkjkkjhdpsrrippppipiuisq<<3<322,111=11=2<<21<222181111111133966705550095996223662282808<<0uruti0ru000uu099999599>*;:92969::*=,>;&*%%&&==%==*%##+#*,,**&%=:=,111111*%%=:82211,===%&#%#O+#*%%&%##%<,,,2q9665425655666666666993<,369762265<6622266666690qr096666966566653<400qqwww997wwwwyw6<<54<22653563666566566566q969qqq7wwuyipusppppuuwiippiiiiiiipiipipiyipyui0t00tt0333332<,456665669996225656996ww642422224246234241221<1229,22,1,1,11223223<<32333666q999966666q6698696669666699ruuuwurururruuuuuurruuurrrrruru0urururuuurruriii0-++::,,>1211>,1121::=1=11111=1:=:=:1:1111*:@+:*@2uuyyuuuuuurruurriu000r0000r0000999956889999000r00w09666662526909996q666666336997w96965566766665595599500wr0rrrtriiuwwywiiippdippdddippidipihisddpdddhhhkkkkkkkzlklkllzzzzzzzzzzzzzzxccczzzzzzzzzzzkzklzkzlzzkkklkkhjhjkhkhkkkkhkjkkhkkkklzkzzkzzklzkkklkkkhiuuurwrryusiiiiiyyiiiiyiypypyiyiyiyiyyyytuyrywyihkkkzlkkzzkpuyuwywywyruu0u0u00yyrrrruuisdpiiyypdiiphfzzczcczhiipdkkkkhkjhadddppppapppdppsdsddsiuuuuutrrwwwwwr976970wqq960wywqwywywtwwwwywwyrrww00w",
"hhkhkkhdiiriipiupphpdddppppppipiippiipppsre69www66wwrerw099909666696522<55555859966692635855889996699qqquurussidddppphpaphpaapppkhdhkckkklkllkkzkkkkkkzxhkjkkjddpiuyippipyipupfit8<22<,211111=11<<12222222111211<226666699990w00966356258<85006280s00ur0u0urruu099962925:=::95969>:==,=:%%%%&=======%%%##=,,,=====1=11,:=8&%%&:18111=&&=%%%%#O##=&%==%%%1,,<696952>25322666626666972<,2366622222562226666666qw006656666655655332900wwwqq99qwwwwy7<2665666635666566666666666669qq0q0riisdipsppppyyiipipiiyipiippiipipipyyuutuuryy832832<<253655663996242622696ww964<444<46264323221121221813213,22<,2222122233333333666996666666q6966966996690wrrruyrrruuuuruururruuuururu0ru0uurrurururryuruyiy>@*:::11<51:::,,,1::=1=1:11:=:==::>111152===::&+*yiiruuyuuurruuurit000tr00tt000092299999998900r00ww0655565653600669666669636376wwq96663269963635355595690000uruiuiituywywyippppidsddidiiipiihdhiihaadhkkdkkkkzkzkkklkzzccxzcccccczzzzzcczzzzzzzzzkzkkzzzlzkzkkkkkhkkkhkkhkkhjkkhjhjhkkkkkkzzkzklzzlkzzllkckhiyyuurrrruipiiiiyiiiiyiyppyiiyiyiyiyiutyytyrryuidhhkcczcckdiiuwwtwwww0uy00u0urry0y0iriipddiiiuiddpppakkzzcckdsryphkkkkkjkkhddpppaapipididddsddiiisuu0wq99900w666qwqw9w00wwitwywyyuyuyywrwrwwywqw9w",
"jkkkdkkhdiiiiiuiphhhpddpgpppppiiupisipppiirwqrrw67wrriuu9699996669665225559895956663696555589990999999wq0w0usdsddiddhpdpddhpappppddhkcclkzkkzkkklkkllzkzkkkkkkkdhppiipiihippiphiq2,<2<,<11113311<<1<1<2111111111,,<3666699990009996976629<55094610uuuuutuuuuu0ur00965596:*:>32629:=**::>======1====&%####*11,1==,112221==8===&:21112=&&=#%%%#+##=%#===%%<128366622226662656266696992<<2366222622252422662669q007666666636533354590w0wrw77qwwwtww92465566663566666666666766696990twwuiiippiuppppuypppipiiiiiiiiipiipypipi0t000r0w83223<,<<256555656632<42,26660w933<2333646264643221222239,3211,1<,11<221,,,1<3324234333966q69669668969969669wrrruwrrrrrruruusruurrruuuuruurruurrrrruuruuyituyii4@@*:,11221::::,,1=:=1:11:1;*===:,15111121:12;&$@4wuuutweuuwruuuriuurre00000000009999999998990ewr00065562566660009666666666369qwq663663566366656585569590rrr0ruiisitwtuutyippppshdisdididihisidhgddhhdhdkdkkzlzzllklkzzczcczxccczkzzxxcczzzzzzzxzlzlzzkzkzklkklklkjhkkjkkkhkkhkkkkjhkkkklkzlzkzlzzkklkkzzjhsuyyuurutwuipiiiyiiiyipyuyyiyiiyiyiyiyyytutyrriyyyisdhdddjduruuuuwwyywu00uyuu0rryuyrrriyiddipyushdppdppddhhhpidrrihkkkjkkkkkkhpaddhpppdsdsdisikdddiur0r9669099677w7w009096wqw0wwwwwywwywrwrwwwwwwwq",
"kkkjjkkhhdphdpidahkdddhpppppppipupsiipppddiwwrr969wwuuuu999996556966555559598585966969925568990rq9999w0q0r0udiiddddpdadpadphppapsppjkzkckkkkkkklklkkklzkkkkkkkkkhhpiiiipfkhppyyi62<<31,,111213311<112121112111112,23636769999009qq7990969<05006<88rr0uuru0uu0uuu009529961=,>22336::*&:*;=======,===%###+%,<,=*&%,112221=*=&&&&=<8111=%%=O##%#O#O=*%*=%%%3<<3366662426655666526666992>,<36662222<252<>66666699799966555335553<55597wwwqw79qwwwwyy92<44<227533796666666666669666qwrq0rupipipuppipyiipiiiipiiiyiipiippiiiiyt000000082<22<<12255525666632422<26339w9q442333343323322222122229,21,1,1<1,2<21<11,,132243343366666666666666669666999wrrrurrwwuyuturuuutrurururruu0ur0urrruruuuruiruias6O&=-:::221=-*:,,1::-1:11:1;=;;=:1115182111,>1:+O;0uwuurruuuruuuwuuu0t0r000000000999999999980w00wwq06256666960000q69666966666w00q662655666666366658999669rrruuiipsiyyyyuuyyiidddidiipiiiddidpddshhdhhkkddkkkzzkklkkkkzzzxcccccccxzzzzzzxzzzzzzzzzkzlzlkzkzkklkkkkkkhkkhkhkkkkkjkhkhkkjkklkkkzkzzzkkzzzzlksiyyuyutrurrupiiiiiyyiiiiipyyipyyyyipyyittyuyyryyyyyryrrituuurwruuwywwwwu0u0u0yrr00rrrryiyipdpuuussdidppppuspdpuirryiphkkjkkkkhkpddahpapddddsdddiddduur0rw96609966q977665662669670ww0000w7wwwywrrww99",
"hkkkhkkhkkkhhdhhhhhhhpappsppppppuiddppdddpurutw569wwwuiu96990666366655559599999999699999999990009999wqwwru0tddiddsppdhpphphpdppppdkzzlkkkzllkzkzlkklkklzkjhdjkdkddppiiiphkhphpypurq<,1<<11==121112212222212122112236996990000000qwwwqqwq9805000<29ruutrruu00u00u99522292312192996::=&;;;%=====,,===%%%##%,,,:=&#===,182:&====,:291=21*%&+%##++#.=*%==&%&<,,<332642226662662256696992:,22422>422<25222566366699999653653265<4<<<390wqww0qwwwqwwww9<<22<2265233qq666666960669969qwr00quyuipipiippuipiiippppyiiyiipiipyipiyuu00000w8212<<<<4252223696966522,263260634,<<443<243344212<1,1228,21,1,,21,,,21<2,,,222<23434333666666666666966656956wrruwywyrwuuyutuuuuruuuruurrruuruuuwruuuuuuutwuiii>@::=:::11:*&*:::1==-:=:1::::11::1222555112:-12*O6isuwwriuurrruuuruuutu0000r00000909999595550r0wrwww6666666660q07666666666667ww006526636666536666555995690ruuyiidiiwwwtuuiyyiiddsdddiidiiididsddshhhhhhkkjkkkzzzlkzkkzzzzcccccccczzzxxzzzzzxzzzzzkzkkkzzllzlklklkhkkjkkkkkhhjkhkkjjkkkkkkzlzkzzzzzlkzzkkz00wtuiyrruyruspiiiyiiiyiyiuiiiyiipyyyyiyyyurytrryyiuyrrruwwrtrturwuwwyywyu0u0u00ryu0rrrriuypdiiuisssiddadddpddddtrrwwypkkhkkkhkhddpddpppiddidiidiiiiuuisww636963q76532532665399967679770779wwwyrww663",
"ckzzkzkzhddkhhhhhhhphddddapppppyippddidsiiiiuuuywwwwrwurw77660666362252267998890999996665599000r679900wwrrrusddpdpddddpppfppppaphkhkkckkkklkklkkklkzzzkkkkkkjjdddppppypyhhhhiaipps2=6<=3<<,<21222112232283111<22,<236666q9990wrqwqwwr00990r0ri82900uuut0ri00tu0099q133938,2399291*****%==*=*,:<<88=%####%=2=====,1,,28<:&:&&1::21,,1,=%$%%%%%OOO======&==88856554<<62666628392666993<,1338<11<<162233133366696996336643632,,<653ww0qwwww9rw69re2<11,,699666699663423966666999000rq0rtuisppsippupppppispidiuuiipiyiipiyiiy0006995t9<<21,2<3322269699666241=q1236933333,,3,222,23322111,3131,,111111111,11,,,11122<21233326586589566998665696569wwrruuurrrrryuustyruurruuuyryrrrrrrwrruuuuruurutw6188++1=:::=-::::1:**=:::=::@=::>>2115851511,::=@&wiyyuwuuuiyiiyiuuur0r00e0000r00900909996700rwwwqw7q966666660996966696665660qqq9625665566636635666662929rryuippidiwttyuwwuwuuddksssiuiiiiippdddhhkhkkkhkkdkkkkkkkklkllzzcccccccczzzccccczzzzzzzzllkzzzzckkkkkkkjhhkkjkzkkjkkjkkkkhkkkkkkkkkzkkzkklzlkkzzkdt0uiutwrrrupipyiiiiiiiiiyiiiyiiyiyiyyiiuuuruuruyurryrriuiiuuuu0uuuru0y0rrr0t0rr0utyutyiuyipaiyispiddsdppspipdutrrtuihjkkkkkkkjhhhdhdpppppaaiaiiiuuuiiiqw963969w966666656566669090000q0wwwwwwwrre996",
"zzkzcklzkkdkhhhhhhhhhhhdddppapppipdpppddpipiiiiirwwrwuuiqq7q0666666662666999999999q9999569790000q9q90qwrrruuipdsdddddapkpppphpppdhkzckllckckkzzzlkkzzkzlkjjkkkkddppippdaddddaiiaph0<22,2<<<<212111122221111111232,<39669977900009www0rww0wr00u8500ru0t0t0r000ir0999<33933,233926,%&&&*%=*&==,:,<1==%%%##*=8=*==*1,,1221:@:%:,:1221111=%#+##+#X.+==1==*%%8=336655<,<26656638695666662<1<33<3<1<2362223<<86366969696355<3962,26969w00wwww9wqw9www5222,<66696666633333696667969qq0www0riuuiiuuiuupppipidiiddiyyyiyipiiiiiyyywy09908r92<,,=2<<22426966763632118,23396333<<<322,,222322311113831,111111111,31111,11,,,2222212888566596666666668669wrrerrrrrrrrrtuuuuuuurrrururrrryrrrwurryuuururuiiu0:15+::-::==*=:::::-=-**=*:=*:::1155258511>1,::,*$wdipueurryyyuyiiiuurrr0rr0000000900996966900rwwwww779999660700099696q636690q9966525636656566566966996990uiyipppiuwwwuuwrwwyuiddssuuuuiiiippddddhhhhhhkhkkhjkkkklkkkkkzzccccccccczxxcccczzxzzzxzllkzzczkkjklkzzkkzzkkkkkjkkdkkkjkkjkhkkkkzlzzzzzllkkzzzzjjsuuiu0ryrryipiiiyyyiyyiyiiyiyiiyyiyiiytuuuuruuriurrryruuuuutrruru000uu0r0rr0r00rt0rryyiuripaiyusdpididpippppdurrrrrughkhjkkhkkkhhdddhdappppayiuuuururrwwwww996q9q666656636669900000000trwwrrwwwq966",
"zzzzlzzzkkkkhkkjkdfkhhhdddpaphapiipppppdiidddddpuuwrwwwuwqq909066666999960999999q00996965999000909000wwwrwruuiidpdddppkpfphpphhpdhjzkczlkkkczkkzkzzzzlkkhkhkkkkhapiidahkdddaiiippgi6<<<<,<<<222112222<2<11111222<,<696696999000970wwrrrr0wr00i95000tutu000080000096,32921=2222:2,&&&**%=**,=,*,,1===*%#+======**1==88<,,&**,::2221111=$@+#++#O.#====*%**,<136664<,2665666262626666621113231<122333<231<32366666665353<6q63,5q97qwqqrwww09w097qw611<,<25296663666343666679999000r0qqruurryyyiupspidpiididpiiyyppypipiiyyii0y09909tq322=22,<<2226767656635=,62366633333<<3,2,2,322,,2,111381111181111111111,1,,,,22,221331828595566666696655669ww00wwwwururryuuuuuurrrrruurrrryyrrurrrrururuuutiir+:==:++:==::=:::*::==-+-+,:::1>125116881111==:=@o5uypyyuyyyyyiiiiiiiirr0r0000099900999656600rwwwewewww990966009099669966690q06626656655636366666639266290uddpppiuuywwywwwrwyruyptwuwuyipiiipddddddhhhkkkkkkkkkkkhllkklkkccccccccccccczcczzzzzzzzxzkzccchhdhdhkjkkjkkkkkkkdjkhkkkkkjhkkzzkzlkklzfzkkzzzkassusiiu0rrrriiipiyiiiiiiiiiiiyiiiiiyyiyiuuuutuurrrrrrr0ruuuuururuuuuuuu0rrrw0r0r0rrtrryturyiipiiuppidisdpsipsppurrrwruishjkkkkhjhhhdhhadpppppiiiuuu000999w9w9936766666665666699909900000wweeewew96666",
"kkzkkzkkjkkkkhkhhkhkhhhhhdpphpppdidddpppididhddpiuuwuwwuwwww00066669999900000r0rw0097990990000990w9000wwqrrrruidhdddkppdhphphhppdhkzckklclkczkzzzklzzzzlkjhkkkjkppipdhhkkhdpaiipphs6<<2<222212322133<<<232222222<,<669999999000970qwqrrurwr9u098000ruu0t00989000969:1,32==2221:21*===,*:==1,,*:,11==%%##=11==,:;,*,15::2=**1::5121111:&$#$@@++O%%%&&*%**,1<36652<<<66556323<6296666211112<3<<1333<<<2<<35636666665534<6w9<:6q07www0wwwq0w99wq7qw112225539669997663466997907qw0wqr7q0uiuriiiiisppdippdidiippiiiyiipiipyiyiuu09009rww96112,<<2255699655652,18<3563<<<23<,,2,2,2,,22,,,,13313311111,,1,,,,,,,,1,,,,3=2<2133228565852566666666589w9690wwwrrurruuuuytyrrrrruryryrrrtyrwrrwruururuuur0++===:@====*==::**:::=::*,::121<56622682,1:&**+O$6yypiyiiyiiiiiyiiiiitr0000r00990999999967000rwwwwwewwwq0600000999q96666690q06666266635666666535966666980uddppiyywwwwwyurwwwwwyurtuuuiiiiiippddddddhhkhkjdkjjjkkkkkllkzlcccccccccccccxcczzzzzzzzzzzcccfhpsppipddppipjhkkkkkjkkkkkkklkkzzzzzzzkzzxlkzzzap0uuuuuuirrruuiiiiiyiiyyyiyiyyiiyypyyiyiyuuuuruurrirrrrrr0rwwrrrrrr0uu00ur00rr0r0rr00rrruiuyypppyipiiddidpippsppurrrrrruuhhkkhkkkkhdhhpddapppapiiuiu095859632<<266366665525563666669990999777q79963253",
"zkzzkzlzkkkjjkhkhhhhkdhhdddpdaaiippapdphdddhhhddhiwurwyywwwwqw0969609000wwwrrrrrww006090900r0r00000000qwrwwuwyidphhhadddhpphhhhhhhkklzzcckkkckzkzllkzzzzkkhjkjkhpippahhhkhhppippppu6>424222313123333<<<233333211,<166969q9790000990wwwwrr0090r890r0ut00u005,8000666:,:33==1211,21,,::,:,218===128=,=%##%11,:,,,=:&=82::<:::,::8222<21:**&&#+@@@&&====*%&,<3636222<<6635683346396666<<1133212<23<2<1<<1<35626666366534<36q3<6w97qwwqwwrq0w9qq997w2228866936696qq96336qqqwqwwtrwrrr09wussspiippippiddidiidpiiiyiiiippyiyyyutt09908ww9qq<,,11122566996253541,6<3524,:,2321,,2,,,2,,111,,113131111111,1,,,,,,,,,,,11<<<11222,22285558565666666690006wwwrrrrrrruuuutuirrrryryrryrrryyrrrwuuuurruuurw0*@=-*=++*;;*==:;1:::,,,:,11:211<6664698<,>*-=-O 0riipiyipyiyyiyiiiipiiu00000e0000999590000wqwwwwwwwwwwww999000099999966660009666633665366666669666668999uipppdi0wywwwwrurrwqwwyruuuuiiiiiipppddddddhhhkhhkkjjkkkkkklzkzzlccccccccccccccczzzzzzzzzcclfddpdiiiiiipiwyiphhkkkjhkkkjzzzzzzzckzzkzzzzzzzzkdiisiisu0uurrruiiiiyyiiiyiyiyyiiiiyiyipuiuuuituuruuruuyyryruywurruurrr0u0u00t000t00u0utyrrruuuiipiiyppisdidpippppdyrurtwruuhhkjkjkkkhhphhkpphppdpiyiiu055766224<<266366633333556669696699776557666666625",
"zzkzlkkzkkkkkhkhhkkjhhhddapppppppdhhddphhdhkkhhhhiuuuy7ywtwwww0099000000ww0rwrrrtw009000000ur0r09wwqwwqrrurwyuypdaphdhaphhphpkhhkjkkzkclccccccxkkkzzzzkkkkkkkkjhpapddhddhdpppappipw5365222223231325532222<2321211<2669990060900099000wqwrr090r9000r0u0t0008,2900623::*12&&,881=21,,:,1=,8=8=2=1388,=%##*1111,,,,:=:12::<::=>::52221221:=&%#@@@#*&====**=<<266322332363663<2<6696996<<111333131123<<<3<13536656665543<324w63qw77wrwwwwwwwwwwwwqqq112883663366666q7660wrqrruuuttur0q9rrrusiipipiiidiididdipipiiyyiiyyiyyiyuruu9902999wq32<222<25669966552<,,2,252<,,<333222,12,22,111,=1,1,11,,,,1,11,,,,,,,,,,,11<<<12112,,4245555556866665590090wrwtyrrywrrruururrrrrrrrrrrryytwrwyywuuurwuutuur=@=@+==-****=;:=1::=:,,:,11,<1<566856665,1*;,+O&iiuuippyyiipiiiiiiiiiiir0r000000099990wrwqwwww0wwwtwewwwww090w0099996969qq009666969993666666663666399990uippahpwwuuwywwuqwrrrwwrrwtuuiiyiiipdpdddddhhhhhhhhhkhkjkkkkfzzzxccccccccccccccczzzxzzzzkxczdpiiiipiiiiiityipiphkjkkkkkkkfzfzkzzzzzzzzzzkzxkaiuututituuurrruiyiiiiyaiyiaiiiiiyiiiyyyiuiuuuuuruuruurrrr0y0uuruuruuruuu00ur0rte00r00t00yrru0rrippyydiiidiipispspdretrryuwuhhkkkhhkkhhhphphfpfppapiuuy97997656w966669q9665555656669709999909q99999796653",
"klzkzzkkkkjjkkhhkhkhkhhdddaphdpppdhhhhhhkkhhdhhhhiruiuyywwqqqww000000w0w000wwrrrwww0000000000r00q0w0wrrrurrruiipddhhhhdhhphhhhhhkkkkkcckcccccckczkkzzkklcjkkkkkkaddddaddappypppppp76rw553323322333535553222232212,26993996669000990wwwwwr008rr9rrt0t0000002:1899921*:=11=%,211=23,,:>2:,======12=1==%#%*=,111,,,,::22,:<:,:22>2552<231,:$%%#&#%*%&==*%*81<336625322652662,<<62656663<<312313231<3221<<3366266665542355339767qwwwrrq0qwwwerwww7q71,28632536666367066090qwuuuuuryr970errusiiiiiiiiidiididpiidiiyiiiiiyiiyyirt08996rq9rr999632<<5666976552<,=2,2522,=,<3222<111,,11111,=,11,,1,=1,,1,,1,,,,,,,,,,,11<<,11<>,,1455565665656885566660errrrrrrwrruuuurryyyrrrrryrytwrryyrrrwutrruuiutp2@+,*:***;==;==::,::,,,::<11<5255665695<11**:@&eywwtiipipyiypyiiiiiisiitr00r0r0000000wrwtwwwqwwwwwwwwwwww990000969999699qq969669099996676666666666669000rsdpphpywwywwwwwew0rrwwuwruuiyiyuiippddpdddhhhhhhhhkhkhkkkkfzkzzcccccczzxzcczxcczzzzzzzzccckhppipidipipiiuuiiyphhkkhkkkkzkkzkzzczzzzzzzzzzzkdiui000utuiirryuiyyiiiyyiiyiyiiyiiayiiyiuyuuuuturuuuururrrrruw0rrru0uru00u0u0r00000r0tu0urrrurryippiuddipsddpispippiqrrrwwwrphjkkkkkkhhhfhhpkphppppyrry90009669ww96q99q96655555666999909w900wwwwerrww7665",
"zkzzzklzkkzkkjkkkkkhkhjkhhpdhdhpddhhhhhhhhhdddddhiiiiywywwwwwwww00qwwqwrr0qrrtrrwwq0000000000rrrw09wqwrrurrruyiydhhddhhpphpfhkhhckhhkccllkkckccczlzzzlzzzzkkkkkhaddpddddppppppiipd76gs5523332332663556533333322222269969669000099qqqqwwwer090t0r00000000091:185902:*:=1,==,111,23,1:,1:>====1=,=====%##%=,,111<<111881<<:8129>>252<522,>#%%=**&=#%*&%%*=<<235666322326562<3<9696966<<21332322122633333386366666663<<355469997qwwrqw0wwwwwwrw9w73322893355769666666667699urrrww7090ussuusipppppppdispidisipiiyyiyiyyiiypiiu008006r99qww90965255666666632<1,5:3535,,,,,,12<1213113111,1,1111111,11,,1,,,,,,,,,,,,111222111,,12<5566885556606666660wwwwryrywrrurrurrr0rwryrrrrtyrrruywrrtuiurruuuus8@@,::*==;:=::::::::1,12:11125556696696<51;*;@*siyusiyiiippyiiiidiiisiiitte0r0rr00wrwwwwwwuwtwtwwwtwwwq9w909000969qq8990096666999999966963966666666900w0rshpphkpywwwwyrq0ww0qrrwrwtiiiiiuiiiisppdhphdhhhhkhhhhkhadkkkffkcccccczzcccccxcczzzzzzccvckkhdiiiiiiddppiuwiyyyhkjkkkkkfzzkzzzcczzzzzzzzzzkhdiisiiuiisu0ryuyiiiyiyiiyiiiyiiiyyiyyiiyiyiuuuuuuurruuurrryr0uuuu0ru0ruuuru0r0t0rr00u00r0rrruryuipiiypiiidiipuipippywrrqwwyuphhkkkjhkhhhhhhphkphppiuuuy0y0776239966w99qw75222323336699909900twqtwrwew9662",
"kkkzlzkzkkzzlkkkkjkkdkjhhddddapddhhhhkhkkkkhhkhhddpprwrrurwwqwww000urr0yr0r0rru0t000000000000000qwwqwwwrwruuyiiidddddhhhhpddhdhkkkkkzzzzkzzkkllkkzzcklckvjkhkkhddppaapppppsidiipsi04809612235882255955<<22812111,,,336696690wq00wrwrrr00wwwqwwww7rwwqw7q062=263638=&=#11=&11=1=85262,,,,=====%=1===%*%&=11,:,1,=1:18<,2,,,22*&12652433<1%=%%==*=%*,*##&,2<2566668332265642226999566522222552255265523366999909654255555556690000wwwwwwywwwwwww7w2633w6696699659990990r0uuuuurruuiiiiiyiwiiiidiirpispppppppiiiiiywituuuisii9797y69e9ww9676929<6599962222,=,1,,882::111:88111<:<,<,,1,11821111111::11:1::11:1111:11::1111:1::1133332526656w96366q7wrwrruryrryrryrryrryrrrrrrrrrrwyrwrrururuurryuuu<#=:==*==*==,=,,,===,1,,111122<<3676334;===@*O,stuwruiiiiipiiiyipipppppiyuuurrwwwwqwqwwwwrwrwrywwwwwwwww9wq779q90999900998668000800t098522626526639qrqwqpphpakppiq0wrwwwrrwwwwrrrrrituiiidiiddhsdddddhdhhhhhddhhdkdkhdhhhkkcxccxczzzzzzlxzccccccvvkiippiiiiddddiirriiiyifllllkkkkkkkkkkkzkkkkcjjcjdppyappyypiyypyrriiiiyiiiyiiyiyiyiyiyiyiyiyiiyyyyyuurrryururwwywrryrrrwwyrywwwwwqwwwqwwwwwrrrrrrrrspsypupuppppusippdit0wrrrrressjkkkkjhkhkhhhdhhhhhpsisiuq9699966369wrrwwq932225662367yq99wwwwyrwww9yww7999",
"kkzzkzkklkkzzzzkkkkjkkdhhdahhpdaphdhhhkkkkhhhkhhhddppsuuurw00www00t00rrrrrryrrrr00e0000000000t00w0w0wwwruuiyipppddhahhdhhddhhhdhkkkkzxcxzklzkzkkzzkkkcccjhddhhdapppppdppdppdiddpiiu<:22221223222855555<<1111111,,,,2366666600000ww0rqr00qq99wewwqwwwr99w0q2=267038=&=&11=*11=1=12<3,*:**=====%=======&==221,,21,:=,2<,,2::21*&,2552233<1===%==#*&**&#%&,2256665533<2<225622266686665552356522252365356669999w993225533556690w0w07wywwyuwwwyywwwy666906696696939w9059rruurrr0rruuiiipiiiiiiddddddipipspspiipsppiiuuirwuutriwrrwy69rwqwq66696q29569633321,=11=,282,::1:1:8111<<<<<,,,11181111:11:::11::111:11::11:11:1111:1111123133352565r7636966wwwrruurrrrrrrrrrrrryryrryyrrrrwwryrruuuurrrituuq=*:,<*====,,<,=,,,,,11=111124343366567<1,%OO=6iurwruiipiiypypiiyiiiiiiiuuuuurwrwwwwwwewrqrqwwrwwwwwww9999q76qw700999900997599809000095866966969999qwwwwphphddppptwrrwwrwwrrwwwwrqruupiididddiihihddahhdhhdhhhhhjdkdhkhhkkcccccczzzzzzcczzcccccckkkdiippipipiddipuriiuihhfdkkllkhhjppiiikddkkccccjpppiipapipiyyyrrryiiiyiyyiyiiiiiiyiyiyiiiyyyyiyiyyrurrrruuurrrwwwyrwwyyrwrywww0wwww0wwwwwrrwrrirrrupiryppupupusiiipiur0wqw0r0rshkjjkkjkjkhhhddkhhdppiuurr096666666369wq7w79962269369qw99wrywyywwwwwwywwww99",
"klzkzzkkkkklzkzkkkkkkjdkhddhddphhhhhhhhkkkkhkhhhdkddppsuprwwwwww000ruurrurrrrry0t00000000tr0u00uwwqrwwetuuuiiphdhhdhhddhdhhkhhdhkfkkzzzzzllkzzllkzzzcckckhddpdppypppppdddsdidsiii09>,82<12222222598552<<11,,,=::,,,<36626606090w0w000ww0w067wuqqqwqwq76q0022280681=%=&8===111=112,2,****==*%%%&===*%*%&,2211,1,:,=:2::<<:,11**:86533632,==*#=*###%$###*,<<26965522<2222665366666666525566662455255566666999w0w9666666363669900007wwruuuwywywyww05669w76979699ww09099ruuuwruuuuiuiipiipiirdhdiiidiipisppiippddipituirwuuuriwrwwywwrwwwq69399www2<7622321,111,18221::11118221<,,<21,,1111111:111::1::::1111111:1:11::1:1111:1111212325252266267wq7wwywuurrrrrrryyrrrrrrrurrrrryrryywyrrurururuuitut=%=,2=&>===,==,,=,=,1,,1111234<6663266<3,*22trurruuuiiiyiyiypiypiiiiiiiriirrrrrrwwwwwwwwrwrrrrrrqwrwq7999q679999009969056699000000095886669666600qqw0qtpphphfkpdpirwrwwwwrrwwwrrrruiipiididdihsdpddphdhhphddhahkkkdkhkhkkkkzcxkzzkkzzzzzzcccccczczdiiippiiiipiiiiiiirahlkkkkfkkllkkkkkkcczzkkkzckppayipipyyiuyurruyiiiiiiiiyyiyyyiiiyyiyiiyiyiyuuiuruurryuruuywwrryrwyyrwrrrw7wwwwr7w0wwqqwrrrrrrrrippipippuppiisypppur0w0rer0rdkkkkdkdkhhkhhhhhdddppyrwwww096696663679qwq7q76567766qwq59quyryuwwyyywywwwqww",
"kzkzzkkzkzzkzzlkkjkkkdkdhddhhdphhphhhkkhjckjkkkddddpppppprwwwwwq0tr0tuuuiurrrury0ute000000000t0tw0qwqwwwruiyypdidahdhhddhhkkkkhhfkkzzzzzzkzzzzzzkzkzkklkhhddddppppdddddadpippiiisy822924111228888582822,,,,::,::,,<2625266666000w000r0qwww67tw7w0wwqw07qwq33336381=%=&====111===,;21=;&*&%*%%=*===**=%==2221,::&::,<:<22111::*:26666532===%%=%#%##@##$*12435633522222666663666967655225666653565655336669999wwww99069663669900007wwywuuwwywwyw0769690967w999w9900099trwuyyiisdiiipippphiriididdiipippipipiipippiiiurwuuuiiw977wwwwwwww99899wwq5<3522321,12,,:2221:1:::118221<<:<,,,:11:1111:::::1::::111:1:111:111::111:11111112335235252426qtrwrywrurrurrrrrrrryrryrrrrryrrywrwrrrrrrurruuruiure=#%,2,==<<<,,,=,,,,,1,,,111<333635<<36==O*ttsywrruuuiiyyiiyiyyiypypyyyyiriiuurrwwwwwwwwrqrwwrrrrrrrwwq9www790q990999690969900000000546966526636qqww00wiaddhhpkpdkdrwrrqwwwwwrpprrryippiiidiidihpdddhphhhhadddhddkjkkhhkkkjkzxzkzzzzzzzzzzccccccczzdpiiudpiiiiiiiuruuishkkkkkkfkkkkkjkkkahkkjkzchhppayiipyppiururuyiiyiiyiyiayiiiiyyyiyyiiyiyiyiuuyruurrrruuuuwrywrwwryyrrywrywywwwqqwwqwwrwwrrrrrwyripyyiuppppuuippyduw00000r0widjjdjkkhkhkhjhhdpadpdpiwwwr0996666633377q7q77357qq96676569yrrwrwwwryww9wqwqw",
"kzzkkzklkkzkkzkkkkjkhkdkhdadhdpppphhkhkkjkzkkzjhhddhdppusurwwwww00utyuiiiuuuyyrrut00000000000t00wwqwewwwruiuidddhhdhdkddhhkkkkhhkhklcczzzzzzzzzzlzkzkkkkjkkdhdddpppaadddddsidiiiiid01,:82222532322222222=,,=:,::<122356666990000w00wwwwwww00wewwww00r970w6332262q:*#=&=&&%&==%=&*%,,==&*=&&======1====&,2222,===1:,1:<22,1,::&&1566533====&===**####%;1252255225123366666666696699332<4566632565255663669qwwwwwrww90999970900000wrurirwwwwwwwuw62996076999qw99990099rr0wppdddpppiipphhisiiiidddippppssspdiiiiiiddsurruissiqw77wrwuwqww7w9899tw92324222,:111:,22111:,1,,18222<<:::1:,:1,1111111:131:::11::1:11:1:1::1111:2,,111224343552<386qrrrwrwrrurwrrrrrrrrrrurrurrrryryrrwrwrywrruururrruww8=%*=11,,,,,,,,,,,,1,,,,1,,23322323223<*&O,riwiyrruuuiyiyiyiyiyiiiiyyiyiriirirrrwwwwwwwwqrwwwrrrrrwwwq99qww09w000999999995000r000w99555995968999wwww00tiphphhhhhhkdrwww0rwwwrddhpiyuippidiididddppdphhddddaddaddjkdkdkkkjhhkkczzkzzkzzzzzzccvccckspyipdiddiiipiiuuwuiippipahkkkkkkhdpiuyippppdhkpiipppappiiiiurryrryiiyiyiyiiyiyayyiiyiyiiyyiyyiuruuurrrrrruuwryrrqwwrrrwyrrqrwwwww0wqwwwwqryyrruurwrppiiiipppupusiyiiur0000w0r0yijkkjdkkhkjhhhhhhhdhdpprwwrw096666633266977963<396323625259qrywwyywwwwww99ww",
"kkzlzlkkklklckkkkkkjkkkdhddhhapphhhhhhhkkzkjkkjhkhdhddpustrwqwwrt0rrriiiiiiuiyyyutuur0u0000t000uwwwwwwwwwuipdhhhdddddhdkhkkckkhjllklzzzzzzzzzzzzczkzlkkcckzkkkhhippadddddsppiidiisj022,28222<<1211111,,<===,::1,2,,8362696690qwwwww0ww00wq667967ww00ww600323<2863:*#*&&&#%&==&=&#O===&#%%&=&=======8:&&=2212,,,,1111,282,2,,1=&25653323==%%===*=####%;1255<5225522236969666666669666224556522652636666667wqwwwqrqwwqwww00000qqrqrurrwwieyiiiwuw66996qq9w7wqww99w0099009rdiidppiippppidhhhiuidddipppphppidsiyuippstywwiiitrirwrwrwwwwre670296rw08522222,:21:,112281111,,182822<<,::11111:11:111111::::111::1::11:111:111111,,,11<<<255255238qwrywryrurwwruuuruyuurrrrwyyrrrrrrrrywwrrwuuwruurryy9q<%=,:2,==,,1,,,1,,,,,,,11<<2<32212223<&&,rquwprtuutiiiyiyiyiyiyiiyiuyiuitriitrrywywwwuwrwwrwwywrqwwwwqwwuwqqwww098990990000r000r099858969299890wwqwwyidhphhhhhkhhksywww00rshzkdappiippiiidiidiiapppppdaadpdpdddkdkdkdkkhhjkzccclkzzkzzzzzcccccckkdyypdydpppdiiiiiuuippiiphkklkkzckkdpiihppppiidiiiiaiipppipiurrryruiiiiiyiiiiyiyiiyyiyiyiyiyyiyuurruurrrrurrrrwrrwywrrrrrrwrwwwwqwwww7wwwrwwyrrurrrripyiiiipupiiiiiisu00000w00w0uhkkkkdhkhhkkkhkhhdpiiysrqrw0996363422333669962232222232229wwwyyywwwwwwww99w",
"kkzkkzklcklckzkkkkkkkddkdadkhdpphhhakjjkzjzzkzzphhhahhpsdiywwwwwrrrryiipdiuuyuyyrtu0yrrt0r000ru0rqrwwwrwrisddhfhddaddhhhkkhkkjkkzzklzxxzzzzzzzklcclzkcklkcczkkkkpppaddddpppsdddiisu9282228121<<1<,1::::,:::::,:,2,,23656669900000r0rwq0006559967wr00rq90w236<2066*:$=*%&%%&====&#O*=&*%=%&&&&========%%=2211,=,18118<881:8,18:=35652238==##=====%##%%*;,655633364226699766626686996652235655266266669666q7wwwwwrrrwwqwrwwwwwwrrrruuwwiiwwirwuuw526325779wq9wrwwww090009ippdppppiididppddhpuipdddshpppppppipiiippuiw00riyywiqwr9rwwtww9690998r0w9222222,:811:222211,,,,,,<22882<::11111111::11111::::11111::11:::1::1:11:111,11<<<<435352,23qqrrrrwwrr7qrruruurruyrururrrrrryrrwwrwwrwurrruuyruuqq2%=,,8=,,,,,11,,11,,,,,11,,232<21<2,2<#&9iryutwuuuutiuiyiyiiyyyiyyiiyiirriirrriuruwyuwurwwwywwrwwww9wweyrwwwq0900900000w0000000w095555922829900tq0yyusdphhhhhhhhkhdyw0w0rphjjhakhdpiiiiididdiddpppdahdhdddppddddkdkdkkahkkccccxzzzzzzlczzcccccccccjdiiiiiiiipiyituuispallkllkkkkhjkhdaapppphkzcppiaiiipppidpuryyyyiiyiiyyiiiiyyyiyiyyiyyiiyiyyirrurrrrrurruurwuyrwwwrriwqyrrwwwwwwwwwqwwwwrrrrrrurwripiiiipiiuiiiiipiuw00000w000yjhkkkkhhhkhkkhhhhppiryrwqwr9696663466633363632222,2222222699wwwwyryrwywqww9",
"kkzzzzkkkkkkclkkkkkhdkkkdddhhppahhhkhkkjkzzjkzkkaaphhdppspuwwwwwy0yriiiidiiuyiyyruuurrri000r0r0rrrrwrwwwrissddpypddddkhhkhhkkhkzczkkzzzzzzzzzzzlccxzckckkkkcclklkkhhdpddppipidsiidj8:225<1111<<1,<:::=::==::::::,,,33623366900000000w006w7<5we99wr00uq9qu36q<2q62&:#=*&*%&%1=&=&&#==&*==&==&%=*%&====%%,211<,==,1121<881,8118,&3265<28===%&=====%%&%&**:66697535<2236997652669966696523666655265669967q79qwwwwwrrrrrrqrw00wwwrrrruuwwwiuwiutyy05<5<>2656w67wrrrwwe00r00ipppdpppddididipidiiiiiidppppppipyiipdidisiq07wrwr6w76w7iwtwwwq660202t9w952<22<::81:1223381:,,,:,:>1221,:::111111111::1::1111:1::1:1:11:111::111:>:,,11<<4<<433<52qqrwwyrryruy77rruuuruurruwuwurrurrrrrrrwrrwywurytuytiirt2#*,:2=,,,,111=1,,11=:,11132<2231,,,<;@6uwywuwituyruiiupyiyiyipiiyyyiiuirrtrirruwrrwwwuwwrrwryrrwq9qwwrwrw00wq0000r0000yy0rutr0e0958995999990erw00wuupjhphhhkhkhhkkpwwrwuhhkdkklkfpiuipiiiiidippppapddpddapppddddkddkkhkccvcccxclzzzzczcxcccccckccjpiidiiiipiiiuuiyyijllkkkkklkkkckzkkkkkhhkzzzkhiiiiappppppuruyyyyiiiiyiiiiyiyiiiyiiyiyayiyiiyuuutuurrrruuryuwyywywwryrryyrwwwwwwwwwww0wwwrwrrrurrwiiiiipippiiippiiiuww00000wrwihkddjkkhkkjhhkhhhdppyyr09rr9666766669q776796622322,22<<259966969wyryywq999w",
"lzzklzzkckclkkkczjkhjkhhhddhdapphhhkkjkkkkcczkaphhdddppppiwwwwyy0uttuisddiuuiiiyiru0uuuu0urt0u0rrwwwwyiysuruddhippddhdhhhhhhjzzzzzzlkzzcxlzzlkkkzkkakkkfhhhkkjjkhkkkhddsiidsdiddishs0:,8:111:111:=======;,:::=,1,222636366669096000e0r00w969wwwqqrwqrqwqq063<386,*&&**%*&&&=1=%#&****=****::=*=======&=88222111281158555,<<2,&*2556,3<<&*%======&&#%==11566356633<,<866396625699qq666626666626626266797q90wrwrwwrrrrwrrr0wwrwrwrurywwww7uwwwiiq59w5<75<<2ew0rwrtee25wpppdsdsdddiiddididipddpiridsspppspsiiiippdsiiw777yiuuiw9wuytuwtwq060657wr0211:122:,111<13328<:>1::,,,,2821:1,,,<122,,,:::::::1::::::::1::1:11:11111:111>111<22222233qwwwtrywwwrrwryrrrrrrrrrrrrrryururuuuurrrrrrrrrrryuuutuww&:&=2*=,,,<,<,1::,,:,,11<<2<<<312:5,=%rwwyruuuuiuuiiutyuuuuustirrirrruirirwiwiwwrrrwrryrywywwwwwwwwwu0t000r9999900r0wrwwqwwiww0922696657qtrrwrwwwwwppkhhhhhhhkhkdkpwwwrrkkkkhkhkhiyipiiipipppdspspshhpppppdpdpddkkkkkkxccccccccccccccclzzzccxczzzkapiidiiiddidsiyrrihllklkzzlzzzkzlkkkkkkzzzzxcaiippiypppdpuuuruutuuyiiiiyiyyiyyiyyiyiyiyiyiyiururyyrrwyrryrrwyrrrrwrrrwwrwywwqqrwwwqr0wwwwyrrrwrruiiiiiipiipiiiippur0w0w0w0r0ypzkkfkzkhhhkhhhahhdapaiwwwrww663336366666896673663255652376q92699qrtr9uyqwww",
"zzkzzkkzkckcccckkkhkhkhkdddddpphhhhkkhkkkkkzlkkkhhdahhdapirwwryruuuuiisddiiiiiiyuru0u0turtr0u0u0rwrrryiitsiushpppadhhhhdddhdhkzkkzklzzcchkklkkkkzkkkkkfkhhkhkkkjkkkkhgdddsiddiidssiy05<<:111:11:========*::=*:=><,236636626609999000r000r999wwqqw0rrwrww0664<<62:*%&*%*%%%##%&==%%&%%%*%**=:===*====&&=12211122281225955<3332*;8556<3<<=&%======&==%=%==655666668<<<86669966256679656629662666627667966q0wwwrwywrrrwrrrrrrrrurrrrrwwwywwwwwwtw06992<32<<,66wuwrw9e69udipdiidddipdiididididdsiiipspppspspiiiippdddiyyiiiputiq97ywwwwwtr06w960wr09282182:,::::<22,2<::,,,,==,8221:181<<22111,:1:,::::::::::1:11::::11:1::1::1:111><<2<12223qrwrrrwyrywwrrruryrryryyrryyryyrrrrruwuywwyrryrrrruuuuurw***11*,==,<<<,1::,1,,11,<<<<<<333363==wrwrruuuuuutuuuuuuuuuuuuriirrruurrriiytyyrywyrywwrywwwwyywwwyu0ur0000099590rr00rwwwwwwwe98593963290wer00wwqqtphffphhhhhhkhakdqrqqwkkakhkhkhiyiiipipiiipipsppppshppadapdpdgdkkhhkccccxccccccccccclzzzccccvckaiiiddiiiiiiiiiurridhkkkkzkkzkzzkxxlkzzkzzzkkcaappaaapiippiuyruuiuiiiyyiiiiiyiiiyiyiyiyyyiyiyruuuuyrrwrrrrrrrrrrwwryrwyrywwwyqrww0w0rwwwwwwwrwrruuypipiiiipipdpipditww0wwwwwwyhkkkkhzhkkkhhhkhhdddapirywww066636666666669773396656553526679269699uw3www9wq",
"klzzzllzlkckkkcckkjhkkkkdddhhddhhkkkkkjkkzkkzkkphhpphhddhsrrrrryssuuiiidpiiiiiiyuuuurr0ut0t0r0uurrrrrpiusiuiihdppdahhhhdhhhhkckkklkkxcccadaklkkkzkkkkkkkhkkkhkhkkkkkhdhdsiiiiyyyd092992:111::1::========*:::;:::,222566656669009990000rrr93wwwwwwwwerwrw03634232*%%%&&%%%%%&&%&=&%&%%%%==&=:========&%=12221222222255855,233<;;9656<3<<=*%=*===*%==%&%&=6356666683<239366635666939626656666966669999977900qrrrrrrrrwruyruruuiurwwwwwrwwwwwywwwq7996<52<<263wpww080ewppipdiipipiiispiidspsppipiiiuppppiupyiiipppdiiiiyyiiirur77rwwtwwutw6w000rtw012112212:,1,122251:<:::,,,,11,,:2<<<122111,,,11:::::::::::1:1:::1::::1:11:111>11,<,2<2226qrrrwrrwrrrrwyrrryrrrrrrrrrryrrrryuuruwwrrwyrrrryuuuuuurr*&*=,,:,=,<<<,,,,,,,,,1,<<12<<,26723%1wyyyrruuuuuututuuuuuiuuurtirirtrrrirwriwryrwywrwwrwwwywy0wwywwr0rq0w0959999r0000wq0wtww759996932600ww000www9wphhhhhhhkhkhkdkdwwwwwhjhkhkhkhiyiiiiiiiipppsppppppddddddpapdddkdkkkcccccccccccccccczzzzzzvzczkpuyppddiiidiiuuuuriahkklkkzkkczzkkhkakkkkxcxxkpiapppipipdpiyyrtuuiiyyiyyiyiiyiyyiyiiyiyiyyiiyuuruuurrrrrrruywrrywyyyruwywwywwqwwwr0w0wwwwwyrruruuuipiiipiipppiiiiiir0000w0wrrijkkkkkkkhhhkhhkhddhddpiirrrw9666663466669969666652226226266ww266396qr36rw990",
"zkzkkkzkkckclkckzjhkhkkhfddddddfkkkkzlkklkkczkffhhhhhhhppprwrriuuuusiipidpiiipiyuuuuuuur0r0ruruurrruiypiiiuusddpddhhhadhjhkkkcckkllzzcccddkzzlkkzkkkllkkkkkjkhkhkkkdhddsiuiiirrrh0<:458<:1::1:;@&&======*=;****:,<223565526690099000rre0ww99wwqwwwwwwwwq00006q6==&%%&&&%%&=1*&&%***&%%%=*&&:====&===&==122122222<1125552*,32<*;9356<3,1==%=====*#===*%*16555966683<36662255566906663662669629699999wqq7qwqrrrrrrrrirruurruuuiiurwwwyyryruuuwwww6696655246640rw902wtuipipdippdsdidiiddididpppdiiuuppppsppiiipphddiiiiyyyysuur7qrquwwwuuw90q0rrrww182182269992899309821,,11==,,,11<::,<12211,1111,11::1:::::::::1:::::::1:::1>11:1,,,,21113qrrwwyrwwywrywrrrrrrrurryryrrrrryrrrruwyywyrwrryrtuuuuyer,%==*,::,,,,<,,,,=::,,,,=,,1<<23932,%9rrwrrrrrrruuuuruuyuutuuuirrirruurrwurrwurwrrrwryrwyrrwwwywwwwyr0w0wwr0909990rr0ruwwwtre99568669900wtrrrwww9wiphhhhhhhhhhhjdzdwwwwwhkhljkhkaiyiiuiiipippppsspppppdaddddpphddddkkzcccccccccccccccczzzzzzzxzzkkayyydiiddidiuiuuiiahklkkkllzzzzkkkhkpipdkzzkhdipppiyppippiuyruruuuiuyiiiyiiiiiiyiyyiyiyiyiyiuruururruryuurryyrrrrwrrrywywwwww9ww0rwwewwwwwyrruuuuiiiiiipipippiipsur099000wwqpjkhkkkkjkhkhkhhdddhadpisrrwwq963666767666699663665555536266wy566663qr69uq9ww",
"kzklzllkkckklckckjkkjkkhhhdhadddkkkzczckckkklkfhkhhhhhhahsrwrryiuuiippppdiiiiiiuutsuurr0rrrruuuurrrirpyutiiiappipppahhddhhhhkzkkklzzzcccfkkzxkkzzkklzzzkkjkkkkjjkkkkhssssiiiirtuhi082282,:::11,@=&=&=*==*:,,:===,<2253565626900900000trrw99www0w000q00q0w0q0683<=*%****&%======3====%%%&*$*:*::*:=======2221122212125252:232<*:952623,=*=%=%=%*%%*=*=**25226963693269666252269006965652592998989070qqwwqwwrrrrrrrrirruurrrruuiywwwruyrrriutyiw6<3666763<88<9r0966tiippypipipdipiididididdsispppruipdppspuiiiddsdppppiyiyirrrwww0uwwttywwuuuuuuuuqwe996259q9223930092<,<1,,=1::11<:::<<<11111111:::111::1::::::::::::::::111:11:1,<<<<122<7qrrwrryrrwrwrrrrrryrryrwyrryrwwwyuuywuwryrwryywruuuutrww<#&=*,,,=,<<<,,1,,=,=,,1,,2<2<63q<2==rrrrrrrrrryrryrrrruyytuutirtrurrurrruywwwwryrwryrrywwwrww0y0yrr0rrrwwr009999wrrwwtwwquww6956659900wrrrwwwwwwwiihhhhhhhhhhhkakdwrwrwhkkkhkhkhpyppupppippppspppppppdpaddddddddkdkzccccccccccclccccczczzzzzzzcvckpuiddidddiiisiispkkklkkzzlzkkzzzzzzkhhkzcxzkdpdppiypiippiyyrruuiyiyiiiyiyiyyiyiyiiyiyyiyiiyrrurrirrrrrrrrrrrrrrryruwrwywwwywqqwwwqwwqqwrwwrrriruipiiiippippiiiisire999000w0hkhhkckkkhhjkhjhhdddadppdrrww0998366666966999863963636636536yy596665qu99uw9qw",
"zzkzkxklcklzkkckkkkjkjkkkhhhhdddkzccccczkklkkkkhhhhhhhhdpprwrupiuiiippphsddiiiiiuiuuiuuu0r0tuuuusrrriupuissippapppaaddpapphjkxkfkkzzccczkfkkzkkklkkkkczkkkkkkkkjkkkkhsiiiurturrusdi064<<+*;:,1,@==***===*,;*===,<<<555356566600000000er0w00ww00000000000q606662==*%&**&&&===2=38=2==*%%&:::1:11:111====182222222212225551333<::3526<3=:&=%*%=%&&&=**=**,5<26966986669966966669996965622595939900760wwwwwqwrtuiuriirrruiuwtiuuiiwwrrruurruywwww5<3269665<12<9sq960iiyypyppiiyididdididididdippppsuiippppuiiipiiddppdppiiiiruiwwuruwwwuuwwuiisisisusttuq66332>=,115852,,,,,=:,:::18<,<21<2,,:1111::1:::::::::1::::::::::1::::1:111<<<21221<27wrrrrwywrywryruryrrrrryrwwwrrrrrruwrwwwwryyrwwyruuuyrew3%***,==,,<,<,,,1,,,,,1112252362q<<=9trrrrrryrrrwrwryuuyttuyuuriirruurrrrrywuwwrwrwrwrrwywywywww0w0rrr0rrr0090900wrwrwww0wew769966290qwwrrwwerwwwwwphkhhhhhhhkkkdjdqrwrrhkkkhkkkhpyipiiiipippppipspssppppddddakddddazcccccccccccccccccccczzzzzvcczdpiiididdiiiiiiiishkkklkkkkkzkzkkkkahhdfkzzzdpppapiapiipiiyyrrruyiyiyyyiiiiiyiiyiyyiyiiyiyyyuururrrrrrriuuyrryrwwwrruwwrwyw7wwwqwwr0qrwwwryrrirruiiiiiiiipiisiiiiir09000w0wrdkkhkckzkkkhhkkhhhdddddprrqwq0999666666669689666322,<22262669w5965669r99yw9ww",
"zlkzzkkzkcckzkkzkkkjzkkdkddhhddkcklccczkkckkkkkakhhhhhhhdirwruipiiipppaddsdsiiiisiituuurrrrtruuurruurpyiiiipipaiyiippppyiphhkckkkkzzcccxzffkkfkkkkkkkzlkjkkkkkkkkkkhdiiur00rrrtiidsr84><::;;:,:;&&**=*&*;=;:*=1,<<2556666666900900990000w990w900060990990666686<==%%&&&&*==22==18=1=*%%*:;:<<12121111=18282222221225555518322,,9622<3,<=%%=====%&==****1622996799669099909369q96906266265959990099wwqwwwwrrriiirrirrrrurrisurrrrwwuiurrwttuttw93736q667<2829rrq6uiyuipppiiuiidpiididdiispppsdspppuupddppiiiiddsdpiipiiiyuwriururuiiiitutisiusuiuwuwwiw66:1,:;:,:>582>::,,::,::,191,281<1,,,1111:1::::::::::::::::::1:::::1111111<,<121222467rrwwwryrwrrrrrrrrrrrrwwryryrrrwyuwwrrywwwryrwyrutuurr69&**=,,,,,,<,,,,2==,,2223225556523==tqyywwrrrrrrrwrruyrruyuuuurrrruuuuurruwtwwyyrrywrrywrywwww0yywrw0rrrrr099900wrr0wtw0wwww66992290ww0wwrw0ww0twwwihfadhhhhhhhjdzhwrqrwhhkljkkkhuupipyiiiippppiippppppdpdppdaddddkazzcccxccccccccccccczxczzzzcczkpiiiiidiidiiyyrrripkkkkkzlzkcczkfdapyyyipaadiiyppiippiippiyyrryyiyiyyyiiiyiiiiyiyyayiyyiyiyyuuuurirryiurruurrrrwrrrrrruwwwwwww77rrqwrwwwrwrrriiriyypyppiiiiiiiiiitr00000wwwwijkhzkkzhjkkhkhkkhdapdppswqrq99666666698666976732<,<<<,,2<639q2692660939rq99w",
"kkklzklzzlkckczlkjkzkjkhkkddkddjllclclclclklkkkhkhhhkhhdpprqwsipyiiipdpaddidiiiisiiiuruurrrruuuussryryiiuuiyiiiiyiiiiippyiphkkkhkkzxczzzzkzkzzkzkkkkzzzkkkkjkjkkkkhpiyyurr00rtssihdy925211:;*;:+&&*===*&;:****=,<<25666666666999989990000990096090900997wq6q6q03==&*==&&*==1=118====&%%%$$;::><<2112228828212222252595853962323q052,6<2,%#%%=%*%*==**&:36229996q9666006096369w09696255566588890009qwww09wetiutuuuusrrsuirshurrrwwrupuyrwiiiiiuiww66q67w22q26qrwquiyupdiyipyiiisidipsididppppspddpiripdpiiiiipsddhhpppiiyuwriuuiuiisiiiiiuuturrtwwtwww02<*,<,:<2<50095281:::,:::28<>22222,:11111,::::11+:::::::::::::::::1:111111,<<<1222336ytrwwwywrrrrrryrryrrywryrwrwrwwrrrwuywwwywrwrwwrriurrr6q*&*:=,==,<<<,==,,=222323359986w;q%=twwrryyrruuyryrrutyrytyyuuiriiuruuwrruiyywrwrwrrywwrrwwywywwww0rrrr0rrr955wqrtr0wwwtwwew9622690wwewwrqwwwr0wytwuphhdhhhhhkkkhjhwrrrqphhlkkkkhsiipyiyyiiiippsppipsipapappppdddddkzxcccccccccccccccccccczzzzccckapuuiiiiddiirurruipklklkzkzkkzkzzzkkczckkkzxfpippiippiiipiywryuyyiyyiyiyiiiiiyiyiyyyyiiyiyyarrururrrrrruururryrrywyuwwryywwwrqqwwrw0qwwwwryrrrrruyiyiyyiiiipiiiisure0000q00wikkjkkhkkkhkkhkhkadpppppsrrrrw9999969666666967332<,2,<<<4<537726q669q6<qw099w",
"zkkzzzzzzlzzlzzlzkzkzkkkkjhhhhjkzzccckcckklkkkkfjkhhhkhhdprruiidipipaddddidiiiiisipiiiuyuu0uruuurpyuiyiiiiiiiiiirriipiituuphhkkflkkzzzzzzzkklzzzkzklzzklzkkkzkjkkhdsuu0uiurrruypiddi05452<:;+::*&&==***=======1=,1223366966866899989999969669999006q66666q6666668,%=&%%*===682<212:,,%=&%%,,=:,<:,,*2,23<<<<242552566563257622566222382=#&=%=**&*=*=*=*3733500999969999996399w999555596955999900qw0wrwryrwwuuiiirrrrutrrdddywrq07wruirywypsw6wuqq093<<1333<<996risurssttpiyppippippipppipppppppgdiuyidiiiipipddpiisiippprruuiurrtuuuuryyrwwtrtwtuwrq00900000er009990we92:::,::,<58885811211111111::::::::::::1:::::::::::1:11111<<<<22212<6qrurrwwwywywyrwrwywrwywrwwrwrwwwywwwwwwy0wwyw0rrrruuwww63&***::*:,,:::=:1::11333885556663$&wywrtwwwywrwwuruurruruuuuutyyuyttywuuwyyituryruwryuuu0rruuyywywwwwwwie97wwwuuwwwywwwq99997777wrrywwrywywwwyywuwupkdkkhhhkhhkhhhrrrwiakkjkkjkfyrppuiyyyiippippippppidipdidsdiddddjkcccccccccccccccccxccxcccvczzhpyiruisssiiwiisdjkkzzkzlkklzzkzcklkczkkkccclhppyyipphsypiyyrrrrryuuyyiiiyiyyiyiiiiyiyiyyiyituuurruurrrutiyyrurrrrrryrrywrwwwwwqwww0wwqwwwrurrrriuiiypipiipiypiyiyywqt00w00ihkkzkkklkkkkkkkkjhhppppiirw0rq06679369q9399996833<<2<<,1<255w93669999669r999q",
"zlzzzxzzklkkkkkkkllkklkkjhjhhjhjzcccclckkkkkkkkkhkhhhhhdhirrriipiipppddhdddidipiidiiiyiuiuuuuiiiiuupiipiiiyiyiiyrttutiitppppdkkcklklzzzzzzlkkklzzzzzzzzkkkkkkkkkzjhdiuuiiururuiiidir9525<21;**&&&==&****===*===1112332666669969698599939899669896qq6066q66666666q3*=*&&*===22<,<11:1,=,==&&=$*::,,1*2,12<22242523555666625632257222223<*#%*%=*%*&=*==2:36337999796699w999766999399855899995990000qqwqrwwrwwuuypyiiruuuurddpprwrqwruurrrrips067r0696<<<138345096riirrssispiiippiddisppsspppdpppppdiuuiidiiiipppppdpppspiprruuuurrwwyryyyruuyuryyytwwwr00r0000rrr0wwee002>>:,:::122222888111:1111:1:::1::::::::::1:::::::::11:1111<1<112122<6qwwerwywwywwywrywrrrywrryrryrywwwywywyywwyu00wwrrtuurew73$;=,::::,:::===::::8121858553699:=wwwwrwyrrrrwuwryrurrryruuuyytyuyuuuwuuwtwiwrruuuww00uuru00wwwywwywwrw769ewywuwuwwurew999990wwwwywywwwwwwryywtwrwijkdkhjhhhkhjksrrryyphkkkjkjfiyyiiyiiiiiipiispppppdidsdddidddddpjczccccccccccxczccccccccccczzzhiyirurituiyhhhhhkkkkzzzzzzzlkzzkkczzxkccccckkdpppiiihiipiyyrrrrryuuiyyiiiyiiypiyyipyiyiiyiyuuurrrurrrrutuyiururruryrrrryrywrwww0wqwwwwrrrrrrrririiiiiiyiiipiiiiiyuw9r000070hhfzlkkkllkkkzzkkkhpyiipuwq000996699969769q9666332<1,,,<,22596336q999669uq9qq",
"kzzzzzzzkkzlzzzzkzzkzklkhkhhhhjkckccccckkkzkkkklkhhhhhhhdsirrriypipppddhdsdddpipdidiiiyiuuuuuiiiupppiiipiiiiiiiiiiiriiiihpppdkkclzzzzzzzzkkkkkkklzzzzkzzkjkkkkkkkkhsiuuitrr0uuipdiiy8555221:****&&&&****===*===121223666666969699589999966993999606666666666663638%=*&&&1=88622833121:218==,::<,112,2,12555252242556666636666366225626<$%*=&===*=====81653359w976690q99999366963998599599599099000wwwrywrwwwiyyiurriuirrpppir0wrruurywrrsii06qr0666332239629w0wgusuuisispiipsdddidsdisppppspspppppiyiiiiiiipihpidddpppiiuuiuuryryrutuiyyuiuuyyyyrrww009000000000099822<;<,,:::2681118831111111111:=::::::1::::::::::::1::::1:1:1<,1<,221<26qyrwrwwwywwywyyrrwrwrywrwywrrywywywywwwwwww0w0rrruuurww93&,1,::::::::===:::111228852<<5qq<=996wwwwrrrrurwyrrurrrruruuutyttyuuuwwuuuyturuwwwwuuu0u0uuuwwywwwwwrew99ewwwwuuuwwurww96999wwwyrwwwywwywywwywwwqypdpkkkkhhkhhkdsurrryudhkkkkkhyypiyppiiiipipipspsppidissidddidspphzzzclcccccccccczccccccccclzzkdiuurtrrruiihhkhkzzzzkkzkkkkzkzkckkzzzklckkckzkpyppipdpiiiryrrruruuuyyyiyyiyiypyiiiyiyyyyiyiuurrruruurrryiiyuuuuryrrrrrrywwwwww0w0wwwwwwwyrrrirruiiiypiiyiipyiiiiirw0q000660hhfzkzlxkkkklzzkjkhpyyidsr006669667639693q99797634<<,::<,24255<39qw99636r9699",
"zklzzzzzzlkzzkklzklzzkkkkhkhkhkkccccccckkzkclzzzhkhhkhhhhpirriypiipdahhhddspispiidiiiiiiuuuuuiiipppupippiyiiiiiiipiiipsppppphfkkzzzzzzxzxllkzlzkkzkzzzkzkkjkkjkkksddyu0urrrruiipdpy09889881;***+&&&&**=====*==1==1282226666669669995899596669696606q6666363636661=#=%&%&=1286626881321881=12,,1:111:3:,26653252233566666666666692266363=*=,=3=,==1=:1e396637qw9w00609qww996999999959956559900000000qwwwwrrruuiiytiriuitrppppiwwruyrrwwyrwrsr0wr09863<<11822806qpissusiuuiipidsddppiippipspppsshpiiiiriiiuiiiiidhdddppsipssuurrrwtuuyiuiiiiuuurrrrrw09999000099000e000q962,:::12681>135321:::111::::::::::::::::::::11:1:1:1:1111<,11,212229ryewwwwwwywwwrwrwyrywwwyrwryrwwrwwwwrwywwwyu0000rruuu7e93$,1==:,,,::1:==:::,1111255222999:;6669wqwyyyuuuuwwrrrryrruutuywuwywuuuwuuwuyuruwuuwuu0uu0u0uywwwwywwwereewuwwywwwuwuww999q7wwwwrrywwrwwrwwrwyywtwuidpdkkkkhhkhdhprrryuidkkjjzkkpyyiiipaiiiipipppppppdiddpdspdsddhphczzzzcclccccccczvcccccccczcczkdyuiiiiuudkhkkkkzzzkzzklzzlkzkzlzlkzzkkkccckzjpiippidpyipryyrryruruiyyiiiyiyiyiyyypyiiyiyyiuuurrrurrruuuiiyrurrrrrryrruwywwrwwrqwqrqwwwwrrytrrruiiiipyipiiypiiiiurrww0909wphhkkkkklklkkkzzzkkkhppypur009669363696366999666362<<<,:<,<<396239w999366q9699",
"lklkzzzzklzkkkzkzlkzlklkhjkhkkkjlkcccccllkkczzzzkhdhhkhdhpirurypdpdddddddsidppipidiiipiiiruriiiupuiiipipiiiiiiipipppdpppipppdfkkzzzzzzzzzklkzzzzzkxzccklkkkjhkhhddpiiuy0rrrruiiddsy09898881:@:**=&&==============22225566666698985599999696969966606666666q666061=#%%%&%=<<62<,<23,<,;2<===8=*::,,2=3=,26555542233569696765676966666696:*,2,8,,==1,:<e37766qwqwwww90w0w99666999995599588990www000qwwwrwwuwwruiyirrurriurpispsrwwrrryw7ywwwrw09q9562<<<,,2,,8229rusuuuituiyiiippdididdiiphsppppppiiiiiuiiiiipddddppppppppssuutrrrwwuyuuiyiuuuuwrw0000w0rr00999000ererruu06<:::<568<122223111111111:::1::1:::::::::::::::11:11:1:1,,,<<<2113qrrr0wwwwwwwywwrwwwywwywrryryrwwwrwwwwuywwwr00wwrruruuwwq3&>**:::,:::,:::1,:,1211225529999:;9969wwyrwwwuurwwryrwrrruruywyuywywwuutyytywuuwrwywwwwyrr0uywwyywywwrrrwwwwwwwwurruwwwrrrrrrrwyrwywyrwywuwwywwurudjdhhkkhkhkhhhaiyiuuidkkkjzzjpiiipppiiippipppppphsdidiihihihppppkczzzzzcccccccccczcccccxcclcckhpiuuuiuupdkkccczxzkzzzkzkzzzzlzzklzzzkkkccckkaiyppippiypyyyrrrrruruyiyyiyyiiyiyyiyyiyyiiyiyturrrrrurrruuiuyruurrrrrrryrrrywwrwqrqr0rqwrwyurruruuiiipiyiiiiiiuiirrrr0q0699wdkkkzkkkklkkkzzzzkkahhpyyuw00w065636666666799866393<<,,,<,2259956qww66529rq99q",
"kzzzzzzzzzklzllzzkkzkkkkkhkkkklkccccclckzkcczzzkhhhkhkhhhpiuiiupdiidddddiidiiipippipiiiitiruiiiiupiiiiipppipiipippdddddpddpipkcvzzzzzzzzzlkllkzzkzzzkkckkkkhhdapddiiiuu0rrrriiiddpiw9989881***=*=&&&=====+=+====1,22365666666696598559596666669966666q666766766633%*%%%&,,3662<<23,<<:,,=%===*:1,,2=3=,86552224253566399633669677666266<&=<=3=<==,,:<w36qq7qwwwewww09w9w99999w9q05890989990www00q0wwqruwtuwyuiyuirrrrrurursppuw0rrrrwwwwwwq94266<24<,,,<3<22<696ruuuisiiiiiidsiipsdiippppspppspsiipiiidiahhhhhddhhhhppphsssuurrtwuuuuuiiuisuurrrrwwwr0000090000000e9999975,:,15622<23228211111111::::::::::::::=:1:::1:::11:1:11,<<,2<,2<3qq0q0rw77wwwwwwwyywwwrwrywwwyrwywywywywwwwrwr0w00rurwuwe63&***=::,::::===,,,<1111<22559996;;999wwqrrw99wyyywwryyyrururtyuwytytwuwuwtyyuwuuuwwuwyww0ru0wwwwwwywrrrw00wryryrwywwwqqrrttrwyyyrrrrrwrrryyryyqrtidkphhkjkkkkfkhapyyiidhjzkjkkhhpyippiipiiipiuspppssidihsihisiddpphzzzzzzzzccccccccccccccccclckkdiyyrruu0yiddhkkzzzkzklklxkkzkzkzkkzkkkkccckkaaiiipiipiuppyryrryruuryyiiiiiyyiyiiyiyyiiyyiyiuuuyruuurrruuiyiurrrrrrrrrrrrrwwrqrw0r0rwwqrwrrrrruuruyiyipiiiyiuiiiirrr600699qshkzkkkfkkkklzzzzkkhhhsywr00wrq6536666976897636639522<,,,122699679q966639u9999",
"zzkzzzzzkzkzkkkzlkkllkkkfhlkklkkccccckcczklkklkkhhdhjkkdhpuutriiiidpppdappiddisppiippipiiiruiiiipiiiipiippiiiippppppdddhhhdddkcxzzzzzllkkklhkzzlckkzczkckkjhhdppdiiiiuuurrriiiddddiy099821,;****=&&===*=+========,<23665636698999859995993663939q60666696066q6q623&=##%*=368662633132,211==1==88112,3=1956533255366669695566799w9696566>*=<=<=,=:,:,<7<76qqwwqwwwwwwwwww6q99999q98890990000w0w09wwqwtwurwuwuiyyiirurirrrrrrissuwywwww0wwrww92266<2<1<<<<2282<6q5ruuwsdsuiiidpsdidididipipppphppppippadddhhhhhhhhkhhhfhppssssuuuutyiisiiisuuuryyrurw00999000000ererr090989632<<2681,28112181111111:::1::::::::::::::::1::1::1::::,,,<,121,6qq70qw77wwwwwwwywwwwwyywrwwryrwwwwwwwwywwwwrr0r0erurrrw766***::::::::*==:,,:,2111115223333=;9669wqyry990yurwrrwrrrrrurywwttyyyuwyuyuttytwuwuuwywwu0r0rwwwwwwwyweww0wwrrrwrrruwwwrrrrrrrrrwyrwrywwyuwryywwurudkpdhjkhjkkkkkhpiyyihkzkhkzkkhpiypipipiiipipsippdssiihphihdipppphczkzzzzzzcxcccxccccxccccckxchpiiurr0uyyuuyiipdkkzkkzzlkklkzzkkzzzlkkkckckzpiipyrpippuiyyyrrrrrturyiyiyiyiyiypyiiyyiyiiyiuuiuuryururryyiiyuuyyyrrryrrrrwwwrqwww0qrqwwrwyrrrrrruyyiiiiiiiyyuiiiirew0009960ddkkzkkkkkkkkzcccjkhdpiryw70rr096633399669998666803<<,,<<2226q9369ww5966ww9666",
"lkzzzzzzklzzzlzkzzkklkkklkkklkllkcccccckkccklkkkhhhhkkhhhpusiisiidsdpdppdppsddidpipipiiitiitiisipiipipppaiiiiiiphppipdhkhhhhhkkczzzzzzkkhhhhkkzkkckcckckkjkhhhhhdiuiiuuurriiiiddddpy0989:>:;;***=&&&==%%+======+=,<226363666699995959992666666696666696966q6666611&=##%*=2866222<3,2<,2<==*=2121328,3:20535526556693966966779qqw7900662:;:<=<,<<:,:,<6,7667qwwwwwqw0wwew999996990959990u0rr00009wqwwwuyrrytuuyiyiriuriurwrrrshprwww7770wwwrq698636632<22=,1,,6e2tutyssutppiidddiidididppppspsspppppdhhhhipdhhhkkjkkfhhhpsssisuuuwttiusutususiiuyitrttw0rt000t0r00000000099931<262>:<82218212111:::::::::=:==:=:=:::::::::11::11:,,,,11<<,6ry0qwr7ww7wwwywwwywywwwrwyrrryywywywywwywwwr00r0rrur0rq656;&*,::=:::**1=:,,,,,>:1122222389::99569wyrw960ryrwwyyrrrrrrutyyyywwytyuwyuyywuwuurwywwu0rrrrwwwywywwwwwrrtrwyruywwywtrrreriruuyywywwrrwrwrwwuwwwrudjphhkhkkkkklckhiyyihkzkkkjzkkdpipiiiiiipipipspsdpihiidipddppppphkkzzcclzzcccccccccccccccccxchpiiuiuuuuuu0uuuyudkklzzkklzzzzkzzlkkzlkkkckczi7ypyyuipyuiprrrrrrruruyyiiyiuiyyyyiyyyiyiyuiuuutuwrrrurryiuiiyrurrrrrrrryrryywrrrwwwrrwwwwwwyrrrryryyyyiiipyiyiuuirrwwqw9669ujdkkzkkklklkkzccckkhdsiii970qr0997653969699996966652<,:,,232696339qq6q66wq6369",
"xzzzcczzzkkzlkzzzzkkzklkklkkzkzzccczzzzzkkklzzkkhkhkckkpappipiyipppappppspdspipiiidiipiipiiyiiiiiiippiihaaddddddipaaphdphhhhhfkkllkkhkkklkkkkkkkkkckckklkjkhdpddipdadpiisiissddiddsu000021:-;::@***===========+=,,2622563639999669666969966q696969969966996969621=*%#%*&2863662:1q232,211*1=1,22222<:,26356322563666663996667q97qqq9q93,*2,12221=2,:1336339wwwww997qwwwy9999099958098900u0009999rwqwwtuurwwryyiisrrruusrurrwripirwww060w0qq003282222222662<=,<660wtuiiyiiyiipiiiphppipppipphhhhhhhhhhhhhhfkhkkkkkhjhhhhpadpdppiyrruiisppppppiiiiutrtuuyw0t00t0ut00000009888828288,>8222,1281111:11::::::=::==:::::::::::1:::111:,,,,,,=<18eq9wwqq9wwwwwwrwwwwrwqw7ywwywwwywuwwwywwywwww5wwwwwrrt7329:@>::::=::*:=::=*::::1111111:<281&*32559rw55wryryryrqrrytrrtutwutwutywtwwuyturwqwrwwr0r0ett0ywywwwwwrwwurrywurrrrrryw7wrriuurrrrrrrrwywwurrrrwwrripgpphkhhkzkkkzkhpiuihkckkkkccjaiupipipippippppppidiidippipiidippakkzzzzzlzcccccccxccccccccccchppiuuiuuururtrruuipzkkkzzlkkkzzzkzkxcjdpahkcpirtuuusssuruiuruuywyruuuruuruutiyuruuruuuuuuuuuytyyuuuurrrutuuuuuuirrrrryrwuwywrqewwwwwqwwwrwruurrrywrryiiiiyiiiiiutrwwwq6966wdkkkkkkzzkkklxclcckhdpiup00090w06663669969993266632<<1122223333389ww9066qq0565",
"zzzxccczzzzzkzklzkzllzzzkzzlzklkcccxzzzzlczzzzkkhhhkcchdppiiiyiippppppppppdpsppppiiiiidiiiyiiiipipiiiididdddiidiappphpdahdhhhkckllkkkkkkhkklkkkkkkjzkckkkkkjkkkdpddpdiiuutisdddddsir0000921;:;:;****============,<26355653663699669993966999q6q6966q666q669999661==%#&=*,8620622,3,,<,,,1*112122321<<<2356532556669966999667999w7776761,*<,=2<2,,21,135636qwwwwwwqqwwrww9w9900908909990000u09000rwwqyuuururruypyursriurruyrwrtiuww0096wrq0655<,<22>2556966<,,266wtyypiiipdpididipppiiapppphhhhhhhhhhhhhhkhhhkkjkkkkkkhhhddddpapiuuuippadhappiiiysurrwwwtu0t00uu0y00000998<8128282;:222221113211:111::1:1:=:::=*::::::::::::11:::,,,,,,,,19re0wwwww99qqwwrwqwwwwwywwwwyywwwwwwwiwyywwyyw050wrwrwr9626-@*=::=::::;===::=::11::11:1=,<381=:<2427w9wwrwrwwyrwytuyrrywyywuywtwywywwuuuwywyutrrr0r0r0rwwywywywywwrywwwrrywrrrrwwyrriuryrrrryyrwwwyrrrrywyrrrspppdkkhkkkkfkkdiuiipkclkkklckdpypippipiipiipipipiiddiippidiidpihkklkzzzczcccccccccccxcccxcckpipiurrutuuuuuuruwwskklzzzklkklzzzkzzdiuyiphkirrruurusuuruuuruurrwrurruuriruuyyruruuruuuusuuuuytttuuurrrruuuurururrrwwwwwwywwwrwwwwqwww7wwuruurrrrwyryiiiiyiyiiiiirurrrww660ukhkkcczzkkkkkkzzckadppiiwrw00w06666666999q966965<<<<222221,2212339990060w7635",
"czzzxzcxlzzkzkkzlkklkzlkzzzzlklkzccclzzzzzzkzzkhhhhhjkkdkipipyiiipppppppspdpppsidiiddpiipiiyiiiiiiiiipidpdiiidiippappddhdhhhhklckkkkllkllkkkkkkkhkkcccklkkkkkkkkhaddpiiuuiisidpdddsi00000821:+::*-=*=,==========,226355666696999939339966699q66769966696696996661=*%#%==886662,<392332331,38q<3392<<223366666566369696996999999q9q77962=*<,,2221182,<25w66wwwrwwwq7wwrwww999w0w09000000yr0000090qwrruuuurrruuiypusiuursiuuyrwrww999999wr06542<<262>26666606,:690wuuyiiiipddsddpippddphhhfhhhhhhhddahhhhjhhkhkkkkkhkhhhhhddddadppisispdddhdddaddhdsiiuutiuttu0rut0r000982,:11<8252:,2222,111121111::1:::::::::::::::==:::::::11::=,,=,,,,<6rw00ww9q9w9wwwwwwwwrwqwww7wrwwwuywuruwuwwtuyyu159rrrwwq962&o&=:::::::*=*=:::::1>::::::,<<268<:5226q9ytywwwryrrwwrryrrywwuwtuuuuwywuyyuuwywuuywr00rrrrrwwwwywuwwrrwrrwwrrrrrrrrywwruurruruuuyurwywryuryrwrrrrippphkkkkkkfkzkpuiiiphkkkccckhdypipipiiipipiipippidiiipipippidpipkkzczzzxcccccccccccccccccckhpiiiurrrutuiitiiirrikzzzkkzlkkzzkzlzkhhiiidhhrrrsuurriuurrurrurrrrrwuurruriiryuuuruuruuuututuytuyuuuuuruuruuruuirrrrryrwuwuwwrwrwwwwwqwqwwruryrrrrrrryyyiiyiyiuiuirirwwwq96qthjkkkkkakkkczzkzczhdpuyyqq066095555566326696652<<<<<1228222222385996999ww9663",
"czzzccczkklkzklzzzkzzkkzklkzzkklxzcczzzzczzzzkkfhkhkkkhhkpiippiiapppappappdspppiidiiiidppiiiiiiiiiiiiiiipipiiiidipppapdphidhhkkchkkkkklkklkkkklfkjkkkcclkkkkhkkhhhhdddiiriisddiddddir0009982>:+:;:,======11=1111<2335535536669696969666696936996q6666666666699662=*%#*,=889964:229112,22=*223<<16322366666666367939999996909999wqqwqw6<,:2,13321282,<3596qerrwww99wwerrewqww9w0000t000y0r0099999w0qruuuuqrrruiyiuuuursruiurrrrww996090wt06222233762246660w6<:300wiuyiiiiiiidddddhhhhfkkkhkhkhhhhhhhhhhhahhhhhhkkhhhhhhhhddddadppsusipppdiuuryyiitssddsiiuuu0rt00u0u0095>1,1<<<,<8,<8828,11111211:::::1:::::=:::=:=:::::::::::111,,,,,,,,,2qw099wwwww9wwww7wwwwwwwywwywwwwwwwwurwuwyutwwu52590wrrq962*@&=::::::::::=::::1:1:+:1::<222<::2969wq9wrwryrrwrrwyrutuytywtuyuuuyuwywtwywutuuuiurrrrrr00ywywwwwwuryyyrwwrrryuruuwwrryrrwruruutruwwryuwwurwwrrrriapphhhhkhkzkdiuuiyuphkckzzkdppipipipipipipiipiipiidiipiiiiispidkczzzzcccccccccccccccccccckdppppyrwrrutiiiuupiupklzzlkzzkzkkzzkkkckhdddddrrruiiurutrrtuurrryryrurrururrriuuuuuuruututuuuuuyuyytytuurururuutrririruwwywuuwqrrwwwwqwwwwwywuurrrwyrriyiiiyiiyiiuurrrwwq700wikkcczzzkkkcczzlzczkhdpiprr060000q76666669q9w9965<2222212332333389ww9990wq6555",
"czzzccczzkzzlzzlkzlklzklklkkzkzlzzzzcczzxzzzkkkfkhkkzkkhdpipipipppappdppppdppspiidiiiiippiiipiiiiiiiiiiihiiiiidipiaappppihhhhfffkhkllkkllklklkkkhkkckcckkjkjkhhhhhhdddiiuuipdddippiyw0998886<:;;::========,11111222665356666696699699669666q66q666666666696696621==%&=1=2866w526291,2,21,*333><2663662656396666999699099690099ww990776<*=3,,2221231,26379qwwwwww99qwrrrrwwwww9q900r000000009579900rryuwy0r0rrruurrrutrrirrruuww7996900wrw566222,76425552608<*27wwiyyypiippddsdkdkkhkhkkfhhhhhkhhhhhdddhdddddhhkddhhhhdhdpdddadddiisppsddsiurr0wwwuutit00rutw0ww0y000981,1,11<2,<,:>2228,11:11111::::::::::::::1:::::::::::1::11:=,,,,,,,,<9w099099w9w9wwwwwqwwwww7wwwywwwwwwywiiiwwiuwww98129ru07662,*&=:=::::;*::==:::11:::::1122662**24<5ww9wqywwryyqrryyiuyuuuuuuiiiiuutwwyutwutiiiiiturru0y0wywuwywrrwrrrrwwrwrruururyyrrrryuuuyuruuwywrryyrywwrrwridpphhhkkkkkkfyyyyyyipklkclfpiippipiiipippiipippiiipipiipiipipipfczzzcccccccccccccccxccccckdpdpiirrruuuiuurruuuisklkzkzzlzkfzzzkfjdiiyiuurwyriryiurrrrusrrrrrruurrryururuurruruurytyytyytyrrrrurttryrrruurrrrrrruywrrruwwwwewwwqqqwwwwwryrrrrrwwyyyyiiyypipiuurrwewww079qyidjkzczhhhfkkkkjjhhdpsu765253696552222296553625<2221128212332<36976766906555",
"czzzccczzklkkkkkzzkzkzkzzzzzzkkxzzzxcxzzczzzzkkfkhjkzkkhhpipppipppppphdppsdppspipsdidppppiipiddiiippsiiiiihiddddipiipppphhjhhhhhkkklklkkkkkkklklkkkkkzlczzkkkhhdddppiiiiuiuiidpdiiyw09968009811><,::=,,=1,,1111=2<2353566696699366936696666666q69696669996696666==&%%=1=369903263q223,222,332:2236665256999966699669999009009wwwww9wq62=1311222123,,3666wwrrywww999wrrrrwwqwww09000ru000009869990000wwww900rrrrrrrryuiuurrruuw7w9669600w0269226<62<22266666:*:6wwiyypdpkkjkkkkkkkjhkhkhhhhhhahhhhhhhpadddppddhdhadhhhahadahhhhhhssippddpppsuiuiuwww00000000ttttry008<2<21,11<2182,22228<11:111111::::1::::1::::::::::::::::::::1,,,,,,,,<<690w9q9ww99qwwwwqwwqwqwwwwwwwww7wwwwwwiytiiyw098229009569321%=;**:,::::*;;*:111111::1262269=&>:$<w9qr7wyrrrwryyyiiuiiiyiiiiisiuwwyuwwuyuiiiiiiuuuuuuy0uwuwuwywrrryryrrryuuirrrrwyrrrrrrrutruurrrrwrrwwwywrrwrydddhkhhhfkkkaiyiiiyypklzkxfaiipipipiiipiiipiiiiiidipippiipippipfzzzcxcccccccccccccccccccjdpiipiiuuuruuutpiuuuuuuplzkkzxlkzzzzzzfiiwwwywwrwwrurrrrurrruuuryruuwrrurrrururruururruuyytytyyyuyrruurtyrrrururrrruuuurrywrrwwrwwwwwwqwwwwwwrwuryrrrrryiiiiiiipiiiuyrwwutw97797ussddkkahhfhkkkjkhhppyr2<:<<42522224<<<622<2<<2<212222821232<222926999w96635",
"zzzzzczzlklkzzzzkzzkkzkzkllkkzzkzzzzccccczzkzkkhkkjkzzkhdpipiipippapppdpsppppppidiididippiipiipiippphiiihihhshihppppppphhhhddhhkkkkkkkkkkkllklkkkkkzckkkkkjhhhhhhhppiiiiuuyupddphu099989990095<1<<<:,,1,111,1111<<2255656666669693666996q666396799966q66966696221*%#%*,=8qw9q3<<23,121,,1=,=;$,<66666366699669699366999696909ww9qqw9q6211311222112113969werrywwwwewwrrrwwwq9www90rr0000909959900r000www0900qrrwrrrrrruruyrrrrw7w7666600w929q26q322426526562<==3ruppidhdkkkckkkdkhhhhhhhphphhhdhhddapddapappdddhdhhdhhdddddhhhhhhsiipppppwrrrrruutttw00w000000rrww96<,<,11:1,,2<88588222>11111:1111::::::::::1::::::::::111111:11,,,,,,,,,,<7w099099wqw9wwqw7wwwqwwwwwwwwwwywwwwwtyyyiyw692228999657292%=**-::::::*:111111111311152<695><4$:9wwtwwyywrrryyiiiiuiiiyiiisppytywuwwuyyiddiiiituuiuy0wuwrwuwuwywuuurrruuurrrrwwrryirrrryrryrrywrrwrrwwyyrrrrihdphhkhjkfkkaiiyyiiypfcclzkiiipyippipiipiiiiiiiiiipiiiipiippiippzccccczccccccxcccccccxccpiipiyiiruuuuuuupiptuurrpkzzkzxkzkkzzzkhuuuwuuuwrwwrrrrrruurruuuwyururrurrrrruuutyuuurtuytyyytuurrrryruuyyrrrutussiiuuuuryrrwurrwwwwwwwqwwwwwyrruruwwwyryyiyyypiiiiurrrrwewwqw99udkkzczkkkkkklczkkhhpiyy95<2699qw9999966r9699999812<28833333323669669w9w06666",
"czxzzxzzzkzzkkklklzklzzzkzzkzzkzzzzccccczzzzzzkfjkhjkjkdjpiipiipadpdhpddpppppsppdididippppipdppippppihsishiddihippppppdphhdiphhkkkkkklkllkkllklkkkckckklhhhhhdapkhhpiiiirr9yidddfp7490099008852<=:====1=1111==18<<<2556666699636696996666666666666q996669q6966521==%*=<=<qw996223q3896888,2=*$<366666699366q6669996999060960wwq7w977q61==31=1<<112226qwerrrwwwyywerruurwwq9qwwwwr0rru00900955669w0000ww09900qrrwwyrrrrururrrrwwww66690www29q<<82522662266632:*3iphhpkkhkhddjkdkjhhkkhkhhpphhhhppadpddpppdpddhhhddhhhhdddpddahppaiiipupupuuiuiiuuuuuuuytt0wrrrrr098522<,,1:,,:<,22,18122,,111::11111::::1:11::11:::::::1:1111:::1=,,=,,,,,:>679990w997wwqwwqwqww7ww77wywwyuwyiwywiwwwwiw698825890656288$=***:::::::1112111111388326666669w;:99wr9wrwrrrryyuiiiiiiiyiiiiiiyuuuwrywypsddsiiiisiuuu0ywuwrwuwwwwyuuurryuuirrrywwrrurryrrrrrrrrwyrwywwywwrrwrrhdphhhhkkkfkaiyiyiiyyhkckkfiyppipiipippiipiiiiipiiiiipiiiipiiiiaxccccccccccccccccccccccxpiippyiirrtuuutiryiurrrrikzkkzxkzkkzzzkauuwwuuuwrwyrirrruuurwuuiurruuurwrrurrrruuururuuuuyttyyytryrrrrruuyrrrysudsduurrwrrrrriwwwrwqwwwwwwwwwwwrrrrrrrryyyiiiiiiiiyuururriieew970pjjjzckkcklklzcckkhdyyw62426660q9959665tw99q96983222232633332669w760w0r00669",
"czzzxczzkzzkzzzlkzlkkzlzzzzzzzzkkkkccccvzzzcczzfhkkkdkhkpppipyppidpdddipppppppppsippppiipippiiiiddiddspidppppdppppppaphhhhhuikzkkkkdkkjhkkkkkkkhhjkkkhhhhhhphhhhdkkkiyiuuur90djsddir090w00t00084<,,,1===1211111=21133556666966693669936666666666966966936666665221**,1,266q9632>09226656<&=,8<,<66652666666966996969q99699q9wwqwqq907621,2<>32222233667wwwwywwwwwrwyruuu00wwywwwwutw099996699676000900000000rryrr0rrruuurruy00u0966666wqw345666986336666899669rhhkhhkhhhjkddkkkkhhhjhhhhdhdddhhphpppphpppppaddhphhhhhhhhppfhhppasspiyyyiuiuppuppuuutrrrrrwyrr062<,,<111111111118,<1221<:,,,,1::::1:1:::1:::::::::::1,<,,:11111:1,,,,,,,,1,,23qq97q6qwww9wwqwwr00uw00ywwwwtwwutwwyutwww069955<<22492592**:*;::::1*,21,22,,2,::222<2263<,2,%-9u99wwwrwwrruuuippiiiiiiiiipiiyyurrrwpipiddiiipuyiyuyyrywwywrwerurrw9rwwyuurwwwtuuuuurrrrrrrrywrwrwywwywrrrrripadahhhkhhhiuiuuiyiiiiiiiiiiiiiiiiiiiiiiiaiiiiiiyyiyipypyyiiiippkckcczxccxxcccccczcckpiiipiiiypiu0uuuuiittrr0rwrpkckzzkkkcckkpyyywywuwuwwrrruryruurrururuurrurruuruurrurrrruutiiuuuuuuurrururuurruuuyyywruurrrrrrrwrurrryw7rrwwwwwwwyrrryrryryryyuiyiiyiipyyiiyettww76w50pddkkkkhpfkzkkzzkhdiyw2<,>,266696<,222976999663<<3433<4732<<26366697ww96699",
"czzzzczzkllkklzkkzzkzkkkzkkzzzlkkdkzzzzzzzcczzzkhhkkkdhhppippaipsdddddsdpsisppppissiipippiiiiiiiiddidisiddppddddahppphhhhkhdpkzkkkhhhkkkjhjkkkkkhkkdhkhhhhpphphhkdkdiddusu099uiujsurwwwuwrw00w09<<<<,112=1111=1=22236666663969669696966666666796966969966666666231,==1,3666963><996266561*<,3,,3666225656666666q66699696799w7qwwww97921,,2,:22,222232569uwuwuwywywuwuwyyww0wwwywwtutw7907090066609000ww0000t0rrryyrruuuurru0u0y0966699wq032366666896660wqwutrrishhjhhhhkkkkkkkhkhjjhkhhhdhddphhpppahhhhppaddhhhhphhhhkhhhphhhhppsspiiiiiuipuppppdssiutturwrrr82<<,,<11=22=111118112222<<,,,,:11:::11::::::::::,:11::,,,,::11111:,=,,,,1,:1,,3779979w9wwqqwrqwwwryw0wwyw0wwwwtuywsirq000099555525588234:::;;:::::=111,<22,22,,122<,232<,<<=<wywwwwrrrwrruuppuiiipiyiiipiaiiyrrrrripiddsppidiipyyywrwrwwrwrrrtrrrwrwyruuryqwrrrrrurrryyrryrwryrrrwrrrrrryyppppdhfhjhjhiruuyyiiiiiiiiiiiiiiiiiiipiiiiyiiiipiiiiiiyiyyapipyipkczcczcccxxczccccccvkppiiipipiiiuyutiiuiiiuurww0ujkczccckckkcfpiwwtrruwwyyrrruyuuruutuuuurrrrryrruuruurrrtrutuyrrrrruruuuruuturruuuuiiphhppiurrwrrrrrrrrwwwywywqwwqwyrrrrryrrrryypipiiippiyyyyyuiirrw7w0idddkkkzlkkzzzlzczkkpyw03<1256070965ww7q970w99963344<353<2,<369566999qq66666",
"cxzzxzzzzzlzklkzlzzlzllzlkzzklkkkkkkzzzzzzccxzkkhhkkkdkhapppppyappddddppppiisppspiiiiispiiiiiiipiidiiidddpppdahddhphphhhhhhhdhhkkdhhhjhkkkkkhhhjkdddhhapkhhkhhkhkkkdidddyy0990idss00wwywutt00w002,<<121,1111111132336666667696966696666666q69696996693966996896232,=11<36669662<69526525==6,<,<3562445666666669q966999967999w7ww999995,:,2:>32,3,222<260wywywywwuruwwwwww0wywyuwwwuw000q06000699000000rw000rryrrrrrrruuryrryy00096339969w65386660wrrwwrprusphpiidhkkhkhkkhjkkjkkhhhkkhhdddddphhdphhfhhphpddhhhhhfhhhkhhhphhhphppippsiiiipupipiippssuurrerrwwq<1,1,,,11=1111==11822828211,,,11:1::1211:::1::,1:,::::1<<,>11111111,,,,,,,,:::139769qwwqwwywwwr0yy0uwwwwywwwqtwrwuyiitr000009562255888518<@+::+:::::111,<232322,<22:,<332<>*=<990wwwwrywrruiiiiiipiyiiiippiiiiywwwriipiipiiiiiyii0ywyywrwwrrrtrtrrquyrruurrqwrrrrrryrytrrrrwrwyywryrrwwrruuppaphhhhhhjhuruuyyyyiyyiiiiiiiyiiyiiiiiiiiiyiyiyyyiyyiiryiiyiyiypkckcczccczcxxccvclcckaiipippiyyiuuuitiusiiiuuryuszclkkkkclkkxckiwwyrriwywrrrrrrruurruurruurrrrrtyuruuuurrrryruirwruruuruuuuruuruuiidkkkccjkkdirrrrrurrrrwwwwywwqqwqwwyurrrrrrrrafkkffkkhpiiiyyywitiiwwwsjkjkklccclzzvzzcccckhiyq212356w9q97qwtwww0009797634<573322<267y79q96q6q66666",
"czzzzzzzkzkkzzkzkzkkkzkkkzlkzklkdkkzcccczzzvzzzzkkkkkjhhpppppiappddhhdpdhppspppppsssisppiiipppiadiiiipdddapddhhddpphhddahhhkdipfdkhhhkkhhkhhkhhhddkdhpkkhhhpphhhkdddpdjd000000tdsu09wuuwurw00w0054,<,,=11=112111122336666669993966699693q6666967699999996699996222,=11176666996<676266<2*=6,<<225662<2626666666869969qq6699q9qq997www5,::2,,32,3<232<27wtwywiwywwuuwrww0yyw0wtywutww090w009009600000rrrr0r00rrwrryrrrruu0r0r0y009659w636063666690rsurrspssipsippphhkkhhkkhhhhkdhhhhhhhdaddddpphdhhpphhfhhhdhhhhhhkhkhhhhhhhhhpppiisppppiiippppppiiuuuuwwq0q831,1,=,212111=11211222121222,1,,11:::11111:1:1,:,::,:1>,,11,:1111111,==,=,,,::::267q99wwwqwwwwwyrrrrwywwywwwwwtyytuuisiiuw06999555555598285@-1:=:11:,1,,>,2223222,,<><26962<=&:699w9qwrwryyuiiiipiiiiiiiiiippiyyrrrrdiipdsdiidpidyuyywrrwyrwrrrrrrrrrrrrtuurwwwryrurrrrryryryrrrwrrrrrwrrryrpppahhhkhhjhiruuiyyiyuiuyiyiiyiiiiyiiyiiiyiyiiuiuiuuuuuuiyyiyiiiicczcccxccccccccccccckappipiyppii0uuiirutiituuw0sdzcllkkklkkcxzkriywurwrwrrrryrrytruuuruururryrryrrrrrrrerrrryyirtuuuurrrrururuuuuihzcxczzcczdirrrrrrrurywwywwywqwwryrrrryrruryrhcvccclkhiiiiywurdhiiiwwsdjkkccccczkzzzzcccczhiyw2,2615099636ww9wq900999733<<363932,<3679q69q6q696666",
"zzzzzczzzkzzzklzkzzzlkzzklklzkkkhkkzcccxzzcccczzkkhjkjddpppppippddddfhdddpppsaaiipppdppppiididppdiiiidsdadpaakhhappphhhphkkkfipkkhkhkkkjhkkkkhhhkdddhhkpphpppphpdddpiddiyr0rr00ust00uuuryw00www093422,<1112121311<225566666663q693663969669699696696636968966655221=112q9666996226625624=:9:22626652256566666669q6969q999999w90000wwq6<::,,,82,2226226wqwwwuwwwyuuwuu0r0wwwwyuywtrww000qw0wwq797r000er0r0trrrryrrrryrruuwwww0000966wwq670669966660rrryyypyiiyppppdhhhhkkkhhkkkhhhhhhkhhhdddpapphhhphhhfphahhhhkkhkhkkhhhhhhhhpppppdpdpipisssppppyippsiuq632<,,,1,1=82===,11,=112212222121,111,:11:11181::1:1:1::::1:,<,>11111111,,:,,,,,=,,,<66qw99wwrqwwwwrryywwywwuwwwwutwuuiyusdirq09099555555598582*+::::11:::11,,,<22222,,,<226996<9=,9urw9wwwrrrtuiiiipiiiiiiiippidiiuyrrridiiiddiidiidiyyyyrrrwrwrwrwrrrrrrywrrrywwwwruurrrrrrrurrrywyrrwy7wruryqppphhhhhhhkhiriryiuyiiuiyiyiyyiyiiyiiiiiiiiiiiuiuururuuuyiyyuiiudkckccxxccccccccccccczdipippipiiuuuuuurrrruuuuww0ikkkkckkckklkfpitwyiwwwrrrrryrruuuuuuuuururryryrryryrryryyryuyururuuurrurruruuryyupkkzckkzkhpyyrrrryuruywwwrywwwwwwrwrrryrrrryripppaapppiihiiuuiihtgieyudddzccckkkkzzzzzzzkkdpiq5,23,2699225552000009907233<4633222,,<6766q996666696",
"xxzzcczzzklklzkklzkzzkzkkklklklhhdkkcccxzcxcccczkkkkkhkdpiippppdhdkkkfdkhpapipssspphdppidsdippsddididsdsdpppddhhdpkkhhhkhhkkhpihjhhhkkkkhkhkhjkhdkkdkdpkhphhhphfkdkpiidir00rw000tr00wur0wwwrrw0ww3222212111883121223666966q69966696666666666666799666996666666621211=1169669966529625525<<6<6962663245633669666909696999999900www00q062,:22282:3233227wwuuwwtyiwwuuruuw0wywywuuwuuw0000wwwwqwqwq00e0rrrrr00rr0rrrrrrrryrywywu000966we936w6699666667wryrwriyppppppaphhhkkkkkkjkkhkkkkkkkkhadpdpppappphhhhddhhhfjhkhkkhkhhhhhpphpppaddkdpppppddpdspippdiw73<,,<=1<13222881=11,1111222211221,11,1111::188111:11,,,:1::1,1<>111:1111,,,:,==,::::,66qw999wwwwwwwrrrrruwururywwtiuiyyisiuw0900099566569855<451:>:::1:*::11<,,<2,122,,225556w62q=*2q99wwqwrrruuiipiipdiiiippiipsiiuirurppiisdiiidpipiyyrrrwrywuwrwrrrrrryrrwrrrwwwwuyrrryrrrrrrwywrwrwyrrrrrrwqapppdhhhhdhhyrrryyuuuuiuyyiyyiyiyyyyyyyyyyyyuuuurururrruiyiytruupkzcccccccccccccvvccvckpipyiiyiiur0ruurrrrruuurr0idkllccklckklaiiwytwiiyywrrrrywruuuuuuuruurrrrrrrrrrrrrrrryyyyyrrrrrruuuuuuruuruyyyudkckkkdyyyrrrrruruurrywrrryrwrrwryrrrrrrrrr7yyyyiiypiiphiiiiiiihiyuuupdkcllfkffkzzkzzkdddiii03331<3632<22329990999963<3343322222366q666997969399",
"zzzzxzzzlkzkkzzzkzlzzkzkzzlkklhhdkkccccxzccccccckjkjdkddapppppdkkkzlkkkkhhpaaadaaddpsssiidpdsdipsdidididdpppdddhkphhhkhkdhkhhiiphhhkkkkjhjkkkkkkkkjddddphhfhhhhhdddkiiiu9990099099000w0000900000w622<2,21111=12123236666696q6qq6666666966666666q6669636669969962221==;,696666662<96225663<926626666223666668669999969999999qwwwww9qw0632,21291:8,3326qqwwywiirwyywruuur0ywwwuyuyurw000wwwqwwwqww0r0r0r0r0t0ryyyryurryrurwwywwwy0926ew95696996269669qrrrwwrushpppdppphkjhkhkhhkkhhkklcccckaadpipppppphhhhhhhhhhkhkhjkjhkhhhappphhddkkkkhdppddddddppiiiuw7663633<<3831=2==111==1182222222<,:1111,:11:11112:::1111:1::1,<1>11111111,,,:=,,,::,:,38999999wwwqwwwwyryrruuuwywwyuuuiyisuw000009999799999955<40+:::11:==:,1<,,22,222123565569962*&=:<9w0rrwwruuiipppipipipiipiiiiiiitiriiipidididiidiuyruyrrwrywruurururrywwyrrqwwwyyrrruruyrrywrrrrywrry7rurr7ipppddhhkhhdirrriuuuuuruiyyiiyiyyyriyyuiuuyyuuuurrrrrrrryyyyrirrdzckcccxczcccxzccccccckipiipyiiiirrrurrrrrrrrrrrudkczlkkkcklckapiyywrwuuyrrrrrrruutitiurruuryrytryyrrrrrurwrsppisuirruriruururuuipppdhkcclkhapiiyryurrurrwwywrwwwwrryrryrryrryrrippyippiiippiidiiiidiiiriddkkcclzkkkkkkzzzzkkpiyit99822262224566600w0960q333<464632239qwq799qqq966669",
"czzzzzzzzzklzkzkkzkklkzlzzkkllkhdkzcvvvccccccccckkkkkkddapiipakcllzzxxkzlhjhhjkhdddpssssiddpippiiidididippppdkkdddhhhhhhhhkfhppphdhhhkkhhkjkkkzkjdhkhdppppphphppddzkiuir0r008959590w000w09580090w6222<221=111111223366679696969799666669666667666q66q99969996965221,=*;266966522276<26662<6462269965669666966699096999q999wwwwqwq009993223223,:8<2226qw0wwrwwrrr00ruurrrwywytytwtrq9000wtwwuwwwwr000rre00r00r0rrururrrrryywwww00969rr96q9669962666890qwwqtuuusshhpiidhkhkhhddhfphkkkcccckdppapippppphhhpdhdhkhhkjjkkkkhhkfpppphhddkkzckhdpsddsdphhppsdur000wr0868832888==22111881182221<11111,1:11:::11111111,1::::1,1,1:1:::1:1,,,=:::::,:=:<386999999wqqw0rrrwwruuuwuwwwuuuyiisuyww0009999990059999<101:::1:::::11<,,31,,2222956522665<,=%%=7wwwqwrruuipiipiipipippiipiiisiiurdpiiiidipddidiuyrrrrrywwrruuuuuuywwwwyrrwwqwwrrrrrrrrrrrrwyrwwyrrrwwryr7pppphhhhhhhdyriruuuuuurriyiyyyiyyyryyiyuruyyrrrrrrrrrrrrrwrrrrrrizckcczccxcccxcczvccczkiipyyiyyisurrirurururrrrrwskkllcckckkcckdtwwiituwrryrrrrruuituituururrrrrrrrrurryirrpjclkjhsiurruutruruuriazcvccccccckkdaryruuururrwyrrrywwrrwrrrrurrrrrrkklfiiiiidpiidhiiddihdiidzkczcxlzzzzzzzzzkzkkdpyuw73333266676566900w0666r777<33362<,3qwwqq6q7wqq63669",
"czzzzzccczzzkkzkzkzzzzkzkzzkkkdddkkvcccczkzzzxzkczkkkhiidsppphfkzxzzzxzzczzfkhhfpdapidsadiddisipidiidddiapppdhadddhhdhhhkhhhhhhhhddhkzkfkzzklzzkjkhhkkfhipahdpphskkkhdi000y00959899900000899999833324<1221=,,1==<1256566666q79696699366695995995666q969336666663122====16666655636766653266666666666669699679097996699790900w9www007962<,21122222<3636w5iirwurww90errtrrrr0rruuuurwwwwwwwwwwwwww00r0r0t000uttrrrywywuuwuyyu0yww06wwwe736666wq9669669999q00qrwrupddiiihdphitupzxkkkckcccckkdpppiudpiihhhhphhhhkhkkkhkhhhhhhddhhhhkkkzkzkzkkhhhsdddpiiphiywqwwrq79396632,,11,,2221,11,112,111::11:111::111111::1:1:1:111111:111111,,,==1,=,=,,,=,360006690530wyrwru0uuurr0000uuiypst000r099999909909086>201@:;1:::==12,,182252522666343434:2*2<-qr6rq9uyyppiippipppippdiidpiidiyuiddispiidipiipiiywrryuuyyrutuuiuuwrurwwwwwq7yrryrwwuwwyrrrrwyrywrywywyryryidphhphhhhpiryyrryrrrrryy7yrrwrrrrrruuuywrywuwrwywywryrrrwryrryuikcckzvcccvcvvczzzczhiiiiyiiiiyurrrupiirutsiuuyrrrihcczkzzzjhiyrwyrrrrrwrrrwtururuuuuurruuruururrrrrrrrrrrrrurruyyyyiyiyiyiyiyirruippkczjjdyyryrrrurrruurrrurwwwywwyrrrrrwryrrrtwyyuuppiiipiipiiiddddddhhhkccclzkkkkkkkckjkdpiiur09298255655666900u0090996<<<<22222267wq6ww99w966699",
"czzzzzccxzzzlzzlzzkzkkzzkkzjkhkdhhkccvcvzzzzxzzzzzzkkhdiddppphlkzzzzzzzzczkzkkhhpddiiahsididdidisidddidippppdddddddhkffkhhhhhhhhippddzzkkzzkzzzkzhkkkhhhpphhhhahddkdkhiu000009959559000000099088211<<<1<<,=,,111<12256666779996993666663595899896966639969996555222,==1236665662666335636666998966636696766690960999900q9000wwq0q090962<,121321822576776iwrwuryw00rrrrrr0rurrururrrywwywyywyywywerre000r00000tr0ytytwwuwy0wwwwwy9qqqe737760qq999966999669900rruuiiiiisiwtewihkzkclccckcckhdpiippipiddhhhhhhhhhhkkfhkkhhhhhhhhhkhzzzzcccckkkkjkkkhdpppdiyurtuuurwqww7<:,2=1,11821:,1,188211111:1111:1::1:11111:111::111:1:1:1:11:,==,,,,==,=,1=,100000699<36rrqwyrruuuryy0yuuuyiiuiu000000999099909099>608*1:1:1:::12,,116226555666<443<38<==*=6uqrqqruupypipipppppsiipsiipdiiuipiddiiddipippppiyrrryryyyuuiuiiuuyrrwwywyw7wrrrwrwurrrrwrwywrwyrwrrwwrrrw7ipphhphdhdiurrryrrrryrryyyywryrryyruuurrywrrwwywyrrrwyrryrrwrrrwidcxxccccccccccvzzdiiidiiiiiiyiuuuuuiyiuuusuuwwwruuuupkhdphhpprrrwwrirrwrurrrrrrutiuurrrururuurryurryrrrwrrruuuuyyiiyiyiyiyiyiyyuuuuippdppyiyyyrriruriruurrwuwwwwwywrwyryyrwrrruwwuuyypippiipipdiiddssdidphczckhpdddkddzdhhdiyirr052221555<2>2266900690q93<<23<332<<436969w69999669q",
"xzzzzzczzzzkzkkzkzzkzlzkkkzkkhdddhkzcccczzzzzczzkzzkhpishpppdkkclkzzcccvzzzzlkhaaddpdhasididididididdsddapppddddddhdhfhhkhhkhkkhhkhddkzfkkkkkzzkjkkkkdphppfhhhdddkkksdiu0000009795900urr00000009<<<<22<<:,,=,,11<<22566666q997999996969989598595666699696999655222==*==33366555366543566669999q9633366669660900979999700700qw0w00000095<:21232234336w66wwrrrryww0rrrrrrruu0uuuu0wywwwwwywuwywwyw000r0r0u00utuuyywuuyuwuwwuyuuwwywwwqq639369q066996809666660q0wwwrriihhiw57ypkczzckcclkkckjhdpspppiisdhhphhhhhhhhkhjkkhhhhhhkkkkkzzzzcccckzzckkkdhhddhdiuuuuruuuusq62222>11,12222,111222111:1:11::1::::::=:311:11:1111:::1::11:111,,,,,,,1=,,=:,,66669q00350qwywyrrruur00ruyuuyiiuiiu000w9999999909w90<809*,;::::::,2,,1,66666569633336368*1*&<=qq3099quupiupppipspspdiiddpddiuiipidididdiipppiiyrrwwwyuiiruisurywryw7wrrw77wrrrryrrwrwrrwrrrwryrwwwwrrrryipphaphdhhiyrrryyrrryryywywwyrrryrrrwyywwrywrrwrrwyyrwrrwryrrrywwikcxczcccccvcvvczdpyidiiyiiiyyrrrrryyduiiuuuww0rtuwwykhhspppiwywwrrrrryrrruurrruuutuuuuuuururrurrurrrywyyrruuriyyyyiiyyiyiyiyirusiyyyyiyyyiiyirrrrriuuuuryrrywwwwwrwwrrrrrrwrywywruyiiiiipippidiididihddhjkzkkaidpddkdjddddiiirr0521225252<<129690099076<,<322322<<<23w69999w6666qw",
"zzzzzccxzzkzklzzzkkzzklzzkjkkhkdhhkzcccczzzzczzzkkzkdpdddpppdkllklklccccczzzlkdakdidahapdidisdiddidiididppppppdddddkhkfhkhkhkkhhzczddkzkkkkfkzlkhkkkhpphaphhhhddiidiuu0r0u00999999900r0000900000322<252<<<11,=**,<22565666799w99939996669595995696q639999963655222==&*12223665656653<566666996996666666996696999966699q0900www0w000q095<,22233235526w62wrrurruuwr0wrtrrwurrrurrrwwwuywuwuwuwywtwtt0rt0t000000u0rywwytywyy0rwrrywqwwew669235666566669966366909976qewtiiww5wpkccxxkzkckclczzkhppppiiidhhhhhphhhhhhhkhkkfhhhhhhhkkjkkkzzlklkzzkkkkkkhhddhduuuuruuuuq722672:1,=,,2211111<21<11111::11::::1+:=:111111:1:1111:1:11111111=,,,,1,,1=,:=,<<<3607w3609w7wwuururr0000yuuiiiusiuw00w09999995850904998@;*:;:::=:2111166666669663666668=8<=<&=2<0q99puippipppipippiddiiiiiiiippiipidsiiiiippiirrrwryiiirqituqrwrwwwyurrwwyrrrrwrrrywrwrrywrrwwywwryrrryphphhphhhdiyrrruyyrrrrrwywyrrwyrwrruyyrrywruywuwrwrwrrrrrrwrruywyikvxczcccvcccczvvzpiiipiiiiiiyrrrrryyiiiuurrywrr0iahkdkkdkjjpirrrrrirrwruruuuruuuiiuuutuuruurrwurwryrrryrrrruuyyyiyiyiiyiyiyyiuuuipipphiiuypiyrrirrrruuurwyywwwwwyywrrryrryyrrtuwuuuiiippipipiiidddddidhhkkczzkkkhkkkkkkkjhpiiuur9222866566699009000007963<33<222<2<66999w79w666699",
"zzzzzxcczxkxllkzzzklzzkzkkjkhhhdhkklzxzzzzkxcczzkzckdpshddpddhkkjhkklzcvcczzzkddkdsphasippassssadidddppdppppppaddddkkkkkzkkjkhhhhjhphzcckahkllzkjjkkhpppppphhhppsddiuu0000009959999000u000000t00w6322522<22<:**,,<2566566999999996938999999599697666q69996666962==%%%*=2555666666653666636666999966966966969996996666790090qww000900095<226293235637w95wrrururwwu0ruyuuu0uruturuwyuwuutyywwuwuwy0r0ut0t00tr0uurrwtwywwywwwuwywuwqwwee95q532266526369q9693666666636qwrrq6wuhkczlxczzzcccckckkddppispihhhhhahhhhhhhhkhkhhhdhhhhkhjkfkkkkffckjkjdkkhhhhdhdyiiuryiii66996212:,::,12,1111<21<1111:111:1:1::::+1113111::1:11:11:1:11:1,,,,,,1==1,=:,,:=<<<60qw07wq0qrwurruuuy000uuuuuyiiuwww000999995995980288,@,*::1::=:81,11965696693646666622333,*&**2956uuyipipspsppspppidpipppiiipiipidippipippiiuuruuiiiuwwuiurrwyyw7wrurywryrrrrryyyrurywwryyryrwwyryrrihpppppfhhdiyrrywwyryrwryrrwyrrwwrrwyyrrywwrwuwrwwrwrwrrrwwwrrrytwdkxcccccccccvvcvvzappiiiiiipiitrrruiiiturrwr0wy0wpcvcczzjzczhdrurruuuryuiiuuuuuuutuiuuutuurrrrwuuuyyrrwrrrryruyiyyiiiyyiyiiyiyuiyiippakdiuyiiyrruyruuruurwrrwwwwywrwwyrrwrwrrrwywyuyiiiipiipiidididpppghkkzzzzckkkkkzjckkkdddiuiu9528965999000009009909q9622323222337w099099w666699",
"zzzxzzzzzzzzkkklkkkzkkkkkdkkhhdhdhdzzzzlzkzzzxzzkzckkdddhdddddahhlkllzcccczzzkkakdpphaiipsssasdsididppdppappppdkdddhhkkkckkhkkkhhdphkzzzxhakklkkkkkkkhphahhhhhhhddkdiiu0r000999999990000r0r00000092<25552222,,;:,12666669999999996999999999969996q99699999366935==%#%*12526665363666699669669qq999969969667999909966990090000ww06060095<265596266666e79wwruuuwruu00uiiuiuuuuuir0wwwuuwuuwtywwwyw0rr0u0u000000trruwywyuwwwywrwryw7errw769w65590626669q0q9q663336966erre76phkzzzzzczcccccclcccjhdadsdddhhhhhhhhhhhhhhhhhhhdhhhkhkhkkkkkkkkkkdkdkdjhhhhddiyiyuuyiyiwtw951<21::::11,,111228111111,1:111::::::1:1283111:1:111:111:111,,,,1=1==11:=,,:<==<36qw0wwq0ww0uu0u0u000u0uyuiiituq0q0699955999990592648;,:8:,:1=11,,,,622625566666660666,<<,<<%%,<<590yuuiiiisippiipdipiippiipippiiidppiipippirutiiiiiywwuiuruwrwwrruuurwrrrryrryyrrrryrrrrwwrrwwwrrrryppiipphdhdiurruwurwwryrrwrwrwywywwrrryrrrryywuwyrryyyrrryryrrryripkcxcccccvvccccvcaiippppypipyyurwwuiiyrrrrrruwu0yiddkvzlkzjhpyiryrrirryyiiiiiurruuituiuuururrrruwuurrrryrrruuuyyyiiyyiiyiyyiyiuuuiyipdapiuyiiirrirurruuurrrrywywwwryryrrrwrwrrtyuwuyyipiippiipidsdpppikkkzzzzcckkczzzkkczjddiiuuu0222899699909099000009w7622233323337ww99w9ww666669",
"zzzzcczxzzzkzlkzlkkkkzkzkjkhdkdkhhkkzxzzzkkxzzzzzzcckjhdhddhdpahkflklzccccczzkkahaiasspippasssdidiidspdppdadddddjdhjkzzkkkjkhkhhhiihczkkxhahlzllzkkzkhhhdhhhkkhhdkkhhdu0t000979999900000r0t0u000w96355665252<<,,,126696699909997999999099998699969669996966335221=*%*=322553535666766qq99q9999999699666699999900q9966970000qww000090096226256626656q67wwwwuuurwyu00uiiuiurruiru0yurwuuwwyywwywywtr0utu00t00t0rrrwywywwywuwywwyww7qwqeq6q9q766062666qqq0088866690wqwrw7wikfkkzzkzkkkkklkllklckkhhhdsddhhkhfhhhhhhdhhhhhhhhhhfhhkhkkkkkkhkkjkdjkkdhhhshdiiiiyyyiiysiq6621:,,:::,1,,,11288111111111::1:::::::=118331111:1111::11111,,,=,=1111:::,,:,12<<60w00yq0wwwu00uuu000uuuuuuiiir0000699599995980596928@1:1:,:2:,11=1,662265699977070600<44<66<2<20qwu0ruuuiiippppppppiiyiiiipiiiipdpipppippiirruiiiiurruttiuuwrrryrutuyrryrwrrrrrrrrrrywwyryrywywyryrwiiippphdhdiyyrwryrwrwrrrrwrrrrrryrrrrwrrwrwrwwywwwywwywwwrrrruuiwiplxccccccccvccvliyipipyiiiiiytuuuuyiiwtuuuurruryiyyikahhdpsryirirrurryiiiiiiyuuuiitiutuuuurwyyyrrrrrrwwrrruuryyiyyyiyiyyyiyiuusiiiyypiiyyiyiyrrrruuuuurrrrywwwwyyrrwwrrrywyrrtwwuuuiyiipiiipidsiddppphgzzzzzljhkdjkjkkkkddsiuisi0522<66565955999000009963<<2332222339079999w699999",
"zzzzcczzzzkzlkkzfkkkkkkkkdkdkdddhddkzzzkzllzzzzzzcccckhddddddkkhhkklkzccccxzkkfkhispaapassssapppipsdidppppdpiddkdjkkkzzzkkjkkjhhr00aczkczhakzzkzckjzckhphdhhhkhhiddhhds00000099999900y000r0rtuutwww96565666221,,<2266966909999998999999969956999q699999q39964<422==*==112235555366969000q7q9696999366666999w090w796669999000w0qw00009963252263563<5629w6wruurywri00upyuiruuuiuurrwruuwuwwwwywwww0rt000ut0tu0t00rwwuwywwwwuywwww06qwwq76w699666519699r0wr8qq999q0tww77qpckhhhkkfhfhfkkhkhkfhhkkkhhhddhhhkhhhhhkhfddhhhhhpphhhhkhhkfkkfkhkdhdkkdkdhhhhhhpippippiiiqwq92,,,1,:>,22,<211122181111:11:1:::::::::11113221:11:1:11:11:1=,,,=,=1=1,=:1,:=1==,46q60q77qr0u0uuu0u0000uuuuutur9000999979997959509098+:=1:111==1,,8165666656669670660006663363,>9w7w0wwrutiisipsippppyiiiiiiiiidiipipppppiiiruuiiiiiwyuuuurryrurwuuuurrrurrrrrrryryrwrryqrywrywwrrry7yiippphddduywuwwwrywrrrwyyrwywrwwwyrwyrrrywruwrywrrrrrrwyrrruuuiy7pcxccccccvccccclppppipiiiipiywruuuuyiuuuuururr0wiiw0yyiipuuiiuurrurrryuiiiiiuruutiitiuiuuruwryrrrrrrrryrrryuuiyyyyiyiyiyiyiyurruiiiiyryiiiiyyrrirrurruuurrrww7wwwwyrrrrwyryrruuwwryyiiiiidpipiddpdpppishhhpppiuyipdddddddiii0sstr822,<<<1>22<55590099963<:<23<<<,,<3396909w969699w",
"lklkkxzzzzlzzzkkkhhkkkdkddjhhdddddjkkkzzzlkzklkzkccckkddddddhhhdkkkzzvzzczlzkkkfpddhhdappppadhhpdsiiddspiddsdiiikkzzzkkkkzzkkkkkduyihhkklkkklxzzzczkkkkhhhhhkhhkjdjkstw0qwwq09000000u0y0000uu0ru0rr0559599598528996600007000099999885959999668556689999908995<55,,:==,<<22552236rqq96q9qrwq799999966960969696998996666990000q997999696523356666666659qw7wttyyyyyusuusuusui0iuir0rryrrrry0yyrr0wwuwuwwuwywwwwwwwwwwwyrwwwuurerre99t0r98<09525992,9wr0wrwu000ww00wt059yklkkphkkkkhhkhkhdhhhhhhhhaphhhhkhhhhhhhhhpppaaahhapphhhhhhkfkkhkkkdjkkkhkhhhhhkhpsuypiiiiiyst952<,:11,,,1<1<<<5555218,,111=:::::::::::::111552<:<1111,,1:::,,,,:,:,1==,,==,,=2=33700q0w0w000rrr000000etru0utiiy99w9q999999999999eq08=&:,2,::111:,222666555796369q9669669662222==3eq9ryrw0yiiipippipyiiyiyyiippipiippiippiiiuyuippiiiippyiyiyrurruyruurrwrrrrrrywywryrrrwrwyrwwyrrrr0yrwidpdddiuurwtwrrrrryrutytrrrrryrrrrrrwrrwrrrwyrrrryuurrirrrrriiuuhvccvcccvcvczcjyippiiiidpyuyruutuustuuuturwuwiwuiiwiwippiiiyuriiruururuiiuuuuyrutuutrrrrryrwyrryryrrrurruuuuruuurruryuuuuusriryriyiuuyuuyyyyiuurrrruuuyyrwwrwywywywyywrrrrrywruurwruuihjhdpippippipppahkaphaididdddiikdipiuudiir9822<<<<1<<<2426qq96662<,233,,,,222267999ww5q0060",
"kkklzzzzzzzzkxkkfkhhhkkdddhkddddddhkkzkzkzzklzzzlcklkkhddhdhkhkkkkzzcczzckzzlfhkaddadhppdpdppphpdiididddiddiidsdfkzzzlcczkzzcccckdiphdjkzzklzzkkzckkkkffphhhkkjkdpdduruwywuw099900rr0uwwuuu0urrrurr099995955555299990q0wwww00099889999999966669986669999069068661<::,<<25656526666q9606q9799999799936666566366966666366999009990666999762555676635567qq0wwwyutwy0ut0tuuit00uuu0ryr0rr0yrrr00yyr0wuwuywywwwwwwwewywwwwwywrwrwwrq70i00522u955599922000wwwyq0qwww0wq0tskczfkkfkkkfhhhhhdahdhhhhhhhpphhfhkhhhhhhhphhhppppppaphhhhhhkhkhhkhkkhjhkkhkhddhhkhhspppipayyt9622,1,111,113<<<<25552111::11::1:::1::1:::1111252<<<1:,:,:1:1::=,:,,::,,,,=1=,2=2,<3q70wwq000rrrrre000000rrruuuiuwqw9969966769959999998==::1,,:111,,222666666966669q7666696963552==6rww09quiyriiiipiiipyiiipipiiipippipiipippyuyyiiiiiiiypiiiyyrrrrrryuryryrrrwwrwrrrw0yr0ryrrwrwryrwwqyrwidpdddiuuwwurrrrriyruuuurrrywrrryryrywyyrrrwrrryyyuurrwiriirriyihvxcvcvcccvcccjiipiiipidiiyuruuuuisuiiuuuuuwwrwuirwuupiy7iiiurrurirrrrtipiiiuyruuuuurrrurrrwrwrrrryuuurrruuuuurrrirruuuuuurswrrppppdiiyuyiypuuruurrruyrrrrwwwwwwwwwwyyyrrryruuurrwuukkkckhhppiipppppkzccczklaakdkdhddkapiiyyisir0822<<<112223467qww7q93,<3222222222266999qw397669",
"kzxlkzlzzzzzkkkkkhhhhhdadsdhdddkddhkkzzzkllklkzzlclkkdpakdhhhkkkzzzzcvczczzczhhhhdddppddhppppppaidisdddsididdisdhkklzzcckzzzcccvzhaisidkzlklzzzzcccckkkappfhhkhhiuiiwwuwrrrq9999900ruy0uuuuruuuurr00999595899989q0900yuwwwww00008999990w999699996699990965996696<1,=<<655555226626q760606769999q96663663666366666252666999907990666636665223665536566qw9wwwtyyuu0t0uruuu0uuuuru0r0rrywrry0ry0ryyuwrwwwywwwwewwwrwwuwwywwwyrrrw960i00552r9889999220090w00q00wwwwwqusjckkkkkkfkkkkhhphhhhhhhhhhhhpdhhhkhhhhhhhhhphhhiiippihhhhhhhkkkhhdkkdhhkhkhkjhhhadprewwwwww76652211112111122<22<55565118=:,1::1:1:::1:::1:111<522221::::::11::,:,=,:,*,,=,11,212=2<6w00000000r00rr00000rruuuuuiuww0q999363666558999992==::,,,:111:<16266966996666966696666668663,=<6<56wwryruiiipypiiypiiiiyyiiippiippiyipiyiyyyiippiyyiyiyyyrrrrrrrrrwwwrrrwyryrywryrrryywrwwrwyrrrw0yrrspiddiywuuwtrrrryyyyuuutryuurrrrrryrrrrurrrrryrruuuurrwirriryiyikcxcccccvccckckpiiipppippyuyuuuuuusiiituuuywwywurreuiipiyyiiruuuurrruuiipuiyyrruuuuuuuuuurrrrwwyyrryurrrruuuuruuuriruruurrurrpdhhkkkkdiiiyyytiurruuruurrwyqrywywywwwrywwrrruhddpiiphcczcvckhiiipappdpkzckkkkkkkkkkkkdkiypiiidiiu098211<<,<12236q779w993<12222322,,2266997ww606700",
"klkzkzzkkzlkzzkkhhhdaddpiiddddddddhjkkkzkzkzzzzzcckkkdhpddhhhkdkkzzzvcvcczzckkhahhdppadhhapppphpdppdsdiddidiiidhakkzzccczkkcccccckhpuipdhjkkzzzxzcclcchhhhkkkhhhduuuwwtwrrw099990000rwruuuururuutr00009509999900wqwqwtuuutwwq0000090999995999568668998608996556<3<,<366666665699<6r66qq9669999996963365566666666666663669990999039966225522363555666997w690wwwtuut00riu0urruu0rrrr0yrr0ywr0yrwrwwuwuwywwwewewwerwywwwywuwwwwww939r0t0050099999999w00rw7900000wruridjkkcclkfkkklckkhphhhhhhhphhhhhhhfhhjkhfhhhhfhhppppiippphphhhkhhhkkdkkhhhkhkhhjhhdpi06996665332<<212121<1<<33342556662181,::1,:::::::::11:1:1:,828221,::=::1::,=::::=,,,1*,232==3=2<7w0ww0wwq00w0r009000r0u0uutiuw009999996966255990992=:::1=,,111<1222369699096966666996669996693,<>&<6qw00ryyiypiiiiipiiiipppipuuipiiipiiiiyiyiipiiypiiiiiiyrrrrrrryurywwrywywwrywwyyrrwyrrwrywrrrrr0yqysppdddywuuurrtruiyiiituuuuuurrryrrrrrururrirrrrrrwuwrwiwrurryiipcvcxcvvccccvccdyypiipipipiyirrrruuuuiuutuuuwwuwwiwwi7iiipiiyuruuirrirutspiyiyrruuutururrurrurrrrrrrrrrrrrruruurrriruuurssuurudhklklxjhpiyiiyuuuuuruuuurywrrrwwwwrwywwwwwwruikkjkkkjzczkccckzapipppphzlccxccckkflkkaadkdiiiypiisir085221211<1346qq797883<11222221,,23667900w666600",
"zlkkzkzzzzzkzkkkhhddddppuiiddddhddjkkklkzzzlkzzzlckkhdddkkdkkhkkkzzxcczcczzzkfpphdapdddhpapppadhpidippppddiiidsdkkkzcccczcczzkzkczkdppahlkklklzzcccccckhdhkkkhhdhidiuyuw00999999900rrruuruuru0u0ur0r00090999000twwrwuuiyuuutuwuwt000000099995885668966669999666283339999997q990036r66r96999q79999396666366866996669966369997999069963242522235326669q7qw600qtrwy0000uiuru0uuu0rurwrry0rrry0rwwryyuwwywwwwwwwwewruwuwwwwwwyrrre760rrs0r0rr00999999qwqrr00wrwwruiiidjkkkcclkkkkcccckhhhhhhhddakhhhhphhhhhhhhhhhhphapdhhdpppppppkkhkhkddkjdhhkjhkhkpddddpr59996666622<12121<21,236424256532181,=1,,1:::1::::::::::11222222<,:::::1:,,=,,:,:,1,*:3662=2=220q00q00000r00r0999900ruuu0wiuw09979969666689598900<*::=1,,1111<<122566979969q06669q996999966qq223>966qruwwiyiyipyippipiiiiiiiippipiipiippyiiipiiiiiipyipyyrurrrruuurwrrrryrrrwywrrwywwyrwywyrryyrqqrwysdsdddywuiuurtuiuiyiuuuuuiiiyururrrruuiriruruwrryruwuwiiwiwiuiihcxcccccvccvcccjyipiidiiipiiputurtuuuytyyttwyyrwuiwwtyyiiiiyyruurruyruuupsiuiuwryuuuuuruuuuurwywyrrrrrrrrrrrururuuururuuruuusyphkkkkkhdiiyuiiuuuuruuryyrrwrrryywwywwwywwwyyuujzczkkzjxvccckkkaiiayaafccvccccvxzzzzllkkzappiypyppiu09223336322636qwq736331,12,2322<233653679q606670",
"zzzzzkkzzklzzkkkhhdddppiuidddddddddhkkklkzkzzkzzkkklkdhdddddhkkkfzzcccccclkkkhkahhhdddddpppppdhhppidpppidddidishkkzzkczczlzzzkkccczkdkkkxzzzzzkkkzcccclfddhkkkkhjddswtu900999990000ruu0ur0rrruur000009999959000ewtywuiyiuuuuuuuiuuut0t0ry000999096696666559980w5q62590967q99699099u76t97900q09q7999996666996669669999666969079995669662265456663536qwqww0qwrwwwqtrutuuuuuu0uuuuuyyrwrrrr0r0ywrwwwwwuwwywwwqwwwwrywwwwywywwewww93t09r60rurre998698000rtwwwuuuuipiidjkzkkkzkkkkcccckhdddddhhdhhhhdhhhhhhkhhhhhhhhhpphhkhhppppppkhkdkdkkhkkhhhhkhhkdhaakhr6q966663652222221<<<<265<22556655181,,=,,1:::::::=::::11:,121155<1:::1:1:,,=,:,,,=,,*>596212=227q0000000000r00959890uu0u0tyuww0976963663299955569,**=:1,,1111<12225399969666696609q669999662<,,2<qwwwrwwwyyipiyyiyiiyiiiiiiiiiipupiippiiiippppiiuiiipiyypuuurrurrurryrrrrrwryrwwrrrrrwrrrrywyrrrwwuwsppsdidiwtursuuiyiuiiiiiiuiuuuuurrryrrrrurryruuurrrrurrrriwiywiihcvcvcvccvccccvkiiippppipiyiyuuuuuuuuwywwyuuwwywwiywiiiiiyiiyryruuurrrrtisuuyyrwrituuruuruuwurrrryrryrryyrryuuururuururruruuuyshkkkklhdiiuuuuuuuuururtyrrrywywwwywwwywwwwwwruhkjhhpppfkvvvcxvfiiiipffzzzzczccxcxvxvzzcckdpuyipiiii095122393386336wqq33331<2222222<<335<5669w666600",
"zzzlkzzkzzzzklkkhhdaddppiipdppddddhkjkkkzzkkzkzzkkzlkkdddkkkkkkkzzcccczzzkkkkhhhhddhdhappppdddddippddpppididisdhkkzxlccczzzzzzjcccccxczzxzzzzkzkklkkkcckddhkkkkkjpdiwuw90099900900rwr0ruu00u0uuu000099599599000ewwyuuiiyiuiuuuuuiuuuuuuuyryrw0yu0000e00066906ew6965670099966669qq0rqqrqw0rww000wqqw9q96690969998699996669990969953609962752266636366779q99qwrww00urrrturuu0u0uuurrywyw0y0yrywwrwwywwywwwwwwwwewwwywwwwwwwwwwwwq6r99r290qrr9998966000tuuuqtuuipppypddkkkfkkkkkcckkzjjhdhhhhhhhhaphpdhhhhkhhhhhphpddhhhhhaapappkdkkdddkddkhhhhhhddjjhdhjr69665356365221211<<<>266222255552111,,,1,::::::::::=::::1:,21255281:::1::,,,,,==,,,*,<669812=23q9000000000ru009998900uu0rwiuwq9q69699666299589599,&:=&,,1211,,122556699690666600666666999922,&=>><6erq9wuiyiyyipypiiiypiiiiipupupiiiiiiyyiippiuiiypiiipiyyrrrrrrrurrrrrryyrwrrywyyrywwyrrrwwyrrwruuwuddudddyrurrtutiuyyiiuiiiuiiuuuuuuryrrrurrrrrururwurwrrrwtwtwuiphvvcvvcvcvcvczckpipdpiiyppyyiuuussuuiuuytuyuwwywwwwwipppiipiyrrrurrrrtyuiiuyrrwrruuuyuuwuwuuwwwyyryrrrrwrrrrruruuurrurruruurursdhkhkkfapiiuyytrururruyrrrrwyywwrwwywwyywwwwrwsspsurrriphjkkflppiipapazzcvvccvklkkzczkkkaiayupiiiiu0951<1222222<2333222322,<2122<,,<<3<>,<569366600",
"zzzkzzkzfzzfkkfkhhppapppiiiddddapphhjlkllkzllkzzkkzzzkkdkdjkkkzzkcvcccvvvlkkfkfkadhhhhdaddddapppppppddppuiiddskkkzzccccckzzccvcvkcccccczzlkkzzzfkckkkcckdkkkjjkkkjdiwiiww0999000w0wwuu0u0u0urruur00r09900999000rwywuiyyiuuuuuutusuuu000r0y0yyyy0trrtwtwewwwwwuu90967rirw0079997rq7qqrtqq0rwww0rrwwwww99900w990996699996699999669639ww96296256763666763372390qwqwt0ruu0uur000uuu0wwyrrrrrrrr0rwwwwwwywwwwwqwwwwwwwwwyuwywwywwweq7u00u6009rw9999850wq0uuuuuissdhdphdddkczkfhakcklkzckkhhhkhhhhhhddhdhhhhhhhhhhdhhhhdapdhhhhppppkppkhkddkdjhkhkhhkdhhaphhr599666666762221222<<<266445226652111,111=:1::::1::::=::::::1<2582181,1::1,:,==,,,,=:<3667q32=33q900000000r00u09699900uru0tuiwwq7699q9966659999999:*:=&,11211,<2<2255799966636666q6666969662<<:<35=:26rrw0ypyipiiiyiyiiyiiiiiupupiipyiiiiyyyiiiuiiiyiiyyiyyywrrrrrurywrrywwywrwrrrwwrrrrwywrwyyrywrwutdiudidirrrwtruuuiiiyuyiuuiuiuuuturryyrruirrrruururryrwiiyuiwuipkvvcvvcccccvczcayyiypiiippiiyuutuurrsuuywtytywywwuwwiyyiipppyrrruurrrrrtiiuyrrrrrruurwruurrwrrrrrrrrrryrwrrrrtuurruuurruuruurrrruuuuriyyyyiiuuuurrrrrrrywrryyyrwwwwyywwwryrwywwrrwwrrwyuihdiyiiippyippakzkfhdpppddadppsiyiiypddiiur953221,122:<<34<121232<,22321<<<<<5<<4<<5<66690",
"zzxzczzzklzkkkkkpkhfpaappppppppappjkkkzzklkzklzklzzzzkkahhhkkkzkzzccccccczhhjhkhdkhdpddpipdpddpdpadddppiiddipdkdkkzzzccvzzzzcvcvvvccckkdzzfkzzzzzczzkkkckkkccckkkkhitwww009990000000rrrtuu0urru0er0000000000000r0ruuiiiyuuyiiyiiut00u0u0rryyyyrrwwywwwrryuuuuw00990wrririqqq7qr07ruwriiwrryrrywrrwwwwww99999707q669q963666q9966q356w69627<23w376665352529w66r06tu000yy0urt0w00rw0ywryywrwrwrrrrewwrwrewwwwqwwrwww0wwwyrwwyuwwwwwu0ww70ppuuuq00ww990rtiuuiipdddddddpkkkkkhkdkkzzcckckkaaahkhjkhhdphhhhhkhhhhhhhadhhhhdddhahphadddddddpffkkhhhdhhhhhhhhdpyi096699665222<5522<<565<222222253<11,,=,:::::*::=:=::::::::118221111,,,:=,,:::::=2=,29669869999999999090qwr00969660wwwwywwwww7679996698295999900====:11=,,122225256666660636q6969666966926882,,<26&=ry0wiiiiiiyiiirrruuuiiiippiiypipppiiytytyiyiiiypiiiyrruuurrrurrwwrrrrrywyrywrwyrrwrwyqrryywrwwsiipiyiddirruuiypyyiipuiiiyyiiuuurrrrwrrywwrurrrrrrrrrwyutyywiiwikxvvcccccccccczpyyppyiiiiyiiiiiuuuuuuuurwwyywwww0wuwy7yyiiipauuruuuurrwyipiuqwyururryrrrrrrywuerewrrwwrywrwuurrrrrrrrurrruyyiyuyiiiiiuuuuruuuuruururrrrrwwrrwrrwwywwwwywyrwwrwrywrrrrwwiupipiiiiiiaiiuiidiiiiiiudsdddddiuiipiiiii0095e2:2333,2<22232,,1221<12222,,,<32211123=<4366",
"zzccczzzzzkzlkfhphhppppppppppaapppdkklzzkzzkzzklzkzzzkfkhhhkkkzlccvcvcccckjhhjjhdhhahhhdppddsspppdddppppipdipdddkkzzzccvcvvvvcvcckhaadfkzfzzkzzzzczkkkklkkkcclkhpkhiuwwwee990009000rrrrr0uu00yu0t0r00000000000rrwuuuiyiiuipyyipyuuurru000r0r0rrruwwrryrrwuurur0w000wrruirqwrqru0wrurruuwwwwwwwwwweewwwww0q70qqq0qqqwq9666999966955909q95w335w6q9999696790t00q06wu00y0yyu0000rrryy0wrwryrwwererrwrrwywrewww9wwwwqwyryrrywwwwwwywww00y0yyiww000000000ruuiipiidddhdddpkkkkkkhkkkzzlcckckhhhhhhkhhhdhdphhhhhkkhkhhhddhdhhahhpphhhddddhkdphhhhhhkhhkdhkhkhhpydwq09996335222552524262><<223325211,,,1,::::::::==:::::::::1112288221,,,,:::,:111,=,296396666669099799900www9999679qrwywiytwy0770966996259559999*=::11111,122<2222666666q3366006q369966926622<<236=<iyrwyiyipyiyururtuusiiiiiiiipyyppiyyryyuyiiiiyyiyppywrrrrrywurw7wyrwrwyywryrrrrwryrrwwryyyyyrrupippipdduryuuiiyiipyyiiyiiiiyuururrrwyrrrrrrrryruyrryytwuwuiwtypzccvcccccccccvcfapiypiipiiyiidiuuuuuuuuwttuwuuuw0twwyyiiiiuwwurruuurrrwriiirrwrwuwurrrrryryrwrwwwrrrqwyrwwurrryyrryrutuuuuyiyiuiyyiiiuutuuruuuurruurryrywrrrrywrrywwwwwwwyyrwrwyrrrrruuuiipiiiiiiiiiiaddkdddddsddkddkdiiiiipiiiisuy09q2,11<,,,,,122222222<<2221,,,,,<2=12123,63606",
"zccczzzzklkzkkhkhhpppaiypppppppdphhhkzzzzzzlkzkzlzzkkkkhhhhfkkkkxccccvvcckkhkkhkhhhphhhdddpsspspddppppppddpiphdkhkkzcvcvvvzvcccvckhadkzczzzzzzzzzczzkklkkkkkkkhappdiyw00qq990965990rrtr0u00tuu0urr00t0000w00r0rrrtusiyyiuyyiyiypuury0u0uy0rrrryywrrrwyrrwuwwurwwqwwrruiutrrrurr0qyyrwyuqrwyrryywrrrwwq990090w000990wq99999q99666369w9996w565w7ew99799q0qwwqwwqwur000uuuu0000r0yw0ywrrwwwrrwwrrwrrwwwwwwwq09wwwqqywrrrrrywwwwwwwww0wuwyyywwrwyw99rwwruusiissdkhhkjdddkkkkkhkkzcccckkckhhkhkkkkhhdhhhhhhhhhhhhhdddhadhahhdaapaphhhkddpppphdhhkkhkhkhkkkhppduyq77665555555554<<554<112222321,,,,,,,:::::::::::::::::::,<<<1121221<,=::,1::111,=26696666666996999999000w0099669qwwywiuuiiw766669222299988955+=::,1:=111222555266666976666000066966663288622328*<yuruiypyiiyiuuuruuiuiyyippiiiipiiiyyrrytyuyiyyyyyiyiywyrywywrywwywrwwwywywwwrwwrwrwwrrrrrrrwrwiipiiipddpiiuuyppyiypiuyiipyiytuuurrurrrwywyrrryrrrrrrwuwuuwtityhcxcccccccccccccvkpuyiipipiipdisirrruruwyyywywwwwyhzcvkkkkhapiurruurywrwyipiurrwuuryruyrrrryrywwwwwrrrwrwruryrrrrrryrrruuryuiiyiyiiyiiuutuutuururuurryrrrrwrrrrrwrrww7wwwwwryrrrwryrrrwuyipddpiiyiipiikkzczzkkkhdkzkkkddpiipiiiuisu0u09,>,<<211112322212221122222,,,,23=12223<76660",
"xzcccxzzkkzkkkffkhfppppippapppddddhjkkzzzkkzklklzkkzzkfkhhkkkklzcccvvcccckhhhkkhkhhhhkkddppppddddappppppdpdpddkkhkkzcvcczzzzczczczcccccczzzzzzzzzzllkkkkkkklkkhapppit006q9999221880wtiuu0uuuuruur0rtr000rrrrrrr0ruuuuiuiuypypiiiiuyyuuu00y00yrwywrwwwwwywuywuuwwrwqrtiusirrtrrt0rurrwrywrrruurrurrqrwwwq79q7000999900966699q9969660w99629365q6wq66wqwqwquwwuwuuwuuu0u0009900wtywr0ywryrrewwwrreeewweewwwww00wwwwwyrwyrwruwuyywywu0tiyppyuuiuiurrutuuiiisdidddkjdkdjkkkkkhkkkccclcclclkkkkkkhjhhdhhhhhfkhkhhhhhhdphddddpdippipdpapkddhphhhhhkkkhhhkhhkfppiyww669652525235522425<<212121221,,,,,,,::::::*::=::1:::,,::,,<<1882282<1,,::1:1=<=,26636666666999999979w000w095697wwtwwwwwuyw5256001*:39955955<+**=*,:=,122226625666797666366q0009666566636666562&,wruuriruuriruruurutiiiiyyiiyiiiappiyrryyyuiyyiyiiyiyrrrrrrwrrwywrwwwwwwwwwwwwwqwqwwwwqwrrrrwrisuppppddhdiyuyyyyiypyiiiiyyiyprurrurrrrrrwrryrrrrryryruwyuwiywwyhvxxccccccccccccvcapyiyypiiiipuuutruttuytuiywwwywwphpajhdpipipurrryyryrryuiiurwuuwrruwyrrrrwwwwwwwwwrwywrywrruryrrrrrrruuryiyiiyiyyiyiuuyrruuuuruururrrrrwywwywryrrwwwwwwywwrwrrrrrrryuwwiippiayiiiiiiddddadddsiidaapaddiiiiiisutiuuiy8:>,,:22221222222232212222<,,,<23111123296366",
"cccccccxkzzzkkfkhkppapipppapappdpddjjllklkzlzkzlzzkzkkfkhhkhkkzzvccvvccvzkjhjkkjkddhkkjhdpsddhhhhppppppddddsdhhkddakzzzlzzzzcccccccvccxzzzzzzzzzzzzlkkkkzkzzckfhdddpiw099wqw92222290rriiuuuurrrru000000rrrrurrrrrruuuuuyiyyyipiyiuyuuuuury0rwwww0wwww0wwruwwywwyrwwwrussdtturriwrrrrwrrwwwwwwwwwrwqw0ww0000977q76669966666969996960q9695725296q969ewrqq0ywwwwuuwyyyyww798990wwwwwwwrwwryrr0wwwww0wwtwwewwww0qwwwwywwwywywwryywwruwwisidpiisiisiisuuuiispdidddkdkkkdkkkkkjkjccccxcckclkklkkkkkhhhkhhhhhkhhhhhhhddapapppppiaiapppdpppfhhhhhhkhjkhhhhhkhhppiurq66923233535232<4252<1222211<1,,,,,1,::::::=:::::::::,,:::::<28222288111:::1111==36636666669669999099q000ww0566qwwewyuwwwtw7266692*:2252222<:&*:=*::::,11266725676999066366q6q99963369633666562=3ryutrrrirrrruurutruuiyyiiiypiipiaiiyrrrwyuuiiyiyiiyyuurrryrrrwwwywyw9ywyww9y0r0wqwwwwwwwwrqwupiippipddadpuuuiyiiiyiiypiiiypyuruuuuruuwuwrwyrryywrrwrwwywuwwutukvccxccccccccccccckuuipppiiyiyuuruuuuiiuuuiutwtywwiyyydhiiiipyrryrryywwyyuiiuwwryrrrrrwrywrwywewqqwwqq7wwwwruuyrrurrurrrriuyiyyyiyiiyiutuutuuurruturrrryyrwrywrwywwywwwwwwywwrrwyrryrruwuyyyyiiiyiipiiuiidiiuiiiuippppsiuuiiipitiiruiu91,,11222,<<122212211,,112,,,,<23=22<262w6660",
"ccvvccczzzzkzkkfhppppipiappppphppppddhhlkzzklkkxzzzkkkkfhhkkkzzxccvccvccckjdjkkkhkkhhkkdddpdjkkhhhappippdsddhdaddddkzzzkjczzcccvcccccxzzzzzzkzzzzzkkzkkfkzzzczkfpppiuq979qw0985999900rrruiuurry0t0rtt00ruurrrrrrrriuiyuyiyiipipiiiuuuuuurryrr0wwwww00ywyrurwyywwrw0qrrsphtirwrirwryrrryr7www7ww7wqwwwqwqq000wqq09669996666699996660w68965363q69636we0000ww00wutw7w0ywyyw8890wwywwwwrryrwtewrrrw00qwwywwwqw0wwwwwwwwwww7yrwrwwywru00uiiippiiiipdsssuiiddpsiidhdkdjhdkkkkczkkkccccclcxkkkkkkkjkhhkjhkhkkhhhkhkhdhdddppppppiiiiiipppppphhhhkhhkkhkhhkhhhhhphiiu7763555355335<<25<2222222211,,,,,,1=::=::=:::::::1:::,::::<,5225255581111:::=,,137666666969999676999000wtq76367wwwwwuwyyyw75q65662,11122822>&&&*&==:=:2223664539969qq7633666066693396636063562:qsuuwrrurrirruuuuruuuiiiiiiiiyiiipyyyrwrryyuiyiyiypiiurywrrrryww7www7yww9wwwwwqqwww0qwwwwywwwrpiidiyaddddiuuuyiyyypiyiyyyyiiyruurrruurrwrywyrwwrrrrwrywwuwuuwwyhvxzcccccccccccccckpiiiiiiiyyyrrrruuusiuuuutywqwwykvxvkkkhkkhirwwrrrwwwyyuuiurrrrrruyrrywryrwwrwwwwww7wwwwyruwrrrrurrrrirryiyiiiyiyyyiuuuuyuutuuuyruruyywwwryrywrrywwyww7wwwywwyyrrrrruuuuppfpiiyiiipikkzczlkkkkkkzzkzddsiiiiiiuiiuuiue2,2,<<1<<113393332232222221,<23823366q606700",
"cccccccczzzzzkkkkpphpippppppppppppaddhkhzkkzkzzzzzzkkkkkhkkkzzcccvvvcvvcckjdkkkkhkkkkkkhfddhkkhhdpppppppdidsdddkkdpakzzzcvcccvvcvvcccccczlxkzklkzzkzklkkkkzzczzkhpiiuq600w99009999900r0ruuuuur0y000u0trtuuryrrrurtituyyipyuyiiiyiyiyiiuuuuurrrrrywwrwrwyuiwwrwwyrqwrtssphsiurrirwrryrrruwywrywrwwrrwwwqrrwrqrwwwq9666969966990q9660q86966373w593337669900t96ww6097wwwyy95899wwwwwwwywrrwwwwwwew0wwwwqww0w900www07w7w7wwwwwrrrryru55tiipiyiiuiiiisiiippppiddhkhjjdddhkklcckkccvcxcccclkkkkkhjkkkhkhhhhhhkhkhkhhdddddppppppppyppidppppppkhhhhhkkkkjkkhjhhhhdsiw776666655655525555669332<21,,,=,,,,:::::==::=::1:1:::,,>:<<<2555522111:::11=2,,396666666969679969607900q072666qwwwwwuwwwtw70652692112598882+&*@+&=:*,222665236999696q66667696699366666666966,:qtyiwrrrrrrrrrruuuuuuyyyyyiiiiyiipyyyrywryyyiiyyyiiyyurr7rywwrww77yy9wwwwy9wwr0rq0q0wwwywrwwrwdiypiyadpppiuyiiyiyiyiyyyyiyiyiruuutuuurryrwrrrrrwrrrrrytwyyttyrudcxccccccccccxcccckuupyiipiyyyrruuuuiuiutywwwywuwikxllkczjkkhyrrwyrrwwwyyyiiywrrrrrrrrwryrwwrwww0wqwwww7wwwwwrrrrrrrrrruityiiyyiyyyiyiuutuuruuurrururrrrwrwywryrywwww7w7ywwywyrrrrryyrwwwyphflaiiiiiiazcvvvvccckkcvxcxzhddiiyuduiiuuiiw3,1<,<1212233333333332322222<3363376qw000000",
"cvcccccczcclzkkfkhphkppdappppapppppahhhkzklzzlkkzzzzkkkfkkkzzzcccvcvvcvvczdjkkkkkkkkhhkhkhhhkkkhapapppidiiddkdddkhdkzvvxcvvvcvcccvcvcccckzzzkkkkzkkkzkkfkkzzcxkkkdppiwwwtq9qru0058900000rrurryy0t00r0000uuwu0rtiuiiuiippiiuipdpypiyyiuuuuuuuriuyyyruyyuyuiywwwwwwwqrsspsdsuiryiwrwriiuuuywruurrurqrrrrrrrrwrwwwqq936q999669qqw0q99qr96965393w67367q666qt9u92005657wwwww995990wwywwwryywywtwwww00www0ww9www0900w0www7wwwrwywryrryy55ussipiiiiiiiissipipppddddhkkkkddhkkkckkkccccccccvlkkkjjkkkkhkhkkkkjhkhhhhhhadadddappppappipddpppahkppphkkkkjhkkkkkkhddppiwww7766656636226656933322111,,,,,,=,:=::::=:::::::1:::,,:>:<>>58982,811:1111,<=,60636636366669699796660ww062337wwwwwuwywwiyw<6962229:1228222&=***&===,22232266997999666066609369699969996906q,=3qwyrrrrrrrrrrrururruiyyiiyyyyiiiipiyrywryyipyyyyyyiyurwrruryrwww9wwwwywywywy0q00ww00ywwyywywqsywiywdppppiwyiyiyiyiypyiiyiyiyuruuuuuuryuwrrryywrywyyqwwywywwwrwpcxcvxccccccccccckdyyiiiiiiyiyutuuuuitutwwwywwwwwykkzkkcjhhhhyrwwwwrwwwrrryiuwrwyrryrrwwrwrywr0q007www7wwwwywwyrryrrrrrruryiyyiyiyyyyyuuyruuuuuuruuuryrryrwrrwwrwywywwwwwwwwwwwyrrrrrruyyyyiyipiiyiiiipakzkkaadiddkkkfdiuiiiipiuiiuupyw2=1<<<<,2<12132221112,,12,,,,<23<366q0666006",
"ccccccvvzzzzzzzkddddhddppippppahppppkhhfzzzkzzzzzzzflkklkkkllllzvcvvvccckjjkkkkkkkkklkkkkkkkkkkhhhdpipapiiiphhkcxvccccccvvcvvcvvvvcvvcccvcczzkkzkfzzzkkfkkxlkhahkdpsiuw7w090wryuw9990re0wwrwwwrwwwywywwwruurwyiiyiipyiippippiipiiiiyiiiiiyayyyyyyyyyiiyyiuwwrwwwruypidpddppurwwwyyuuuuiirtreerrrwwwyuuurrywywww79666666q66690w9w9uw79w7790606w5566667qwuwwwww777wwwywwrww779qwww0r0rtwt0tw0wrw0eww000000000000rrr000rrwwururuwyww9yuddiiiiiuissippppapppipphhfkkhppppphpapahhhhkkhkkkjkkkkhkkkhhkkkkkfkfkkhkhhhddddkddddddidddidhhhdddkdccxccccckkhkkkhahpuuw99w666665652624269666666<,,2==22=2=:::=::=::::1:::::::::,1,111122<<<1<2<::,<,:,29926262929966669699990e025626000r00rrr0rtrr8559855911289822@*&&===,,,,,,<3333666997996699890860699959966690554$-euwrrerruurererrrrrurrrruuuyiyiyiiiturrryutyuuuruuuyrrryrryrrwwtwwwrr0rrqwrwwwwwwww9qeww9wq0uiiuuidippyyyuuirtirrrirrirtuuirrrrrritryr0rrr0uryyrr0ur0uu00uuwwihcvccccccccccczhstsuiiiiiirireiwiyyiyruuuruuryww0wryihdyyiiiiwrryywyr9yuwriirwrywrryyut0u0000000t0r00t0w0r0twyyurrrrytruuuuiyyuryyyyuuuutuuuurrruurryrrrwywwwryrywwwww0r0qwrqwyyrwrwywruruuiiiypiiiiiipkdpppiipiipaaidiiiiiipsuurutiuyq3<<<<<<,,,<4<32111222222,,,1224<<6667699666",
"cccvvccczzfzzzzfkkhddgdddpppppppdppphkkklkkzzkzzkzzzhlkkhkkklkzzvcvcvvcckkjkkzzzlkkzkkkkzzzzzkkkklhppappddddhzzcxxcvvccvvccvcvvcvccvcvccccczzzzkkkkzzzkkahklkhhfhdpppur0ww00wwryww990r00wwwwrwerywwwywywruuryyiiyiyipiiiiiiiipiiiiiiyiiiiiyiyiyiyypyyiiyuuwwrrwwiuyuidddpppuywwwyyiuiutirrriirriwwwwrrrrrwwwwww76636666666699q799ruwww7w906w5w556q97qwuuiywiywweewwurrwwwwqwwwww0ttrrw0r000wr0wwtwq000000000ww0rrr0wrruwwyurwywwq7wuidiiipiiishipppppiipppphhkkkhhppppppppphhhhfhhhkhhhkhkjkjhkhkkkkkkkkhkkhhhhhdddddddkidddddddppppdjkkccccccccjzjkkkhhpurrw9906555656266522666952662<1=12==2=1:::::::=:::::1::,=,,,,:,::::,21<<<21<<,,,::<2992626265666666699689009925590qr0rrr00r0err985555591222582:%*&&====*,,,2233<366666q966666696606666956665668681=:8ewrrwrruwwrrrrrreruurrruruiyiyyiyityrrwyuyruuuruuurrryrrrruqrrwwwtrqqrrrwwqwwqwwqw9wwwq7q70uuiuuypyppiiuuuriirriirriitriuuurirriiurrryyru0r0u0uuu0uu0uuu0ruwiikcczccccccccjhstruiyttiiiiwwwwwwuyiiiiu0y0y0wwwwwwryiyyyyppiwrwwrywwwyywyutuwwryrrrq0tt00ut00000000000000rwtrrryryrrwyuuuiyirutuutytruuruuuurrruyrrrywwwwwwwwrwrrywwww0rrwwrwrwryryyrrrryiyiiipyiiyiikclckapippakcckddiiyiyyiuuuusuuu73,2<,<,,<<3666q33332<,22221223633699q776900",
"ccccccvczzzzzzzzkddddhdpappappppddpdhfkkkzzzkzzzzzzkkhkkklklzzzzvvcvvvckkkkkzzczkklzzzclxzzzzzlkhkhapppphhhkkzccxxvxvvxvvvvcvccvvvvvcccccccczzzkzkzzkzkkhhkkljhhapsppsr00e00wwrrrrww000wwewerrwwrwywrrwwtuuuwiiiiyiiyiiipiiipiiiypiyiiipiiiyyiiiyppypiiyiuwwwrrrpyiiipddpppuyyyuiyiiiiiiriiiiruuwwrururwywwwww766666666696q9qwq97rirrrww906rww767qwwwuiwywwiirrrwuuurruwwwewwrwwr0r0wr000000we0wwww000r000000e0rr00qrrwywwwutwwyu7wwididphgisshdpppiiaippdhhhffkhhddfhhpppphhphhhhhhhhhhhhhkkkkkkfkkkkkkhhhkhkhpddddddhddkddddddpadkkzcclccccccvczkkhhhaiwwwrw9w63<566632552226666263<228=112=2=::::::::::::1:::,,,,,:,,::::,<<<,1222<,,:::,16626562629966666999990099235500rerrrer0t0r009559552:22<<2<&%&&&&&&=*,,,1<332236667q9866966966969695580665555521182urwwwrrrrrwrrrrrrrrrrrrttyiuiiiiuttyuyyutrrrrrrrrrrrrrrrrrrwwwwwtr00wwwww0wwqwwqw99ww7q7wwwuuuuiipppiuruurrirrirrtrrruuriuruururirrrrrryyu00u0uu000uuywuuwiyiihkxccccccccdprrrisuirittrrriwwiiuiiusuu0uy0yywywwwy00wwipdpyrrrrwrywrrwruirryrwwrryr00ttr0u0000000000000wwwryyrryurrrtyuuiuuyuuyyytruruuuururruyrrrwywwy99yyrywwy0w0rqwwwwrwyrwrrwyrwwuriuiyiiiiiiiipkkkdpyipppkkfaspiiiyyisuuruutuiy3,<<,<,,,<<2<4222331<<221<11226323369960690",
"ccccvcccczzzzzzkhhddddpppppphppddppdhkklzzkzllzzzzzklhklkkklzczxvcvcvcckhkhkzccxlzzcccccczzzxzkkhddppppphhkkzzzcvvxvxvvvvcvvcvvcccvcvvcccccczzzkzzffkzlkkjkkhpapsiipiur00000wrrwruwrw0wwwrrrerwrwrrrrwyruiuuyiiuiiiipiipiidiipiipiipiiiiiyiiaiiiyiiiipiyuywwrrrudppuusddpppuuuuuyyiiiiiiitiiiiuurrrrywryrwwwww7766666666666qwqq79rrrrw7w9w9rqe666q7qqwtwwtwiriiruwuuuuurrwrwrwwq0r0tw0ww000rrwrewww00000w00wr00rrwwwrrwwwrwuuuuwiqwyijijpddissdhfpppipppadhhkkkkhhhdhhhhppphhhhkjkhhhhhhhkhhkhhjkkkkklkkkkkhhhhhkhkhkdadkdkdddddkzkkccvxccccccccczkkkdpirrwwrrww63<3565325552266962623<2=82=12=2:::::=::=:::::1:,,:,:::::::::,22,<12222<,,,,1866656<62966999979990009859590w0r0r0err0r0tu0545552:,<><<:@&&&&=&&=,*,,1,,,,2333666668896696666669560855541122181:rrwrwerrwrwwrrerryyyrrrrryyuuuytuyyyyrtyyrrrrrrrrryrrurryrrrwrwwwrq0wwq0wwwww9qwwwwwww9qw0wwruiuyippiyytuirriirtiiiritrirruruuuutruurrrrruu0uuuuuuuu0ruruuuiyuihzccxcccccprwrituuirririrrtiwiyiii0tiu0uurywwywwww00wwyiiiwyywrwwwwywwruurwwwrrrwyr0r000000r000r0000t0wwwwwwwrrrtywruuuiuuyyuuttyyuruuurrurrrrturywwwyywwywwrywwy0rw0wwwqwwyrrwwrurwuruuiypipyyiiiyiiiypiuyyiiiiiyuuiuuiuiututuusuiu3<11,<,,<<<<<<,,,1222212,><,<,3=,1,23260099",
"cccccvcvzzkzzzzzkddahdhdpppppaadddphkkclzzzzzzzzzlzkkfklfzzzzccccvcvvckkhhkkkzclzzccccvcxzzzlklhddpppaadhdffzzzzxvvvvvvvcvcvcvcvvccvvccccccczzzzzzkkzkzkhkhhapspiisspiww090wwuuwrwiurrwwwwwwwwuwrrrwrrrrtuuuuipiipiipyppididipiiiiiiiiiiiiyayiiiypiiiiiiuuwwwyusdpuiippddppiiuyuyiiiipiyituiiiuwrrrrrrwruurryww79696966699697ww79rirw797993w697q9999wwwywywuytuwwwuuruururrwrwww00rru0tu000rrrrrrww00q00000r0r0rrwqwwywyuytyuuuuiuiuihpddddiiidhkppphphhhhhkhkkkhhhhhhhhfhhhhhhjkkkhhhhkhkhkkhkkfkklkkkkkkkjkhhhhhjkkhhhddddkkccccccccccccccccccccckhduyrrrwryw956655666555522660665322333111=2=:::::::::::1::::,:,,:::::,:::122<121221222<,,36695925266966999999990955599000rwwtu0tr0t0u092558122<552*+&***==%=,=,,,,,,,<335567655696606666986566655211>12481-9ewwwr0rwwwrwwwurwwwwrerruuruuruuytyrrurtywrrwyrrwuwuwywrwrwrwerrr00rr000ww0wwqww0wwwwwww0wwruiiyipsdiuuurrirwiyurrrririrriuuurruuuurrrrr0uu0uuu0wwwrrurryiiyyypzxcccccccpurrrtuirriiirrrwyiwiiiiuit0yruu0ry0www0yrrrriiyrrwwwywwywwwwyyrwwwwywywr00r000r0000t0t0r00000rrywwwrrrrtwtyyuuutuytyryyuyruuuyyrrruurrrwrywwwywywwwywww0qwww0wwqrwrywryrwuryiiyyiiyiiiiiiiyuppdyyippdpiuuuuuuuuuuutuuuuiu9<,,,,,,,,<32232123,=,22,,,12<21,1<36379090",
"cccvccccxxzzzzzzkkkkkkkfppppppphddddhkzkzzzzzzccczzzkkkzzkzzccccvvvvclzkhkpkkzzzccvccxvczkzzllkjkhddpppdhkkzzzxxvvxvvvxvvvvcvcvvcvvcvccccccczzzzzzkzkzkkhappapdpapspasuu000wuwuuruusurrwywyuuwuwrrwrwwrruuuyuiiiyyipippiiddidipiipipiiiiaiiyiyiyyiiiipiyurrwyysudppuiipppdppiuruiiippppidiiidiiyuyyrwuyruurrwww7999996669669qwq0riiruw679w9w6w7w9907wwytwtiwwuuwwwwruuuururrriwwr0000000t00rr00wwrwwwwr00r0er000wqrruytwwruuuuuuiipppkphhdittddhhhhhfhphhhhhkkkkkhhhkhkhhhhhjhhkhhhkhkkkhjkhhkkkkkkklkkkkkhkkkhkhhkkkkhhdkkkkzvvczkzcccczccccccccvckhdiwrrrerrr76666556622252267096632238=1111=2::::::::::::1::1=,==:=:=::,:::<221222221381<,26965526266596696999990099690r000w0000u0r000008588182258,*+***=====*,=,,<<<,125656666866969666669652252255111215:$1eweww00rewwwwwwwwwwwwrwryrrrrtrryrryryryrrywrrwrywryuwrrwrqrwwww0000q0q70wwww09wqwwqwqwwwwyyuiiyppdiiuwtrirrrwiwirrirrrrtuutirurrrrrrrwyu00yruu0yuuruwruwtyiyikkcccccccchurrsrruirtrtiiityirwiuiiiiurrr0y0wrwyyw00rrrisiyrwwwwwywwwwwyrrwwryywww0re0rr000t000000000e0r0rwwywwrrrywyuuuuyyruuutuurrrrwuyryrruyrrrywwwwwy9wwwywww70wqw0wwwwrryrrrrrwuryyiiyiiyiyyiiiiiidiiyypypdpysuutrrutuuwuuusuiu6<,,,<,,,,<3242,,22<11,,<,,1<23<2336q669900",
"ccccccvvcxzkzzzzzlkzlzkkhhdpppdhdddhkzkkzzzzzcccccczkkkkzzzzccccvcvvvczkhjhkkzzlcvvccccczllzkzlkkhddppphzkkklxccvxvxxxvvzcvvvcvcvvcvcccccxccccxzczzzxzkkppsspdddaspspsii0ewrwuwwrrwuuuurwwuwuwwuyrryyyrrstrwriiipipyiiipiiidippiipiypiiiiiiiiyyiiiiiipiyurrwrussppuuiipppppiiruipiiiiapiiiuiiiiiurrrrruryurrryww07q09966q6660wr0tiiuuw9wwwwr9rwr9qwwwwywwiiyyiuwwywrrrruurwriwuwt00000t0000wr0rrrwww0q000rr0r0r0wrwwwuwuywuuruwwuijppkphkiwwwiddphfhhhphdhhkkzkkkhhhhkhkkhhkkhkkkhhhkjkjkkkkkkkkkklkkckkkkkjkhkjkkkkkkkkczcvcczzcllkckcllccccccclckkhprwrrrrrryy7666556522555290962633133=8==22=:::1:::::::11::::==:::::=:,,,,,,22282222233<<266959262666666697699909999900rrw0000000t00yy00821182<<2,&+&&&==*=====1<<<<,<336666856666696866998512222821115111:=e0ww00wwwwwewwwwwwrwwwrwrwywrrwurrrrrrrrwwwywwwwwuwwwwyyww0q0rqww00qw0990wwq0wwq0w009w9q0qruuiiiipddiuyywrryititrrirrrrruuiruurr0urryrryu0uuur0uurrrrruuuyyiiakzcccccccckprrsrryrrriirirwiwiiyiwiii00rr0y0wwwwww000urisirryw0wwwwwwwywwywwwwwyrw0e0r00r000000r00000000r0wwwywywwtyyyuyuyytyytytyurryuurrrurrrrrywwywwywwwywwwwwwww00wqwwrryywrwyrruuuuyiiiiiiiiiyippiyuuiuyiippyuuurrutuuurwuuuuui9<,,,<<,,,<<4322,22<1212<22112636667q699000",
"ccccvcccczzzzxzzzzzzczkkkkhdpadhkdddkkklzzzzcccccccxfkkzfzzccvcvvvvvvczpkkkkklxzcccvcccczzkzzzlkkdipippfzzzzzxccxxxvxvvxvvcvcvcvcvvcvccccccccccxzzzxzzkhjhppspdpiiisppssrrrwwwrrrruiuuutwywwuuwwrrrrrrrusrrwriiipyiipipidididiiiiiipiipiiyiiiiiiyipiipsurrrrruusppupipppippiitiipiyiyiiiiuyuiiuuyrrrrruurryrrwwwqqq09966q9660wwqiduruw976w9r9w9e9qwtutuwwuutwuiwuuuiurwwruirriuuurtt00000090rrreqrrqr00w000r0re0wwutuwywwrwuwwwwwikkdkpapi07qidpphhhhhppshhkkkkfhhdhhhkhkhhkkkhkkjkhkkzkkkkhkjkkkckckkkkkhkkkkkkzjhhdkcczzcccxczclccklkkcccccccclkkhpitrrrtruuiuq63366655225226q65228131882322=21:::1::::=:::1::=:::::::=:,::,,,212288212232<233656292669666796998890000900000rr00u000000ui05<11<22><8,+&%%===&8=1,,<<<<,<23655696566666666699658282551:1:21:81=0ww0eewwewwwwwwrewewwwwwwwwwwwrwqrywryyqywwwwyrwuwwurrrwwqr00q0q000w0099w99ww99w000900ww0wruiyiiipddyuuwiwiuuwwirrrririruuriuurryyrr0yrw0u0urru0rryrruuriyyyikccxccccccczirrrrryrrrrrrriiwtwwyuiruurruy0yywwwwww0tu0rissyywwwwwwwwwyyrwwwwywwwwy0000000000r0000000000r0rwywwr0wwwwtwuyyiyytyyytyrrrruwrrrrruurrrywwwy7wwwwyywwwwwqw00wwwwwqrrrrrwrwwyiiyiyyiyiyikkkpiiyiuuuiddkhtrrrrruuuuwurtssuu6,,,<,,,,<3367q893621122222399q6999ww699900",
"ccvccvccczzzzzzzkklzzzkzhkkhhppkdhjkkkkkzzkzzzzzzzxfkkzkzzxccvccvvvvvczkhkkkzcclccccccclcczzllkkkdppppafzzkzzkccxvvvxvvvvvvxvvvvcvvcvvcvcccccccczzzzzzzzdipiipdiisissipdwr0rrwuruwwuuyiiiyywiwwwuuwrwuuurrwwwssuyipiyspipppididdiiipppiiiiiyiiiyuutusuuuwwrwrryppppppiiippppiyiiiiiiiiiuiiyiiipyrrrrrwrrywywywywrwq09669696369qwiirirw7wqw9r9tww99wqurwuuruuwyuwrirrurrwuiyiiiyyut00r0000r000wwww00wwwwwt0u0u0u0wuwtywtyrrwwuuuuwyijkdihtwwyyypdhhkhhhhpshhkhzkkkkhhhhhhkkkhkkhkhakkkcckckkckkkkkklkkkzkkklkkkkfhhlkkzcczzzcczzzczzzzzzzkzccxcczkkhdpiirtuuuituuw9366635<336269766666222212211,=1111::::::1::1:::=:::::::,,:=,,,:2823222222<2223566355655666696695900000000tr00ru00000rtr0ru0818212<81&=%%%%&%&=:,::,<,=3<<555525685886266655965158558111111:11:5wweww000ww00ww00w00w0w0wwewwwwwrrwrrrerrrrqrqrwrwwwwrwwrww00qww9w9q7q9060q00qq66969000059wtwwuspsdsuuuywtwyiwtyyrrrrryrrrrrrryrwwyrwwywr00y0yyruryrwyuuwuiutwyiphhkcckfuurrruyrrrurrurutyyyiwwirtu0u0uur0w0ww000t0rwiisuw0ww00twwwrryqr9wwwwrwq0000r0r0000000000000wwe0wwrrrr0wrrrrrttuutyyuytyuuurrrrrrrrrrruuwwwrwwwrwwwrrwwq0ww0wqw0qwwrwwrqwwwruuiiiireriiryyiiiuiirruyipyuuuywuuyyuuirruuuyiw<,,,,,,<,<236333222<<23223356q9670q79q970q",
"cccccccczzzzzzxzkkzlcccckkjhhpphddkdkkkzkzzzzczcxxzkfkkkkzcccvcccvvcvczkkhhkzzzlcccccccccczzklkkhapppipahhkfkzccvvxvvxxvxxvvvvvvvcvvcvcccccccccccczzzzkzkkdiiiiiiaaipipaiwwwwuwwrwuuiiiiiyiwwwwuwruyrrryrrwwrusryipiiipipiipipiiiipppipaiiiyyiiisruuuuyrwrrrrypppiiiiippppppuiipiiuiiiiiiyiiiiiiruuurrrrywwrrrwwwww07999763339wwruirrwww7wqr9t9ww0wwwuuuuuuuwyuyrtiiiuuriuiyiyiyrt0rt0u000ww0w0eywywwwywrr00uruuwwuytyuwrrutwruyuwudkdppyuuippphhhhhhhppshhhkzzzkkkhhhhhkkjkkjjkakkjkcccclcckzkkkkkkkkkkhkkkkkkkkkklzzcxzzzczxzzzzzzzzzzzccccczzddiiuurrirruuurur76663362233566966666222223221,111::11::::::::::=::=:=::,::,,:,=:11223222<<2121356663366656666665899000900000r000t000000r0ry0911222<32%%&*%%%##&=:,,<<<,<<236662555555266655666218858111:11111::5ew0000w0ew00ww0w0w0ew0wwwwwwwwwrrqrrrrwrqqrwrrrwwwwrwwwqwq070ww9wq7q70006q0q0000999000q90wwwruiidsiytutuytywuywrrrrrrrrrrwyrrrrywwwwywwyyrrrr0rwurrtuuuwwwuuwiiphjcccccyrrruuyrrrrwyrrrwitwwuirruur0u0uwt0twtt000t0wyistrwtww0rqwwqwqrw99wwwwrq0000000000000000000e000we0wwrrrrryrrryyyyytutytuyyurrrrwryrrrurrrrrqwwwqwqwwwwww000wwq0wq0wwwyrwurrruiiirriiiitriidpiuyirrrrpdjkpiyyyyiiuutrtusuui9:,,,<,<,<<3366633524<,21252669666970799000",
"cccvvccczzxzzkzzklzzzclkkkkkkpppdjdkkkkkzzlzcccczzlhkkzkkkzccvccvvvvccckhhfkkzklccccccccczzzkklfhapppyipppphkzccvxxvvvxxvxxvvvvvcvvcvcccccccccxzccczzzzkjkdippiiiisiissssurwwuiwruyiuiiiiyyyywwwwyruuyrwrt0wruuryiiiippiippipiipiipiiiiiiiiiiyiiusurrrrrwyywrypppiiiipppiipiiyiiiriiiiiuiyiyypyiriiiurrrrrryrrrwqwrw00007963367rwiiuewruer9wwr99qwqwwytuuyitwwuuiiririrwiyiiiiyyt00r0ut00000wrrrwwwwwywyrr0rrrr0wuuwyuturrwuuttyiwupkppiispppppphhkhkhhpdkkkkzzzkjjhhhhhjkkkkkkhkkkllkcckckczxccklkkkkzkkkkkkkkkkkkzzxzxzzxzcczzzzzzzzzzcccccccapiiiitrritrrrrurrq66765633266266666665263322211=111::::::::::::*=:=::::::,,:,:,,::<12232212<222235655563666666666699009000000r000r0t0tr0rrrr0085312281%#=*%##O+#:,,,,<<,<<2566666855522558855582122212211111221=5wu000000ww0e0w0weww0ww00wwwwwwwqrrwwrwwwrwwrqwrwwwwewwq00009009w99w0000q6q66006999900qq90wwwwyuisssuyuuywywiwuwrrryyrrrrwrryrrywwywwwyy0r0ry0r0wuruwywuuwwiiwuihkkvcvcvrryrrrrrwwuuywwrywywywrwuurru0uur0wwwwwwr0000uistwr0rw00rwwrwrwry7qwwwqw000000000009900000000rw00wwrrrrwyrryyrrytuuyuyyyyrrrrrryrrryurrywtwwwwwwqwwwwqwwqw0qwww0wrwwywwwrrrwwyuyriritiiriiiuuuuuuuturuiiiurruuyyuuuruuisii9<::,,,,<1223332222<,;,11122229969q0qq96999",
"cccvccccczzzzklzkkkzkccczkkzkkkhdddkkklzkkzzcccvcclkhlzkzzzcvvcccvvvvczgkkhkkzzkvcccccccxzkzllhhkdapaiyiippfzcvvxvvvxvvvvvvxvvvvcvvcvvvcccxzccccccczzkkkksdddddpiispssspsiiwuiwirruuiiiiiiywwwwuwrwurwrwrwewuusuyipiiiippiipiipipiiiippiiyiyiiyaursrrwwrwwwwyyyihdiiiiipiiiiyyiiirrruuyyiiyiypiiiisrrrrurrrwrryw0wqrw000993226q0wurywuwywwww9w0w000wwwruituuwquytririrriuiyiyiiyi0rru0000re000ww0ywywwwurrrrruuuywruyuuytwuuuyiusiidkkppsiphkpkkhhhhhhhhhghhkzzkkkkhhkhhkkjhjhkzckklccccclkczzzczzzcllzzcccccckklzzkzzzzkzzzzzzzzzlclzzzcczzcczkpppppiiiiirrrurrq966666623336669525664252322222111:::1:::=:=:::::::::,:1,::,:,=,:::<132122121212255536666566666666999999000000y0000000000rr0r09821228=##&&%####&=,:,<<<,333666665555222425885554122111512111221:10www090000000000ww0wwewww0wewwwrwwrwrwrwqrqqww0rwewwww90ww00w09w99q7q996000609q996600w99999qwwwtssiytuuuytywuwirrrrrrrrrrrwyrrrywwwywww0yr0yrwrwuwwytuuiuwuytwuwuiiddiiwyrwrwrrrwrwwrruwuwwwiriururrrrrrrrtwww0000r00usit0tw0wrqwwwrqrwwwwwwwww00000000000909000000w00re00ewuutyrrrrrrrwyrrtrrrrrrrrrryrrrrrryrwrwwq9wwwwewwwwqq9007ww0wqqrwrryrwwwyuiiirrrwrriyuittwuir0ruuuuurrwuuuiuuuurruuiiiw4,,,<,<<1<2<2,211,<,,2,11,1,,<<<<<<6669997",
"cccccccccczzzzlkklzzckcczzzjzkhdjdkkkkkczlzzzxccccckkkkkzcccvcccvvvccczfkkhkkxzlzzzzzzxczzklzkhhkdpdppyippdfzcccxvxxvvxvvvvvcvccvcvccvcczxcccccczczzckzkddddddipipspiipdssiuuuywrruuiiiipiiywwwuuwwywrrrrw0erusrppiiipiiippipiipiiiiiiipiiiiiiipususuwrurywyrryyhiiuiipiiipyiyiiirrruuuuiiyiiiiistrrrwrurrrrrryw0wwwr000q63223qqwuwwwwwqwwqww0ww000quuuuuttw00ytririiurriyiyiiyyrr0000090r0eww00wy0wwwywuu0y0u0uwyuuuuutruuuiipppppkhhppdddpphdkhhkhhkhhhhkhhzzkkkkkhkhhkkhkkjkkccccccccckcczzzkccccccccccccxczzlkzlzkkkzkzxzzzkzzzzzzzzxcczcvcfdidipirriirrurur0q06666632366699526622662222222311:::::::==::::::::::::1:,=,,,=,,:::183122121212<22236665556663656859999999000000000000r0iy0wy0811212=#%%%%%%%&==<,,1<<23333666568524224558552<5>111112111188811-167000y00000000ewwwww0w0e00www0qwwwwwqwwqw0wq0rewwwww9q9wwwww9909660067060999966969999966600wttiiitwuuwwwuwytuwyrywwrwywwwywwrrwywwywwrr0rrwwrwuwtwyywyuwwwyweurwwuidr7rrrrwwryrrrruryuywiyywywruuuuurur0r00u0y0000uuusut00t000wwwwwwwqwwqwqw9w00000000909999990000000000r0rruu0ryrrrryrrrrwyrrrryrrrrrwwyryryrwwwwwqqwwwrqr0wwwqw7wwwwwwwwryyywruiiuiiiirrrriiuuiyyiiirrryiyyyywwyuuiuuuurriutiur92<,,1<1<<4<4,,:,<1,,,:,:::>:<1,,,<3369999",
"cccvvccccczzzzkkkkkkkccczzjzkkkdjkdkkkkzkzzzcccvcczfkkzzzccvcccccvcvcczkkjkkzzzklkzkzzzzkkkkzkhaddddpiippdkzfzcxvvvvxxvvvvvvvvvvcvvvvccvcxcccccczzzzczzzzkkkadiiipppppppsssiiiyyrruuuiiidsiwwiwuyrwwwrurtw00rrusypppippiiiiiiipiiiiiiipiiiipiapauuuurywywwwwwryydiuuyppiypyiyiiyrrrruiuyiiiyiiiysurrwrrurywwrryw0qww00qw93111390wrww7w77rww9w0wr0w0ttuiyy0uu70uwrrriuiiriiiiiiyyry000099000r0wwwwwywywww00uwuuu0uwtysuuiruuipddhddpkhkaksdppphakkhhkhjhkhjhhhkzzkjkkkhhhhkhkkjkklkccccczvccccczzzzzzccxczzcczzkzzkkzkklkkzzzzzzlzzzzzzzzvccccccfddididtritiruuurwrw069632323699766226>2222222233111:::::::==*:::::,::1::,::,,=,,,:1:113112221222<<<239336366666666999999999900000rt000000twwwi0031221=#*&=%%=%===,:,,<2<332353355555222218585<121211155>218881::5697000r00000000000000000ww0000wwwwwww0wwwwq0wr0ew7ww9999qww0ww9966760666q66667666699q9999690riiiiiutuuwtywwywwuywyryrrrwywrrywyrwwywwywwyr0wwwrwywywuytuwwwuyidkhhjkckhrrywyrrwrryrururwuwtytytruuur00rrt0rt000000000rsuut00u0twqwwwwwr00ww9w9w000000099999999900000ee00000erwrrr0yryrrryrryrrrrrrywwrwrrywryrrwtwqqwwwqq0wrq0ww7qqwww00wwwqqwrrurrwuwrrrtiiwrriiyiyyytiur0yyyyyywwwuuiuuitruiiuyiy5<2:1<<<<<<<=,,,,<,,:::,1111996969qr99999",
"cccccccccczzkllkkkkfkklkkkhjkhhhdjddjkzczzzzccvccczkfkkzzzccccccvvvvvczhhkkkzzkkkfkkzkklzkklkkaahdpdpippphkzzzzxvxvxvvvxvvvvvccvcvcvvvccccccccxxzzkczzzzzkkhkdpiispspapddpdsiuuyrrruiiiiiiuywwurwwwrruuiuw0eussuipsiiipiiiiiiiiiiiiiiiippiiiipipuururrwwww0wwuuypiyyypippyiyiyiyrrrriryuiiyiiiiiriirrrruyrwyrryw00w000q763<1136wwwr7777wuwwwr6wrwwuuuuuuwwyu07yurrriiuiypiiiiiiyu00909989000wwrwwwwwwwwyuuuwruuryrtutuiuiusiphpkgkphkzkfdpdphakkhkhkhkhhhjkhkzzkkkkkkhhhhhkhkkkkkklkclczcclccccccccccccczzxczzzzzzlzlkllkzkzzzklzzzzzzzzxckkkkkhdpddidiiiiiruuywqrwq996632<66667666622242323223<81::::1:=:*:::::::=,::1:,:,:,,,,:::1:11132112211<<<<363,566365366699599599999000000000000rrryyw03<221=#%&&&&==%==,,,,,<<6232666525525254222551122211155188811:::wu000790000000w0000000000000e0w0qqqqww00qqw07qwwwqq7wq999w099w0906666066666666666566997666990wiititywuwwwywuwywwwyrwywrrywwwrrwrwwwywwwwywywwrwruyrwwywutywywidkkjkkccccyrwwryrrrwryrurruwwuwyuuruuuuruu000r0r000900r0rsu000r0u0wwqwwqwwwww99ww9090000999999969909000000e00e00rrrrrrwrrrryryrrytrrwyrrrrryrryrwrwrwwqwww00w000w0q7qw7qww0qqwwwqrwwwwwiiitrirritspppppiyyyyuyifkkappiiiyyusurrtiuiyiy6<<=<<,,<<2322242222,121555697990qw769997",
"cccvcccccczklzkkaapppphhhhhdhhhhkhjkkkzczkzzvcvvcczfffzzzzcvcczcvvvcvczkhhkzzzkkhkkkkkkkzzzkkkdahappappppkcczzccvxvvvxvxvvvxvcvvvcvccvccccccccczkzzkccczzzkkzkhdasaspppddkhhsiuyerruuyiiiywrrrwrwwruuuuuuw0wruusipppipiiiipiipiiiiiiiiiipiiiiiipyrwwryrwwwyusdddppyyipyyiiiyiiiirrrririyiiyiiiiiuisspituwwywryww0000999q632=126e6riw66wwieuqr6wwwwuuuuwww0uuwwuiirtiiiiiiiiiiiiy00999988990rwwrryywyuwrwur0ruruuwtuuuitiiiidpphdkppkkzkpiphhkkkpkhkhkhkkjkkhhzzzkkjkjhhhkkkjkjzjkkkckczzkkkkzzccvcxccccccccccxzzzzkzzzxxkkkzzzlzzzzzzzzzkxkhphpapiiiiiitutriiuww6qq099063222666266664>263322223<11::::::=::=::::=:::=,=1:,:,:,:,,:::==:1222221223<,<362:536563666955998899990000000000t0t0ryyy0082222=O#%&%%&&%%==,=,,<<2322556625265622212561111581552181::==109099r09700e000000000e00000000w000qw7000ww7700000997q9ww99ww9900997660066966666663356766699669quiuitwyyuwywywywuwrrwrrwrwywywwwyrywwwwyywwr0yr0rwwwwuuwuwwwwwwwigpklcklcxyrwrruywrrrwrwrrwwywwwwyriuuurrutr0000000800000iutrtu0000qwwwwwwwqwwq9wq0000009999999699009000r00000000wy0yryrwrrrrtyyywwrryrwrwwwyqwryrwwqwrww90rqrwwqwwwq7wwqqq0q7wqwwuywwrphjhhdrrthjvccvclzzkkcvvvvvvvvvlkpiusurruuuiyii521,<,,<22669999999599669090q799www779966",
"cvcvcccvcczzzzkkpdapiippssdsdkhhdakkkfzzzzzzccccvczfhllzzzcvvvccvvcvvzkhhkkcxccxlkkkkkkkkjkhahhpddddiipahkkzkccxcvccxxvcvvvvcvvcvcccvvccvccccczfzkkzzkkkzzkzkkkaddppsddsafaddpyyrrrwrtutwwwwwewwwwwrrrsutrwtrussddpdpppipipppppiaiiyiiiipippppiyywwrtwwwttrwuddspuyiipiiiiiuiiirtwwiriirrrriiruuittiiuuuuwwwwwqw999q996q331=,39q6iw2w99rrwrewwrrrwtrrrrr7uirwwywruyiiiiiupiupuuyww909999990ewwwrwwwytwywrrwrruuruiyipiiyyiippahhkhhhhhhkpdhhhkkkhhkjkhkjkkkkkllkkzkkzkkphkkkkkkcxxzkzkkkkkkkkckkkklzkzzzxzzxccxzzzzzzzlkzlkkzzzzzzklxvcldpphppppppdiiiiiiuuuurwwwqww007966536563664634334433343<8:1::1::====<,2=2==1=21=,::::,,=:,,:,,,,1121,<<3<,,111:18866626659999959569900000000000000rrrrtw812<2%##%%=%&&#%*====18=2466665622282211822822<<5212821:211859ww000e00000090e0000ww00e000000000000000909wq00q9wqw999009999909997q6996666666666666663666625669wrtitrtrr0rwuuwuu0ryrwrrrrr000rrrrrwwwwwwwwrr0rwtwwwwwrrwewwrrrwww0wyikxvlfuwqeywwew0uuuwwywwywwwuwuituuuwyr0r000099990yrruir000t00w00www00ww09w90w79999999999599999099999909900tr0000r0uuuuruuuru0rrrrrwrwwrwwwyrrewww9wwww0qww0wwqw000w0wwwq0wwqr0rurrrihhiiuyyijclzzcczjkckkkcccczzcvcayiur0ruuuuyuu0<,<<,12221388222211188159099w99999069690",
"cccccvccvczzzzkkdappipppsddddkkhkkzzzzzzzzzzcccccckhhklzzzcvccccvvcvvzhkhhkccccccklkkkkkkjkkhhdpiiiiiiiiypdkkcccccvvvvvvvvvvvcvcvcccccvccccccczkkkkkkzzkkzkzzkhapssipddpddddddiyrewwwrrrww0wewwwewrruruurrwwrussiiiiiiiiipiipiisiiiyiiiyyiiippiyrwwrtruwrrwwuisipiyyipiiiiiyriitiwtiiwirirriiiuiuiiiitiuiqwtuwwq6999966962<=,3903r92w99rrwrw7wywwrrrwrrr9rirwwwquuyyiiiipippppyyw909w9999000wwrwwyuwwywuwryrrrrriuyiiyyiyiippppkddhkkhkhhkhhhhhhkkkkjjkkjkkkklclcckzzkkkhphhhkkkzkkkkzkkkkkkkkkkkkkkzzzzzkzzcczxzzzzxzzzzzzzzzzzxczzczkppdpdadppipipiiyiuywirrrrwqwwq00q96522555636366433346344381::::::,=,=1==2=2=11=11:,,:::,:,::,=;,==,11<<<<2,,1111163626663958999999899000000999000rr0rrrr0q22<2%#&%&&&==%&=====88=255565658222822<22228<1<1252111581190www000000000000000009000000000000ew0009909000999979797990099900799969666666666665562556666625369wrrrr0e0rrtwy0u00uuwwywrw0r0000qrrqwtwtrwww0rr0wwwtwewwwwwwwwwwwridddhhkkkfww7wwwwwywyuuwwurwwuywwurrruuyww0rr00009990000rutr0ru00000ww00q00w0wwww9999999095999996997999079999000r0ry0yu0u0u00rrruuywrwryywywywwrwyrww0w9w0qwwwqw0q07000qwq000wwwr0rrywrihjpuyiyyihcvcccczzkkzccvvvxczzcchiiuuurtuuuyutq<><,,,122,2111,,1,,=,=:19999979799076990",
"ccvvcccvxczzzzkfkdipaiypssddjkkkxzczzzzzzzzzcccvczfkhlzxzzccvcvcvccvvjhhhhkcccclckllklkkkkkhkhhdpiiiiyppipdkzlzkccccxvvxvcvcvvcccccccccccccccclzzfkkkkzkzzzkzzkkpppppddsdddddiiywwewwwwwwwwwerwwerrrursstwwrurusipippiiippiiiiipiyiiyiiyiiiyipiyw0wutrrrwwwwuiiipiyyipiiiiiriitrwwirriritrruiiiiiitiuiuut0wwwwww99999666621,,<696w63999rwwww7www0000q0qwwuirwwwwiiyiippiipippiuy7w99w9w90000wwwrywuwwyuywrrrrruryyiiiipyiyypippppphjkkkkkhkhkhhhkjkhkhkkkkhhkzlzckzkzzkkppphhkkkkkkkkkzzkkckkkkkkkkkkkkkklkkzzkkzkllzzzzzzllzzzzcccczhpidaddapppppppiiyiirwiirrrrqw0q00099635<35666636343336333411111:::::=:=2====2=,==1,:::::,,:,,,,,,,=1<33<<,1,,,1:11366663659995595579699999009899000ewwwrw0e22<<%%&&&=*==&&*==*====525552558282821<8828821211511>115=10w0990000000000070000999900009000000000000909079979799999999999099959966666363636334352566666253999we0000rrrrwyu0u0r0rrwrwrrw09900wqw0wwwrt00000rrwwrewwwwwww9wwwwrhkccczcxvxiwwwwwqwwwwwuwwuuwurwyywruury0w0qw000099999900rritr00000q00q0wwwwqw99w9w99999960999899999999999900000uu0u0ryru0ruu0urrurrrwrwwrwywwwwywrrwwqq0wwwww0ww00q000000w000rwr0rrrwwyypdiewiuuihzkczkhhhhhhhhkkjcczzcckkuuurruuuyyutq<,,,<,,,22,1111111,=:::16999699999999999",
"vcccvvcccczzzlkhkddiyppyuddjjkcczxxzzzzzzzccccccczkfhlzzzxccvcccvvcvvjhjkhhkcxclkclkkkkhkkhhhhaddiiyiyppdjkcckklczccxxvvvvvvvvvcvcczczzzcccccczzkkhkkzzkkkkkhadiiisiiddpsddddsywww00ww0w999wwwwwwwwrrsuswwrruuuuippipipppiiiiiaiiiyiiiiiyippipuyw00wrerrww0wuissiiuiippiiiiirrirwiwiirrriruiiiriitiiutuut09wwqq66699962633,=,3666939w69irwyu7wyw0099907wwruywyrriiiiipiipipppiuuw9999qw7ewwewwwtwywuiwytrrrruyuuiiyiipiiyyiiiiiiphhhkkjjkhhhhkjhhhhkkhkkjkkkkzzzzkkkkkkkkhhphhhkhphhkkhkkkhkkkkjklkklkkzlkkkzkkkkkkklkklkzklzxzzkkzzfpipppdddppaipppiuuuwwwiiuwwrrq00000q999535566666663646363432822111:1:,:2=1=2211,,=1,::,:,=,,==,=,,=,==<<3<,1<,11,116666636658999998999999970909900r0rwwwrr0w2<<1$%%&&=&==%&&==&===8225563528682222222582121511511-$1:19w099000000000e00000790900000999900w090909079099999999966996999999999666666665533433325552553566699wwtt000000w00y0ur000r0ww0r0990q0w0w0wtw0w0000ewwwwwwwewwwwwerrwyippiphcckkewqwwqwyyw0ywuuuuuurywturrrryy000w00999999990000ie0rtu00www0q0w97q9q99999999999999598696999999990000000uuuu0u0uu0uuururrrryyyrrwwwwywrywrewwww0w0ww0w000w7000w00ww0wqww00wyryppyiruuuiihhkjhiitirrrryuiuiuuuiiiyuuuutiiuuyyr62<,<<,2,,,,11111111,,,,>2599999969009999",
"vcvccvccccczlkkhkaiaiayywidddklczccczzfzzzzccvcvvckfkkxzcccvvvccvvcvckhhhhhcccckckkckkhfkhhhhhdddppiippazczckzzvzzcccxvxvvcvvccvczzzccczcccczzkkkkhkkkkkddddpppyiiipiddpsdddsiiywe00ew0w9000wwwwrwrwuiuu00wruruudipiippppiiiiiiiaiyyyyaiiipiidywwwwrwwwwwwwwyuiipiyiiipiiiywriirirrrrririrrtiiyiiuituuuuw60099q7966996562<,,<899966999qiywuuwwwww000qqwwwryrwuuuiiiippippupipppywwq79w99ww0wwwrwywwywwyurrrrrritiiyiiiiyyiiyiyiipdddhhhhhhhhhhhahhhhhkkhhhhhjkkkkkkhkhjhkhhhphhfhhhhhhhhkkfhhjzzzkkzzzkzkkkklzkkkkfkkkhhllklzxzzkkkjddddpdpdpdppipppiyiyiruiirwrwww709979909655566666666355666632282411111:11:,:1,=211,==,=:=,=,:::,,=,,,,=,<<2<1<11,,136666666698599586599990999909990e00r0wrw0e<112%##+#**==%====*==<2222625258622811<822221<2111111=&459090w99000000w0000e0e70w0e000099900000090909990099999q6969607699999795666663665636343455255523566690wwrr000000rr0r0r0rqwwqw0wq0000www00r0www00000wwwwewwqwwwwwwwwwwyiiuuuaklhd060wqwwty00wrrrruuuwutwwrrrrr0090000099999999900t00t0r0t0wwqq7qw7wq799w7995979968959959999999999099990yuuur0u00uuuwuruuurrwwwywywyywwyyrwewww00w0www0w00000000r0wwq07wwwwriklckkpiuuiiihkkkhiiwyierwwyiiuuyyyyyuuuuuuuuurrw92221,,<1,,,,:11::11,=,1::>596999990000999",
"cccccccvccccclkkapaiiiiiwuiidkzzcccczzzzzzcccccccckkkkkzccccccccvcvvcfhhhhhkkcckclcklkkkhhhhhdddppyyaahhkkkkkzvvccccvvvvvvvvvvvcvzzzcczzcccczzlljkhkkhhddaddpppiypiiidsiysdidddiw09000000000wrrewwrtuuuy00erurwuiiiiipiipppiiiiiiiiiiiiiipiiiiiyrwewre0ww0ewrtuiiyiiiiiiiiiirrrtrrrrrrrruuriuyiiituuuyuuu0007q96966686262<,,2889999996wrrwruwwwwq07q7wwwrrrywuuipiipipiippipppuuwwqww999ewwwrrwutwiwtywurrritiriiiiippipiiipppiyipdiiidhhhhhdpddhhhhhhhhhhhhhkhkjhhpphhhhkhhphhhpkhpdhddhphhhhjkkzzzzzzlzllkkzklklkkhhlffkkklzzzkkkdppiddpaddppppiiiiiyyirriirrrrrwq009q9900665<36666366463664365255514>1,1:11,:,11=<1,,,,,=,=,=::::,==,,=,=:><21,11,,13996666665999987699999999899999000r0rqr00w2<22%##+%**==%1===,==,3222566628222222282282<<21261::1990r059w9090000000e0000000e000900999090009009999999997q699996999995999999966655656655366522525355669999ww000000wr00r0r0r000w0w0w00000w0w00r0t0w00000e00007976999qwqq7rpflclhkcvckw000wwwww0wur0rruuytwyywu0rruwy00000099999799909tr0rt00r0q7www7wq97q9q9999979699999999995979999990999000i0uruuu000uwu0rryrrrywywwwwwwrwrrwww0ww00q00wq00wq00000w0000wyyyhhkkcvvckkhhdhkkckckjiiyiiiriphkkkkhdpppuiruuuuuur064<12<1,1,,,,:::::11:&,1,:15099q7900w09069",
"cvcvcvcvcczzlkkhdhaiiiiiruyypkkcccccczccccxccvcvcczkkkzzccvvvcccvcvvchhhhhkkkkkcclckkkkkkhhhdhapiyipphkkkkzkzzvvcvcvvvvvvvvvvvvcczzzzczzccxczckkhjjhjhddddppppdiiiiiipiiiiiidddi00000wwe000wwrwwwwrtiuy0w0wtruwuiiiyiisipspipiiiiiiiiiiaiipipiyyww0ww000w000wyrtiiiyiiiiirirrrrirrrirrrrrwruuiuiituuutuuu00099q686699663,,,=<396q9793600wwyuw7ww9q00qqrqirurrwruiiiiippipiupupyywqq7w9w9ewwwrrrwywtyuwitrrriiiripyiiippyiiippyipiiiiypidphhdappphhpadddagdppdhhhdpppdhhdhhhhhappdhpphshiphpphhhhfzzzkzzzzzkkzzzklkkhklkhhhhhhkkzkkkdpdsdppphapppippiyiypirrurrrrqwrwq707990909663663656335666666855555511,1,11,:,=,11111,==,=,,,:,::,,,,,,=,::<<1111,,1366665666999596695995979928909900r0r0wr00r2<23%#X+%=*===:======,2<22665565222122<812221<21251::5w00w09906990000000000e00000000000999900909099999969966696996699669999995966666663355356335225525666990wwwr00900wr0r00r0u00q0q0q0q0000wwqw00000w0ww000000099979999wq9wpkcxvckkcckkdt00ww0w0y0rr0rrtyuyywyyruuuur000000000999999990r0000r00w0qwwqqq7w9ww99995996979599999956969899990099500uuuu00uruyuurru0uwywrwwwrywywrrrrewwww000w00q0000000000wq7ruiihpcckcccccvxckccvccczzkhpiiipdhkkkkkkkkhpyuurriurrurq6<<<21111,,,,111,11,:=,1115006699090006609",
"cccvcccccczzczkhhpaayyyauiyuikckxccczcccccccccvcccfkkkklzcccvcvcvvvvchhhdhhkkklxkkkkkkkkhhdhpaapppiphkkkkzzzzzzvccvcxvxxvvvvvcccvczzvczzcczccclkjhhjhddiddppppiiyipyidiyidiiidddw000wwww0wewrwtwwwwtsuw0000wrwrupipiiipppppppiiiiiiiiiiiyiiiiiywwwwwwwwew00wwwuuiyyyyiiiiiiiirrtrrrrirrrurruuuuuiiuuutuur060779696669966,,==,6659ww626w6wwyuwww7rwrrtrrriiurwrrraiiiipiiupiupypyww9w9ww90wwwrrrrrywiwiywrrrrriiiipiippipipiippipuidiiiphpppppdpppipppppppppddhhhiiiiiddhhphpppppppphihshppiiiishzffzkzzzzzklzzkklkkkhfhklkfddkkldgddddddphpddppapiiiyyiprewuirrrrrrqwq09q7000w7746346634636666665514555111,,11<,,11111<<,=,=,==,::=:=,===,=,:=<<1111,,183666265559969669959999956900000r0rerwrw0u2<<<%##%%%%*%+%&&=====<4>222666521221118222821225511>20e56w000900900ee000700000000000we090090090099999909969676979999067979995966666566355634342225555533900wwwt0090000000r0000000000000w0wq0w0rw000000w0000000q99999ww99wikxckkcclkkccksw0qww0u00ruu0rwwwuytyt0uuuuuw00000009096999999r0000000007wwq7wq9w99ww999699969999598996667998999999900u0u0uuuuwr0uruuuuwrrwuywwwwwwywywwrewqw0wq0w0007q0000q0wqruhfkkjkklcccxcklccccxxcczzckhpidhhjkkclkkzzlkdturutuurtrq6<<2=11,,,,,,:1:::1,:===,26997677690w00969",
"vccvcccccczzckkkdddiiuuuwtuwidkccccvvvvcccccvczzzhhkkzzzzzzccccccvcchdphddhkkkjkkkkjkkhhdhdddppiiiypdkkkzkkzxvvcccvvvvccccvvvvcvzcczzzzzzzzzllkkkkkddkdikddiipiispipiyidipdidddiwywe00ew0w0wrrwwwwwrur90wwerwwripipiyiiiiiippppiiiiiiipiiiipdiu0rrwwwee00000ewruiyyiiiiuuyitririrrrwwyrywrrrrrirtuuuuwyw79669669656663121=,=<53669<12269qrrww00rqrrriiisriiurrruipiiapypiipppiy079www0000000rruuiwuurrrrrrriiiiiiiyiipiiiyiiiipiisisssitpsususssrissiiusssiuspsstwytiphjphpppppididiiiddiiididdddfkkzkzkzkzzzzzllkkllkkhlkkadklzkkhadapipppkpppppiiiyyypirrrurrurtrww06000qw0900663266635366666685555855121122,,12=2,,,,21,==,,=:=::,,:=:<:,::=::<<,,:262362,::<959999999999999990999009wwrwrww0e3;<2&+%%#%&%+%%====:*;<<42256562112221<22222<,2121:=10e000999099090000e00000000900000090099990099009997q66q66673969969368598985q6669963665222526<<<333<29006700909990ww000w000099799q9w000w0ww9w0000000999999997990999099wdjkhckjjzzkkczdw00ww00rerr0e00uuuwyu0ruuuuuy0009999996999593900000000000ww000ww007w9697959999999999889799999699959959q0wwywuwrwwuwuwrww7ywywyrwywwrrwwrruu79w77990q0q97000007ddhhkkhhkkkkccccccxcccccccccvcccccccvvcvcvcvcccckkfppphddjd7=22=<<2<,,,,,1,::,:>=::26976q697699q09969",
"cvvccvvccckkkkjpdddiuuutrsuyyhkcccvvvvvvcvcvcvczkjhhkzzxkzzzcccvcvvckhpdhhhhkkkkkkkkkkkhdahddpppdipddhhhkdkkzzccvvvvvcvcvcvvvcvcccczzzzczzzzklllckkhdkdpdddippdiiiipyyiiiidddddiwwww000w0ewwrrwtwrwrur99wwwrurusipiippipiipppspiiaiipippisipsiuewewrww0we000wewuyiwtiiyytywyirrirwrrrrwwwrrrrirruuututyuwqq69966q6667311,1=,<56639<:1<639rw0000wqrwrritiututrruspiiiypaipiayiiw7qw0q0000000wruuuitiyriirriitiiiipiipiipiiiiiipyiuutsiiuryrrssriirisiisuutryrrruuwiyiiiphppakapppdippdidiiddidiidpphkhkkzkkzzzzlkkkkklkkkhhkhkzzzhhppppdppppdpppaipiiiiiiiuriurrrrtw9ww9w0000799066343634666666665555555251112=,,1=,1,,<,111,,,=,::::,,,,:::=:=:;<:<,,,26233<:::<9995998695999999965259000w0rww00e2,<1%O%%#%&==%%&&=,**:2422226622122281<822222<,111::0e9ww00099009000000050900000000000009099990999009993966666q6699999995999599086699636552566522<<333356066670999999000000000096q7w7990000w9qw00000000999909996669990699wpczkczzkkzjckji00www000wwr00rwwrrwwuu0u0uyu000009909999669999000ru00000wqw000wq0999999999959546699999y00099995999999900wwwtuywuryywuwwwywwwywwwwwywyrww7wwwwuyuuuuu09q0090qwrddhkhkhkkkkzcxccccccccccccccccvccvvccccccvcccvcvcccccccvccdr63=321,,<23209933332,22999906799997wq9966",
"vvvcvccckkkkkhhhddiiuuuuriu0iahhccccvvxvccvcvcczjjhkkkkzzzzzcccvxvvkkdphppdkkjkkhkkkkjkhdhhddpyiisddhkkdhhkkkzccvccvvvcvcvcvvvcccvcczccczzzzklllzkkhdkaiddiddpiuyidiiyiiidsdsdsprww000ww090wwrwwrr9wtw9wwwrruwusiiipipppipisppiiipaipppiipipiiwe0ewwwwwwr000wrwwiwiyuyyyiwitriiyuwwurwrrrrrrtuiriiitiuutw9q666666637631==,==<3665w<;,2626trwqwwrrrwrrriisiiuruisayiippppayyyiyw09ww90w00w0qwtuuuirrrrrrrrrrrriiipiiippppiiiipyyiuuiiiurrrrririrrrisuriuurrrrrrrrwwwiiippppppppdpiiipppiiiiiiiidiiiidahzzkkzzzzkzlkkkkkkkakklzzklhhpppppapppdkppppiiyiypytrrrurrwrrwqww9w000000000063335635366665952558522<122211,,,,,,,,,211,==,,:::,,,,:::==:==:1,,,,2622<,:::<958890967559999994,<<90y0werw0003<,<1&+%%%%%%==&&&==**,2222525252222222<82<11<,<11::4rr9000990099900000005000000000000009000099997999959696966669693936999559859666669666526666232<<2332269967679985999990090099q99w76990000000w007909009999999599690960967ujcjcczzkzzkkjw99wwww0rw00er0wuuwyru0u00u0u00000999096999299900000000700wqww0w060999699999999iiidkkkzkjdi099997959959000qywywyuwwwwwywwwwwwwwywwywrywuuyuuuidhhjhhdurq099900rhhhhjkhkkkkzcxcccccccccxcccvcvcvccvcvzvzcccvccccccvvcvvvvcccg6,<932<3q9900966666266999766676999q09999",
"cvcccccckkhhkhhdsdsiuuwtruwyiphkcccvvvxvvccccvczkhhkkzkzzzzzcccvcvcchaddphhkkkkjkjkhkhkhhhdaappyuiddkkjdffkkkzzcccccvvccccccccvzccccxccczzzfkkkkkhkdkapiidisppyyyppiiipipidddidirww0000w9990wwwwrw0wur0w00ruwwuiipiiiipiiippsipppippipppdiipsuw00wewwwwww000wuwwtytiiyiiwiywwiwtrrywrywwerrrrirrituiuuywqq69q666633762,==,,,<37636<*1<326ssqwsrrrwwqwwrtitiuuussiaiiyapyipyppyr0w00w0w000q0ruuuuririrriirrriiiiipiiippiiiiiipyiiuuisiurqwwrrrrrrqrutrrurrrrrrrrutwywtyiippppappaiiiiispiiididiihuiippphkzkkzzzzklkkllkkfkkklzlkkkhhppppppaahhhappiyiiiiyurrriurrrrwww99w0090000qq00736663666666658585855821222111<<<,,,,,22221,,,:,:,,,=:::::=;==:,:,<23,,=::::>958899999979999996,,<6900w00000w2<,<1%O##%%%%===&&====,822556265282222112<:<<,:,1*-1w000w000909099000000000000000090990000000006909999999996q669399699995999595966669666665526622222233222990666989655669999999990q67q7909000009000999999795799969999976966whczczzzkzkckj029rwqrr0ww0r0r0yuuwwu0uuu0ryy0000999999966999390000000q00ww000907699969959879900yuiiiakjsuw9999999799900wwwuywrwwuuuwrwww7wwwwywwwywrrwwrrrrrrphppiuw709909977dahhhhkhhhkzccclcccccccccccccccvvccvcvzvvccccvvccccccxccccxvlu5<83,,388366665666669976676q997999q9669",
"cvcccccckkkkdkdddiiuurwrturwpkkkzzcvxvxvvcvvcckkjjhkkkkzzzzzzccccvccfpphhpdhjhkkjhhhdkhkhhddaiiiiiddkjkkkkcccccvzzcvvcvcvccccczzvcxzzzzlzzkakhkkhhddddppiiiidiyyypppipiisdiiddidwww000ww000wtrtwww9wrw999wwrwwyipyyiiiyiiiipsasapppippppsiidirw0wwwwwwww0000rrwwwwiityyiityutywiuwyrwrywrrrrriiruutiitwy97666qq6q3366<=*=*,<<56632&:<<246iiwrrrwqw0000wruuittiuspypyappaiiiiairw0w00w0wqwwwrruuuiriwuwrrritiiiiiyiiiipiiiiiiyyyytiuiurrwwwwqqrrrrrrrriurrurrrrruwyyyyyiipppppppppiiiiippiidddiddipiiipphflzxzzzllkklkkkkllllkklkkhppppppppphhhpppyyyipiiirriitrrrtw9w06000000w00wq066366566666669555685224222211111,,<,<222232,=1:,:=:=,:::::;:;====:233:::::::=589999909999999808,,2890r008589911,<<*+##%%%%===&*=,==,2555552528222221<1,::,,:,:*:9w09090000997999900000000e0000009999090w0009999999999939666696669996629999995966696692525562232212323226q9966698696669999966909999999090999w9009999995967795595966699966whzccjkkckkccs059000qww000rqryruw0uuuu0uu0u00009999999989959999900000700r0000999979969799595900097ypppi769996959996690090wywtwuywwwuwwwwwwwwwwywwwryrrrrrrwwrppiyuww7999000wrhhhhhkhkkhjkcccccccccccccccccccccvcvcccvcvccvcccvvvvccvcvccxkpw533223833999669996600000099099999w9666",
"cccccczzkjdkkddpsdiurrrwuurupdkczcccvvvxvccvcxkkhhkkhkkzfzzzzcccxvcckhphhahhhhhkjkkhdhhkhdddppiiddjdkddklcxccccvzzzcvvvvcccccczzcczzzzzzkfkhahhhhhkdkdddiiiiddiisiysiyyydiddiidiw000000w0000wwww0w89rw6699erywuiiipiiiyyiiiaiiiiiipppippsiidiyewwwww0e000000wrwwwwwiiiiyuyyttyiwyrwrwrywerititrrutituuwtq6667666336621=*,,,<23666<&<62237iswrrrr000960yruuuiiusiiayappppaiiaiirwq9w0wqwwr00wrtuurrwuwurwtriiiidiiiiiiiiyyiiyiyyyuuurrrwqww000qrrrrrrrrururrwrrrrtwutiiiipppaddppdpyyipdidididsdsssdiiippkzkzzzkklkkkklkhlkklklzzppippapafphhhppiiiyuuiiiirriiirrrrwqw090000wwq0wq09666635666666685855655811822211111,1<12,,2332,11::,,=,::::=:=;*===,23<:=::<:::1899997w9000009881,,220ye08221,<,1,<2*##%&*%=111===,==<2555336552882221<1:::,::::58w00w700w00999997000000we00000w0090909090000009999099999966666669663969955959966666666622536542333323222286666867659666766666679999996999990900909999999969995596999976756szlkckkkkcckw0960000000w00rrwuuwy0rwrurrryr0000999999995899999990090q000wq00096999979999999985457yyppy979996999999999000wyuwywruyrryrrywwwyywwywwywwuyrrrrrphkkkfduw9q70qrpghhhhhhkhjhhzcccxxccccxcccccvvcvccccccvcccccvccvvvccccvvvccxckky5<<338933696656562556000060996766q9899",
"cccccczzjkhjjkddipiurwwrrrrripdckzccvvvxvvvvvckkkhhkkkkczzzzccccvvckfhphfpphhhhkkkhhdhhhhaaiiiipdjkjddddccccccczkkzzcvccvccczzzzczzzzzkzkkahhflkkjhkddiadiiiidiiiy7yiiyidddsdiss0000ew006900wweeew56w96669rrwwyiyiypiiiyiiiiiisippiiippisiidiw0wwwwww0000000wwww09wwtiyyityyyywirrryywrwrrrrirtiuiiiiuuyq663696993362=*==11<256692==82690ssrirruwwrq00riituuuiisiypyyppppipiapyrww000qwwrr0rrrrytwuwururiitriihiiiiippiiiiiiiyyyuiituywwq0000wrrrurrrssrirrsuryrtyyiiiiiipppdddddiuyiiiiddddidddsssspihhkklzzzllkkkklkkkkklkzzzzpppppppphpphfpiyiyyyuiiiirriiirwrrw9wq0wwq0qwqw0q0677666353666669555655583212221,11,11112,,2233,811::,,,:::::=======:<<>=::,,:::<559997000w000992>,,1<800921<<::1<,,2,#+%%%=1===**==,=<825555355822222<,8:::,:**19w990w99w990099000900w0000w0e00w0w0w0999099000w90997999q96966666666699399692959966666666666322<32233123<<226666766669669669666669997999999999099999999959699999999999696935rzckchiijjdi99999009000wrrwrwwuwuuru0r0uyyww000999999599599599009095900rw00009999999599999590999wyuidty90979966979966090wwyyrwwwwywrryrwywywrwwwwrwywwww7wwuipsiiiq79q790rphhhhhkhhkkhkkccccccccccccccccvcccvcvcccvccvvccvvccccccccckcvcfhr6<<,,,,,,222,:1<:,:<2600690009999w9999",
"cccvcccckhhhddddpiiurwwrtiruipdckzzvxxvvvvvvvckhjjhhfdzxkklcccccxxckhhhhhpphhahhjhhkhdhhappaiiipdddkkdkdcczzvcczdakkzzczvccczzzzzzzzzzzkkkahhfkkzhddiiipddiuuiuuy44ysiiaddididii0089000690000we0e055w96968wrw0wiyiiiiiipiiiiiiiiiiippiipiiiasywwe00w0ww0errrrwrw777qyiiyriititiwrwrwrrrwrrrtriirtiiiiiuw6q99666333362=*==,1<<56696==2695wrsssrwrrrirrrspsiurtiiiyaypappppiippiywqw0w0wwww0r00uw0wwrririirriiiitiiiiapppipiiiiiiytiiiiuw700wqrrrrrurrriirrsuiiuuuuwuyiiiiiipfdddddiiiddpiiiiiiddpidhsdddhzkzzzzlkklklkkkkkkllzzzlppppappihhphkaiyyyiiyiiiirrtiirerrwwww0rwwwwwrw0wq9wqq76566666655958686585283222,11,1212,222,233811,1,,,:=:=;=======:<<=,:::==:<,<299779000w00002,,1<><995111<:*1<,,<=%#%#%==*=1**====<655553565882881<,1:;:::&&08999999009w099999000000w0000000wwwwwww9090000w009979990999966666639966992899959969636666666632223333322<,<26556866565586966766697979999999999909995979999699955955979666965rkckgw6qssw28009500700wwwwrwwuuw00uuuu0uyy70000999999895998999090997000qw0qw99969999999597998668999000666990799969979690wywwwtuwuwuwrwyyrwwwwwwywyrywwruuwwwq079qq0q990q0qushhhhhhkhhhhzcccxccccccccccccccvcvcccvvccvcccvccccczkkkkkccchpiurq92,,<<,:<,><11<,:><600666999699w0996",
"cccccvvczkkdkhdpisiutrw0ui0trkfkkzvcvvvvvcvvvvkjkkkhkdkkkkkzzkklvvckhphhpphhhhpphkkhhddhhsiddiipddhhkkzzzkhkcclhhsdkkkkzhdkkphcckklhkkkhddhhhhdhdpppissusrwpapyyw757wiiissdsssir999000090990w0ww095>9990890000uiwruiiiiiiiiyiiiipssiippiiiiiuw00wwww0w0www0ruwrw0090ripyrwrrruur00u0uu0utuuttuuutyissstw966963666632,>==:,1233326<5><>00wiiisu09uwyyiyihturtruipiyippipppppipdyww00wwwwwuwuwruruuuwuwtuuiiiiiiiiiiiipiiiiuiipipiiiitutrrrwwwwrrrrrruiiurypyiiiyytuuiiiipppahhfhhppaipiaiiipippippddhhhhhkklkzzzzzllkkkakzkkzkppppppppidihddahdiuirriipiiyyruisr0wryw9wywrrryq9wwwww99ww966666633436636664662<44<<,<,11112<,<21221212,,::=,======:====;:,:::::,::1<2600700ww00qw9<2122221111=1,,:1,,,1=+##&&&%&*=*:*::*,255366666222218,:2,:::+;599000900000000009999000r00r000000e000w0w00090990099999999585999666969966636969666366363666326252222323313222566669562<596666996969q9966999696999799693666669666966q669666w65dcklcw26ihw59993669999wwwitwqwtwywwywwwywyww699099799996999699900990000000990909999966936eq7997666656669977769999999090wrwrwruuurrtrrrrwwrw0wrwywwwwryyuwyw7qqw707777qq77eirhhhjhkkkkhkzzzxvcccccccccvvccccvccvccvccvvccccvvzkkhaipkkzkppipyp74>11:>::1:,11,::=:5000660wq76qq7666",
"vccvvvvczzkkkkdiuytyw0r0ui0trkffzzccvvvcvccvvckkdhdddkkhjhkkkzlvcvvckhhhhhhkkkhhhhkhhhppdiupsipdddhhkkkkkkhhkkkkjhddsddhsudkddkpdahjkkkhdahhahphdddiiurruuyiippp0566wiiidssisdiw99999009099ww0ww0058666659r00wtiwuiiiiyiiiiiiisasppppiipiiiuuwwww9wwwew00ewruwrw0090ruyyurutuutu0urutuuutuuu0uuruwiissuw666996666653,:::,,223363925<2509ussssuruyyyiyyyhiurruiipiiyippppdppippiy0000wwuwwywuw0uuwwuwytityiyyyypiiiipipipiipiipsssssiiiurtrrrtrurtuuuuiyiiipyiyyiuuuiippppppphhppppppppiapuipippspddddhhhlkklkkzlkkklkkkkzkzzzppappdppipdddddhppyriruiiiyyyruiurrrrrw9yryrrrwwwwwwww999ww99633653636636662362234<121<222221<,122222212,<:,,,,=========>,::::=:=::1<1600000w00wq9622222222818=1=1=11,,2=O##%%%%%&%*=*:;*,255356665222211,:,1,==:>099000970090000000099000000000r0w000000009000900909599999996995583999969369663966696996666355565232313122312255555955125669966969996q9966999906699699966666696996666666666956hzhlji69wyq769996939wqwwwqww0wwwwwwwtyywuwyw79979995959696999909900000000999099999977q933665336qwiiidu96609976699999999900wruww00ww0rrrwwrywrwwwywyw0wwwwwwwiuuyrrq767wqwighhhhkkkjkhhkkzzxxcccccccccccccvcccccccccccccvcvccxczkkkkzkkhpppiipy5<21:,:11::11,:::160079690936qq9996",
"cccccvcczkadddpityytrrwwuu0srhhkkxccvvvxvcccvkjdpppddddjkhjkkkzccvcckhpphhhkhhhphdhhhddpdppuuddpspadhkkkfkhaahkcjkdhdiip0ydgiyitsihkkkkdpddpsihhfadsiurwwuuuypsp66560iisssuyusu9906699970900w0ww008>695680r00ruiruiiiiiiiiiiiaiapipiippistuuweew9wwwwwewre0ruw0rr000ruyyuuuurururur0u0ri0isusuuruuishiuw966666666662,:,,12223355922>5379ussspuujpryyiyipdirrtiiyiyippppkidpippiy099qwyuyuwuwu0u0uutuuiispiiipiipiiippiiiiiipsppdsssssiiuusiuiuiuuuuuuiiipypipyiyuuuiiipppaphhhfpppppppppspppppdshadadhhhklkxzkzzkhkkklzzzkzczappippddiddddddhpsyiuriipiirryuiirwryywywrrrrrww9ww9wwwww9wq0663556633434663664333<22122122211222222222221<121,,==&=:;:,=<=:::::=::1<2390070wqw006512122122111,1=,,111,2=+##%%#%=&%%=*:=&<363566655222281,:22:*:189989009000000000900009000000000009090000909900090w00900999596969996699966669696696qq6966666556552133121322<12236609952299666996699699996q9996997669796963669396366006066q666wjzkcjhsgghiq66969699w9www9qw00wwwuyuywwrutww99999979989999969999009900000009999909996779967ewwyihjkkjpuw0066999090900000wwuwurrrruiurryryryywwwyywwwwwwwruuurrwwq9669w7qwighkhkhhhkhkhhkkzcvccccccccvcvvccvcccccccccvccvccvcvckkjkkkcczdppiiiu6<21:,:::::,11::<590069699936999666",
"cccccvcczkkkkdpiiuyrtrtruu0uukkkzzccxvvvvcvvvkddppppdddjkkhkdkzzcvvkhhhdhhhhhhhapahhhapphdpuuddidspdkzzffzkkaakldkkkkpyywshd080iipphhjdppdaaiiphhadssywwwuywyiir55560wisuuw00ww900666990w000wwwe99>2996980wrruturtisiaiiyiiiiiiippipiiipsuuyw00w090wwwwwrwrrwurrrrrruiiiuuuuuuuryui0uu0iruusuiiiuiiddpiy666693663662:=:222226666722<530qiiisdyijpiypyruikiwwidpiipiipiphdspipiii0000wywuuw0ywurruuuuuiiiyiiypiippiiiipipipiipipdsddddiiiissssiutturruiiiippiiiiyuuuiipppppppphhpppppapppppppddddhdppdhhjkkzkzlkkhkkkklzxllcczhpipppddiddadddhpsriuryipaiirrysirwruywwyrrrrwywwqwwwqqwwq9rq665556646666436666343<222212212221121<18282221122,,,====;====>::::=<==,12909600000065222212222812=2,,=11,,2=O%%%%%%=**%=*:*&<33536664<,228111181;@18649900000900y0000000000000000000er99000099999090090000w0099996699566933669996666669696669932255555322323232<<239900999699966663696696969966699699099699969666999696q666q066777hlkkkhshczpy666q9699wqqwwww9wwwtwwwytuuuuuyw9999999999696699999090090090000909999097666q9qehkkkkkczchlzhr99909999909009wrwwuruuuwusdkklkklzjwywwwrwyuuurruuihddddiiuw9q7wwiihhhkhkkdhkkkkzccccccccccccccvvccccccccccccvcvcccvczkkkdkcckdiiiyii911,:,11,:::11:<560q059699967q99966",
"ccccvccczkhhkdiuiitrutrtuu0sukkzccccxvvxvvcvckppppidddddkjdkkhkzvvcjdpdhhhfkhhhhdppahhppdkdsspdppppdkkkhkkkfkhhhkkkkkhppdhgsw90spispdkdphadapppdhsssrrwwwryrrsw9555600wuww009000006679009000wwww5542698829wwrttiyyiiaiiiiiiiiisiiiiipipisuwww00w90wwewwwwwwruuiurruuiiiiuiuuuuuu0ir0urritiiiuiiippppdsiy96366656666<:;,121266670q69666wwiiiphdihpiyppyiphiwwihpppypppppkddisiiip00qwwwywurww0uurutuiiiiipiiiiipiiipiiipiiiipppppidddsdiiiuiiiiurtwwruiiiipiiyyiruuuiyiipppppkphpppdpappapdpddpdhddphhhkkllkkzkkklkklzzzzzzzzzhdiidigdsddaddhadiiruriipiisuuuiurrrrrwwwrrurwwwwwqwqrqqww9ww0966526636666366663424222112122122221<222222222,<<<,,=;:===:===:::<==;<<2909700600065<22222232111,1:1:,1,,1=+#%%=%&&==%**:*&<535566532<<11,:1:1,;:90228900000000000000000000000000r0r0000000009999900099999995996968596699639666666669696666965553355532222222222269w0988599556666666666669689996996969699676666696696606q66663966ykkkdw56qqw93666q6769wwwwwwwqwywwwyyywwyrryw0960999996699993699909990090000009999099q76666yhkkhkkczkcccs068999666799999900wurisy0wupypyyiiiyrwwwrwwwywwwwuuuqw7qw079qw997wwihkhkkhhkhkhkkllccccccccccvvccccccvcccvvcvvcvvcvcckkdiypddddpyiiuiu91,,>:,1,=:111225900069669969q97q69",
"vccccccckkakkdiuityw0t00ut0tuddkzcvcvvvxvccvckppdpdsdddshdphdkkkcczhiiipppfpphapdppphhppupppupddipdhkzkkkfhkcclkkkkhfzzzczdpsu00uutiddkkhhdspspaiiiiwwwwyrrrsr055555690000w099000076606099000wwe2818582829000ruu7yyyyiiyiiiipaipiiipiiipsrw0w0w00000wwww0weruissruudppiiuuiuttuuruurrryuyiiiiisippdhdiiiq76666666632:>126526669qr0r996rquppdjjpdppiyippihiwwupapiipppppkdiiippiirwwwywwwwywwu0uuiiiiiituypiiipipiiiiiiipipipppppdidddiiiuuiiiiuyrrrrippspipspipytuuupipppppppkphadhahhdpdhadhhhhhhhhhjkkkkklzzzzllzkzxzzzzzzzkhiiidhiddddddddaiysuriipppssssssu0rrrwwryrurwwqwww00rrwwwwqw00996334266666622632232122222212212111<11222212,<<2<<,:=:=;=**==::=,:<<129076006600652322112238,2=2=,:11,,8=+##%=%%%==%*&:**<2243565222222181:*:29065099900yy00000009000w000000000000000000000900000009990009969668769966699639966666996666666635256552232822283222669552595523656666666666999769797999969966696999969666696q630637hkh065422556699666q99qwwwwwwwwtwwwwtyywwyww0009999999999699999999990000000099990999q7696wpckhhkkckfzkhdir0900009900999900wwuahpuupkhhkkhhadwywywyywwywwwwwrurrwww07w99ww7uihhhhkdjdkhhhkkxccccccccccccccvcvvccvcccccccccccczkkdiuidjkkdiiuuuu9,:,>,,1,::,115560w00793699969qq699",
"cccccczzkkhhddpyiiyr0000tu000kkfcvvzzxvxvvccxkdppdddddsdiiippkhkkkkpiyuuiiiippppappphhapupddpypdddhkczzzkzkzccckkkkhkcvczxdpks0900uidkkhkdasdapiwuuuwwwryrrrrw655556669600000000006666095990eww02882841860000rruyryaaiiiyiiiipiipiiiipipir0ww000000ewwwwwewryiiswuusiiiyrutuuiuu0uy0y0yiuiiiiiippphpppppq0999766663<,:,26226690wr0t7w9r9yhhhhkhhpsiiispppyyrihhpiippkppkjiippiyyrrrwwwywuuy0yuuutsiiiyiyiyippipiiipyiiippiipppppidddppiiiiiiipiuuuuiippipipspppyuiiippppadpdpkppddhhhhdhddahhhhhhhhhkkkkzzkzcccccczzcczzlzzfzkfpidhiidihddddhdiysurrippississsuqruywwwuruuywwwwwwwwqqww9qq007q6636664663666664<33222212212<222<<>112121,<<,,22,,<,===*;;===::<=:<<29966006606622222112328,2:1:,=11<,1=+%%*=%%===%=****<224233552828282:=;89098699899000000000000000000000e00e00r0000000e0900000w0000ww09996969969966669969666666966366666655552223282222222<26668555585555666263666666699696996676999936689869966966666986637hjh996qwq656966666697wwwwwwwwwwwwwuwwwrywywq009969969939996076999999000y079099990996696qijvckkkkkkkzzkckjsrw00000700000rwrwuspiisjkjkzkkkfdwwwwwwwwyruwrruuirrrwyrw009qwwwihhhhkkkdhkkkkkcccccccccccvcvcccvvccccvccccccccccvcccdddkckkdpurwyu9<,1,:,1,::,215590w0069369966999996",
"cccccczzhffhkapuiiurtuuu0u0uykfkcvvcxvvvvccvckddpdpdddddiiipppppcczjiiuiiiiapppphpppdhhdppddpruddjkccczcxczzccckdfzzcvczflzhka0y90ridhhakdsadapywuturrruiyryw95688560006e6660096066667665699wrw02821211800000rrr0ryiyyiyyryiuiiiiiiiiippsr0wew0000wwwwwwwrw0wwww0ruiiiyuuutuuuuuuuu0rr0uyiispidippppppddtq999966662<,,,29629069wt7rqr7r6yfkhhhhdpiiyippphpuuphfhiypadppdddyippyyrwrruuwwwwyw0u0uiiitiyyyiiiiipiipipiiippipippppppphffppidipsddsssisgddhsppppppppuuiippdddpapkpkpdhhhhhhphddhhhhhhhhkkkkkzzzzccccvccccccccxzzkckpiiiihiihhdddhdiyiuuiipppsuuisiurruurwyruurw7wwwq0wr00wqwrq09q9996346333663433244322222222211121<111221113<,,<22<2,:==;==;==:::::,16006670060952532222133211:1:1=,,,>1=+%***%====*=&=;*<25222555282128<&+1005908499990uu00000000000ww000000000000w009900090000wwe9000009995696696699639969363369969663669635535522222222221,266q099552599652666666623666999996979999666669969996969996q6963660ikdt929iit76696636q99qwqwqwqwwwwwwuuuwwuuwwww0079968999639966099999890000090999999979q37uhhkhjkkckkkzkdw00000676699999900wwryy0ywrurisipyy7ywywwyywwwwwruuurr77077w000ww7wwdhhhdjkjkhhhkccccccccccccccvcvccccccccccccccccccddyiuyuuisdsuuutyi6:,1<:,,,:=,115590rw06999qqw99qq9q9",
"cccccclkhhkhkhdiiuyrwwwruurtisfkccccxvvvxvvvzdddppppppaaiiiipkpikhkhiiyiuuuuphkpdddpphhduphiw7pczccvcxxckzzjzzkkkkhkkzzzzkjkdw990ttipkkhhhhduw0wwuiiururuurw955852269760669900008666699659790rw9111121115990rwur0rryiuiuruiuiuuuiiyissiuue00www090ww90erwwrrrwww0wuisiiiuuuiituuu0riur0i0ssuudaippdpdidpurwww076999,1**9059q060wuurwwuw7idhhhfhpdppyipaphpiyphhfpipkhppkkppiiuutrrrwuut0r0rrruiiuipiyiyipiipippiiyiiiiiiiiipapiapddkhhppphhhhhhjpdphhhdhpjkkppdhddddgkdjdkkdhddddhhhhhhhkhkhhkkkhfkzkkkkzzzzzzcccccvcccccczzczfdiipiidpipdhhppiipipuipipippiipuwwyuwyuuwyryyywwy0qw0wrrwww00w00w6664336626664<463323434<21,<222<21<22<,<1<<12,2,111:,===&=;:::::>299990066952252221212222211=,,,,2=2:1#O%&***=,,======1325224555,882:&>9995989960090t000000r000009999999000000000000080e0r000000000900959995998959995969896666996666996926<8,62852425552<,<236569666636326666666256266669669999969909966696969996696q69669622696255555535666966690r00er0wwrrqrrrwyrwwwww0999997969699995999599969999000006097969q69937ifkkjkkkkkzhi959959979979999900wwyrrwrrrrrywrwywwywwwyywwwrrwwyrwwywq00wqw000900w0wwtuuutrppkjkzcccccczjvvvcckkjhhkkkkkkkkdhkhhdppturuutyutwuiiw0rtw6<1::,,:,,;:<,,=899tw6q979w93779q76",
"cccccczfhhhkhhdisiurrwryrrr0uskkzcvcxvvvvcvvzkddpphappipipiiipkpkhksiitsisiipppippppiahpuiphprpkccvvcccczkjzkjkhkhhkkzcxlpw0009000wshjpappiyyww0wuiiuuuurrrw655658569659999000000009990899990y05211811118900wur00ruyyuiyyuuuittiiiiisiuwue00ww0w9wwewwwrerwrrrwiruuuuuyuuuuutiuuuu0uu00irisiidpppddipsdssuwwy070099,1=:9w69w06wwuuuwwur7ipghhhhpddipipppppiidhphpppphpppkppuiuuwrrrruuuyu0rruiiiuiiiiyyiyipipiiiiiiipipipiyppiippidhfpppfhphhhhhhhhhhhhkdhkhdhhhkddddkkddddkkhkhhhhpdahhhhhhhhfkkkkkkzzzzzzxzzzxcvcvcvcvcczzczzhiiidpddipppdaapiipyyiipiispiiirywrwwwuyruyww0ww7wrwqqrwq000000qw663666666664336333234<2222,2<21<212<11<,11<2,212111,,,=:==:=::::<59999006006525222212228211,,,,=,<=1,:@+*=**=====,=,==,32552255221<,<<59999990990890000000000000000909999000t00000w0000000000000000900959899599996593993966669556963966622<3<628522253522<<266366666666653556553526666666967999799009766669998969666666666669qrr5525235666676696900r000r0wwwrrrwuwwuwyywy09999699969599999893993099900090096699996796whkkkjhkhkkzkdw9099999599999900rrryrryry0wywwwwrwwwwywwwwrywwwywwyrywq00ww009090q00000wwr0wtuyiipppdkkzccckcczkkhhpphhkzkkjkjkhkkppururruuwuuiite0rut92,,,,,=:::,1>2:800t00w969wq56996q6",
"cccczzkfhkhhkhspdiuyytytrr00uskkccccxvvvvvvvzkddppapppppiiiiipfpkpkitiwisspipdpiipppaappipdjkkkczzccxzcckkkkkkjdkkdhzzcxlu777ywu090shpipiyw9wiw60yisiiuururw656055566569e0000000e096809999990w91111211115900wuw00wuuuiiiuruuuuitiiyissurte0wrwew00w0wwerwerrwuwwuuuwuuyyturuuuuuuu0uuruirssiiddpdddsidddduwuww0ww00,8::9w60w990wwuuuwyrwishhkhhppaaiapppafiihhdhpppkhpfhfpiiyuuurruutywurrrruyiiiiipiiiiypiiiiippiipipippiuupippisdhhpphhhhhhhhhhfkhhhhhhkkkhkjhddddkkkjkdhjkkkkkhpppdhkhhhkkkkkkfzkkzlzzzzzzzxcccvccccvcczzlzzfipdippppppadpippiuypiiiiippsppyywrwwrrrwuywwwwwww0w0qww0w00000q0766q666636<46666<3343<241<<,211<22,2111121112,21,,:1,::::;=::::<159990q00ww06655212222222211,,:,,,:2,*O#=&*====,,=1=::,32662252<81,,:805999990098900000000000000000090890000000000e000900000009090999009999858959699969959596689696696692323<628555255552123633666566676656536665556666676969999000007969896966696699q696666699966665656636966969000r0r00www0trwwuuwuwuw009999990699799999599999090000009606999666967ikkkkkhhjkkkhp0959799999999880ruur0yryrrrrrwywwwwwyywrwrwwwwwwryrwrrrww00q70090w000w00q0w007qwqwywyripkcccccccjkhhipphkkkkhhhjdpddyryuuyyuuuiiurqrrty9<:11=,::::<2:1:18ww900067qw3969936",
"cccczzkkhkhkhhiisiyrruywrrr0udkkcvccxxvvvcvczkddaappfpppipiiipkhkpdiwuuisdppkkkpppappiiyppkjzzkkzzccczzzhhhkjkjdkhkkkzccxa70uppp00rspsiuiy060ww9wisiiiiuuurw866055569990w0w00000099666999957005>111281115900wrr00wurriyyuuuuuuuiyiiiiiuwww0wwwwew0wwwwwwwwwewwuwr0wrriydiuuruutru0uuurrrussiidddsidpdpsisuy0wywuwe0>81:9w90w99wwwruywwwripddhkkhhaipppphhaaikhphappfhhphkpiyyytywrruywwuu0rruuidiiiyiyiiiiipippyiipiiipipippipiiiissppphhdhhhhhdhhhhhkhklkkkllkkkkkkkjdkdkhkhhkhkfhpdddhhkhjkklkzzkzzzxxzzzzzzzcvccccvcccxzzzczziiiipdpppppdaapippiupiiiypdpiyyyuwuwyurruuywwww0qw0wwwww9wq90000qq7qq6q763<666633343343<22<,121<11112111<<<<,,,,1:,1111:::=:=:::289000w00wq0655582222282211,,,,,2,:2,%O&%%%%*=,==111:,,3256555522181@,09999909099900000000000r0000000009000000u00ww000000000090969000q09599599998995999699995896686696696666362325665252333333552333666656333666255669969696999900wwq099699999696996969666666623226553656663q6399000000eqwwwwwrwurrruwwuu09996666996999599599966009900000090967999q36pkhhkhkkkkkcky9590095999799690wrr0ywr0rrr0ywywywyrwywwwywywyywwwwryrqw0w0ww000900w0wwwww0ww999qqqwywrwudzvvczkjhhiiuipdhhppipppiiyyutruttuutuiurwrrtit<:11,:=:,:25<,222qw500966w0699999q",
"zxzzczzfkhhkfdpidirrrrr0rritidkkcccccvvxvcvvckdadddphppiyiiiipffdppyyutssdddhzkkadhpiippphjkhkkkkkkkzzkfddhhkkhhhhhkzzzxldiihhdiuuiuipsuuuw99000iipiisiisr0999968886990w00000000006569996969082:11,1111196990rww0ruuruiyututuutiuiiiitwew00ww0wwwwwwewwrrrrruwwu00wruiiiitutuurrrrr0rr0uusssidhdppsdidpddur0rwwut00:81>9090r9900wwwwwwwridpppafhpdiapaddphdphkdhfhhhkhphppiyywtuwyuiuwwurrrruiiiiiiiiiyipiiipiipiipipipipupppiiytuuyipppiiipppddhdhhhhkjccckkcckkkkkkkjjkdddhdsdhhdddddhjjkzzzckzkzzzzxczzzzccccvcccvvccvcccccccdpiiadpypppaaiaiuuppipipispppyyiurwuuuuuurwwwywrw07qwrw09wq700w7q9w77q663463666666664<<221,2211,211,3,2,,,,,,,,,11=111:1,,::::::599000rw0ww962522222282332<11<,=2,,1<#O*%%%**:=:==,1,,,3255625522291+<09009000000000000000000t000000000900000t00ww00e00900000009690000q096999999999989999969899999969960669662665565223312322353655356366666556556666669960697q90wwwr09969966996696qq699666696696565565535566766990000000rwwwrrw0uuururr00000679069796999929999399990099099679997qq36dzhhkddkdkkcdw9890599999999999900rrrryryrrywwwwwywywwwywywwwwwywrrwwwqwqqww09000000ww00w00wqqwwwwwtrqrrypkckjppiiiryyyiyuyuuyiyuiiyuuwuyuruuuiuuwwwyiy2:,,=,:1:,88<:99>9r999066q77799996",
"zzzzczzkkhhhhappiiyyyurrritiskffcccccvvvvvcvcdddddpppppiiiiippphkppuyutiidddkkkpkaahayyphkckkkzlkkkkhfhhkhkhhhhahkhkzzcxlkjhkkdiisiwussuiuww9900ppdiisdiuw9669660660990000000900966666666666951:,,,1111169999wwwwruuuiiyuuruuuuiiiiiiryew0ewwewwtwwwwrwwewwruuuuwwruuipyiiiiiuur0rrrrruuuissdppdpsdisdpssuwwwwwur0q19210090099w07wwyywyruyyuiphkhppipphdphdakhdhkhphhhhppppiyywuuwtiuuuuurrruyuiiiyiiiiiyiipipiiiiiiipipurrspywwwwwwyyyyrrutuuuipiiippddhhkhkkclzkkkzzczkkkkhkhhdhhdhkddkjjzzzcczzkzzzcczzzxzcccccvvcccvccccccvckpiipdpyipppipyappuppiipisphiyyyuuuutuuuuurwwryww0wwqw0wq9q700q09999q7773367663666243442222,2222111,,,,1,,,,=,,,1,111:,:,:,::::,28090r000w095525822282333211,,,,1,1,2@O&%%=**======1,:,2225569552<1,,908000000000000u0t000r0000t0000000000000000w0w0w00000000009500900009992599999999999999999996q66998q9906626652255222=22125696665555565335665553699666060997q0qqww009669998699q9669666669966962566255363666398900000000we0rrwuwwy0rrur09006997996999999999996995990990999996666969hczjkkkjkkzzdiryy05676999979999900ryr0r0ryrywywwwwwrwwwwrwrwrwywwrywrwqwwqw0099qww0q00099w9wq90wwwwwrrrryiphpiuyyyiiuiwwyuwuuuuuiittuuyurrutuitwwtwyiu6<1,::::1,88<:0t>1we890069w699q9q6",
"zzzzzzzkkhhkhhppdiiruyrtiurriskkccccxvvcccvvcddhhppphppiyppppphhhpduyiuippddhkkpkkjkpypakkckklllkkhhhkhdkkkkhhdphhfkzcczkllkkkhppiuruisiiwww060rppppsddisw9669690669900w00099000006696666669811:,,:211,265590wwwruiiuuiyuuuutuiiuiiiirww0wwwww0wwwwwwtrewrrrrwuwrrusiiiytuiuitur0uiiurruuiidpiphddsdpidpjurruwwuuwr<8220000090r0qwwwrwwrriiyippappppdhppphpahkhkhhphkfpppipiiuwuutwiiuruiuuuuuuipiiiiipiiiippiiiiiaiipiirruuurwwwrqwwyiytrrrrrrruyruyiyiipppdhkkkkkzzcczzccczkkkhhhkkkhhhhjzzccckzzzccccczzzzzcccvcccvcccccccccckhhdppppppipipypuppppiipppippiyyiyuuiuuurrwwwywww70qqw70wqqq00q77q999qqq66636666622322<2211131<211,1,,,,,,,,,,,=1111,<,,::,:=,,:99900r00000952552288228822111,,,2,1,1##%%*&*****==,1,,,3265655852,,:8008000000000000000000000000090t00000000t000ew0www0000ew0009590090008699685989959959999999996966990qq9q6659966556522=1212569665555553566663223666669997099q700ww00966996969666696669q66666262252232256666666980900000r000wrrwu0uuruu009000609999997999259999999909999999699996969izkkdkdkkzzvckghstw999999999999990rwrrrrw0rrwwwywrwwwwywwywwwywyrrwwrrrwqqw009000000q0wqq0www000wwywrrrrrrwhpiiiiiitutwtuiutuuuuiiuyuytyyutuiyy00twiii02:,1::1:,88>>9u2:0096096ww6799q66",
"zzzzxzzzhkhhhhdpiiiiuwrruu00udklcvvcxvvvvvvvckddhappfppiiphhhphphpdiudiiippdkzzkkjkkhpydkjkkkkkazjkhhhhhdkddkkhhhhhkzccxkklkddphpurututpw06e090yypppdhaiuyw996008666990w000996606866699669985>:>,:,811,285990rwwuuituuryruuuiutuiiiirwww00wwrwewtwwwwrrwwwrruuuurruuiiddiiuuurur0issuruuuisiddphidpppddsssrruwuwywu2952w00w090uwu77wuuyryyidphapppiaphhaphpphhhhhpphkppippppyuruiytidutuiiyuuuuuiiyiippiiiiipiiiiiiiiiiiisuuuurrrrwwyuiyiiuururriiiuyyiiyipiipddkkkkkzzkzjzzzkkkkkkkkkkjhhjkjczkkkzccczxzzzzzlcccccvcccvzzccccvccckhiipaipippypyuupppiispippppiytwruuuyyrrwwwwyww70qwwwww7w7qwww799997qw7664666666663242221112<<:<,1,,,=,,,,,==,==2=,,<<==:,<,,,89900wr0ww052255822228283211,,,,2,2:2###%%%&*===&==11,<326922552,<::8809009900000000000080t0000r89000000000t00000000www0000ew000990999099995999999999899999999999q66000w09w506qw9622663313312233262225333667655253666999669997q9000w0q99699q8996696669669666636625555552556666669990000000w00rwey0uwu00ur09906006969699599998966999990099996996999967yjkjkkjkkzzfhsi008696769999690999y0yr0yryrrwwyywwwywywwywwwywwwwywrrrrqw7ww0900ww007000www9www7wwwyrwwwrrrrpiiyyytwwwwwwuttyuyttiuuurytutyyiiu06qyypipw2,:1::1=:88;18u5-2086006we96699q6",
"xzzzzzzzkhhhhddpiiiurruurr0uphkkcvcccvvvvvcvkhphhappddpiippiippphkdsuriypdidkddkdhjkzzdukxckfzzkkdkdpphhddddpdddjhkhkkklzkkkkfkkiyr0wuuuw00r960iiipppddipiyw9699999960wwww00996768999986666211:-11:1::18859900w0uruuuuuuruiuuuutiirww0www0w0wwwwwwwwwwwt0wtwrwuw0usiipdpdyuuurrrrtuutuiiiiidddiiididdsdiitrwrrrrwwrr5299000000ur760w30hurruspppaiidiidihdadhhhhhhhppapppiistiirriyupdiyuuuuuurruyiiiisddipiddsiiiiippiiwiiuuyurrrruissspiipuuuuyiiiiuuurryrrrrtpspddkkzczzzzklkklkklkkkklhkklzzzxccccczzzzzzzzcccccccccccczzccccckjhhhhhiaiaiiiipipiiiiiaiiapiyytytdgyusuuyrw00w0qqqrrw0rwwwqrwqq79qw67796965566333443<<22<<,,,:=,,,=,,,,=,,,,,,1=2=111,=11,,,,=99900w00098<8952552252568111,,=1,2,1%%@#%&&*==****::1<,828128221,<:1,80590900999000090009000980900900rr00r00ui0000000r00r0000999900090099959997899599959999999593066w00r06r606wrw092626,2<<22223<24266666668966266966666996997q0000w00966966966693696696669966665552555536666662999900000000wwrwywuwrwwuwwq70600q993399369669766957999009969896920098wakfkkkzzzlfi0000660000000099900909rrrrrry0ywwwwrwwwwrwwwyrwywywwuwu000y0y00000w00000r00e00w9wwwwerrrrwryryuryiiyyyuryruurrwwwuyuuyuyuuuitwiit0wwwtiii7>:1:==::<q9<>0y<,62q6096999600q09",
"zzzzzxzzhhhkhhdpiiiurwrtr00uihkkccvcxxvxccvvcdaphppppdpiippipaaadkddruyiididkddkkhjkkzdihzxkkzzkkkkdapahddsddppdhhhkhkkzzzkkkkkhuryrwwrrw00009yiiiiiiiipdyw0000999969weww0009999666999999965::=::11:::1888599000uuruuuwrrtuuuuutirrwwwewww0wwwwwwwwewwwr0rtwrrww0usiipdkdiuuurwquuuiu00usiissddididdidddiirre0rrr0rr9599990w0rr09396<9iuuruiiappiiiiididdddhhhhhhhapppppiiiiittiyuypaiyuuuuuurrriiiuuisipipiiddiipppdiuyuurwrrrwrwwrwrrururyurrrurwwrrrrwrrwwwwwyiiipdhkzzzzkllkklkkkkkzkkkkkzzlxcccczzzxzzzzxzxzcccccczcccccccvcckkhhhhaiiiiiyyipaiiipiaiiiaiiiuyupduuiuuwrrrwrqq09qqwwqw0ww00rw99wwqqq9996666673363<5<22222,,,,,,,,=,,,,,,,=,,1==2=11=,1=,,,1199990wywr0225552525226561181,,1=,1,,OO#$%%%&****:=:,212222222828<1:,:<08090099990090098490098900009000000ee000e000r0000000000999990999999999979896999989999099996r99urwrq9r9w0wir002868<22<26223<<2562626669966666996669969990000000000999q339966969936969666666552555335666966689899009000errrrwwwuwuwuww67600666999999666699999959099999999969068095ykkkkkkkkkdr6566907660669699999090r00wyrrrwwywywywywywywwwwwwwwuwy0ruy0u00w00000e00w00000r0q0wqwwrwrrrrrrruyyyyayauurrryrwywwutuutytwyiuuutiw09wquiii0<<1:==,:<q6>,wi2<2<96696999999096",
"zzzzzzkldddfkhdapdsiwyrurrwyihkkcvvccxvxvvvvlddhhapppdpiippiphkkkjdsuuiiidsdkjddkkkdkkczhlzkkzczhkkdapppddpdpppdkjkhhhlzzklhkfhduiyyuuuurw0099yiiiiiiiipdy00wrw609669www0000999956699e009981::::+1::::1255599909ruurruwuruuuuuiitrrww0w00w0ewewwrwwwwwwwwwrwrrrrriiippdhdiyuuwwrssiiuurtpididddiiddiididiir0rrrrr0rt9229560q0rw9069629siuuupiiipiidiiiiidddddhhhdapppppipsissiiuiiypdduuuyuuuurruuitudipiippippiiiippiiurrwrrwwwywrrrrrrrrrwrwwwrwwwwrrwwrww9090wwwryipikkzzzzzzkzzlxzxzlzzlkkkkcccczxzzzzzzzccczcxcccczzccccccczjkkhkhhfpiyiiiiiipppiiipiiaaiiyuuuidstiturwyyrwrq000qqyww0q00007q7wq77q996966666666734<22<2,<<;,,1,,1,3,,,,,,=,2==21111=,=,11,,899990w0096455825225665218811,1111,=O+##%%%&&*&*:=,1222212282282181,*;999009099009890954000989000000000000r00r0000r0000000000099900090995999996799669999990099979r69uwwrr9r9wwriirq2938332<232235<555556669666622666666979990000900000969696996999636669668666665343535226666665959990000000wrrrwurruwurwwq76999666999993666997609990009669996980989949ikkkkzkzlasw00e0060669999699999990w00ww0wywwwwwwwywwwwwywywywywuwuy0uuy00w0000we000r000009w00wwwrrrwyryyrruyiiypyuurrurrruwyttuuuuuwttiitriywwwqwuiiq<:::==>:<q9>1wi6<2279669wqq606669",
"zzzzzklhddddddppidiuu0rrrryyipkkccvcxvvvvcvccdpphhppdappppppphkkckdituipidipkkdkkkkdjccchkzkzxzkhkkdaiiippidpppdhjhhhhllklklkkhapppiuwwrr00067ypppiiippiuw99www90966wreww000970966569990w82:=-=::::::11288655990urururywuuuutuiiwrrwww0w0wwwweww0ewrwwrewrtrrrrrruiippdddiiiuuwrusuuuuiiiiispsdpdiidiidiitrrr0wrw0rr926595900091069660ipiuusiiipiuiiididdddddahdhpppapppiippppiiipipiiiuruuyu0urtuytuippiiiidddiiiippiuuurryrrrwurrrrruurrrwrwwwurwwwrrrrreww999ywwwyuiidfkzzzzzklzzzzccxzzklkkkxxcczxzzzzzzzccczzczcccxzxcczkfhddhhhhhhfpyyiyiyippappappiaiiiaippddsuyuuuywwywwq7qqrwqqwww0www0wwwwwwq77q9996766663334<12122<<<=,,,,1,,,,,,,,,,=2===2=11,,,==1,59990ww0008225556552626581111,=,,=22##%#%%%%%&**=,11228222222128222,;*90999090090990098800098900000e0rr0000r0t0r0000re0000000000000000009799699969998959998999999r9qiwrur9i9rrryier66682332533334225526599666666666689699999q70009900069969966936669996696966689522253422553666255890000000errrwwuwwwywuweq999666q999999666996660090009999969999500959yikkkzkzzksrw0095590090009996999990wwwwwwwwwywwywywwwyywwwwwwwwuwuu0u0u0u0ww000w00w0000r00w0wwqwwewrryrrrruriiyiyiurrruurryuwyiuiuuuuuyiuwiiyww90wuiiw2<,:==::1r9>1wi9286w69660wq6w0609",
"zzzzxzkkhddhddppddiuuwrtr0ruidkkccvccxvxvvvclddhddpphadpppppphkkkkdiuuipiddddkdkjkkkkkcchllkkzzfhkddddyppiipppphjhhhdklzlkkklhhdpsur990wr00999yapidipiiprw9werw90979www9000999996656699605:::==::+:=::1248566600uuuuutuuuuyruuuiwwee0eww000w0wew0re0r0rwwrrrruuurtiiiddpdiiiurruiuuiuiiipiiippiiddisidisiurrwrw0r0r082599690099:666336wiutuisiiiiypiipiddddddddddppppppppipppsiidiiiiiiu0urrruurwuwuuiiipiiiidiiiippppiyuuuruirrrrrrwrrrrrwrrrrrurrwrrrrurrwwqwwutwtuisiakzzzzzzzzzzcccczzzzlkkkzzzzxzzzzzzzzccczzzxzzzzzzczzkffhdhhhhkhkduuiiiyiappapppdpphaaipppddpipyuuywyrw7660qw0q0wqwwr00rwwwq7wqq000909976337333<22<2<2<<,,,12,,2,,,21<,,2=1==38==,1=11=159900rr000888255562255651111,=111,1=%#*#%%%&&&*=:,11288228222,22212,,:9999909090000085999009990900000ww0000r00r0e0r00er0000r0000999990009999959989999959998999990u0wduiir0uqurruirr696626555666255555265966966666366q96999990q009w999796699366q66669669666666636552234225535266699999900000wrrw0wywywywyww079976qq66966666699q990090007969996999590890pdkhkkckzkkassiuww000099999960069900w0wwwrwwwywrywwyywwyywyywwyrww0u0u0u000000w00000r000009w0qqweryrrryrwruruuyiiyurrruurruutuuiuwuuwtuuutiirq9wwtyiit2:,:=&,:<r0<2qiw230999639wq9pw60q",
"zklxzlkkhhhhkdppidsuwrrutr0uidkkcvvccvvxvcvvkdphhpppdhpphhppphkjkjduuuipiiiidkdjdkkjjkkzkllkzzfhhdkddippipipapphhjhhhhkzklkllkkhsirw070w009967idppdippip009wwww0w960www900w999990666666681:::=*=:===-:1242666600rttuuuuurrrruuuu0000w0e0w0w0w00wr00rrr0wwwrruusuuuiyiddddddiiuuusut0uiiipipiiddiididdpipstu00r0rrwr022563299999252<336eurruiyuiiiipiipidadadhdadppppppppppdpdpppiipuuuuuruuuu0uuuwtiiyipiiyidiidipipippiurrrirrrrrrrrrrrrrwwrruuurrrruiuurryrrrruyuuiippkkzxczzzzzzzzxcczzzzzzlkkzzxcczzzzzxxzcckzzzzzxzzcccczcckkkhhhhkjdyuyiiippppappihpahfaiaipdipppytsyqwyq66660666qwwqwqqwqqw7q7qw70900ww967633764<2<222<5<1,,1,,2,,2,,11,,22=1=1=81,11,111590900r000998559656659221881,,1221=+##%%%%&%&&%*,1182222288221128<8,2;0999900900000024289909900000r00e0rrrr0t000t0000rr00000w0w0999990y0995999999999999999099990qi0rsuuirqiquurrtrr692625655366665355356968969666666999669999600999969969969963689669696666666663225535325256566959900w0e0rrrrr0eiywiwuwrww0w999767q6696636699w900090009999598950658960pkhkkkzzziu066660660679996706909700000w0wywrwywwwwwwwwwwwwwuw0uuwu00uuru0ww00w000e0000re0w0wwwwwrrrrrrrryrurpyiiyirrrrurruuuuiiytuuyuuiuyiirqwwwwiyiu5<::==::2r0<8ryw210966699qq7gt00w",
"zkkkklkkhhhkfhaidipuuwtuurruihhfcvccxvvvvccckdphhppphddphpppphjkzksiuuiyididkkdkkkkdkkzkhkkkzxzhhhhdipppippppphhhhkhhhkzzzkkkkkkhpiuyrrr000990iappppiipy8990wwww0990ww09009999666668666651=::=*=:=**::222856690uruuuuutuuuwuuuur8000000000000www0rr00rtwwtrrruuuruuuiddpdsisuuussiuu0siiiiiippipidsddiiisur00r0r00ww85592699596132<123qiuuuipyyypipiiiihaddddpdphpapahpppppppppppdpiyyiu00uuurr0uuwuiyiiyiiididipuipppiuuuititrrruyuriuurrrrruituuuuipsipuyyiupuiippppdhkzxzzzzzcczxzzzzzzzxzzzzkkxzccczzzzzzccczzxzzzzkcxxccccvczkkhhhkhdpiiiiyappppppahpphhhppipppppppytyrruy63449967qrqwwwqwwwwwqqwrq0999ww996673333333635224212122,22,2,21<<=11=82==,,11111129900rr000r095556656658281111,1118=O#@#%%**&%***,,212252822222228,2:2-9999990000000094<2999980r00000000wr0000000t0t0rrr00er0w000000000009595999599999999990000009u7rpyuyr0swirrurru9066556625993666355636669996666669666766999009996766696q669699966966666666663555563552225566655990000re0rwrrwywwwwwtyrwqwq999q76699qq6766777q00900009898995990859650pkkkkzzzzhiuyw0006660996709979909900w00wrywywwwywwwrwwwwyywwwuwwuyuyruuru00000000000000000wwwwwqryrryrwrruuuyyiiiuuururrrututiityiwuuuuuttiy0wqeiiiiw5:,::*1>2uq56wyu2,w069969q96ju7qu",
"kkkkkzlkhhhhhhppipiuuuuuirruidhhccvccxvvvvcvlddhhppadhappppiphkhkjdiuupyiddskddkkkkdhzzldkkkzczhkkhspiipiipppahhhhhhhkkkzzkkkllkljdspiuwrrr999riiipppiyy888wrte9000www0ww0999966066680061::1:=*===*=::12486669wwwwwuuuuuwwyruurw00000w0wwewe00w0re0rr00rwererrurruuuydppdipsuttsss00uuippiiiipdiiidsdiiusuurwrq000rw82556600965>33,,<26uiisipipipipuipsddddddapdhhhhhhhhpphhppipippyyiuuuuu0uruutruisuypyiiiisdipupipppiuuiiiiirrruuiiuyuyyrrutirurisuitppiiipippdddddfzxzxzzzzxccczzzzzzzxzzzzkkkzxccczzzzzzzxczzzzzzzzcczzcccccjkhhhkjhhppyiiyaaipppdpapdhhaappaapppaiyuuutur64<6qw66wrrywwrwwwrrqwwrw09999w96q7346366336666333323233,2,2,<2<<322232821,=11111889000000rr095586526582218111111=8= *#@%%%&**%%%,111222>222,12218,8:5@9979990000w09002><882880009000000e0880rrrt0r00rer0r00rwwrr0y0990009999799999909999090000000iwrhiiirqsruururru70665556569936663566626999996666669666696790699996969966966696696669666666266552555552422262658999000e0w0rrrrwwuwiwwytwwwww09qq6q6wqwwq9999qq009990999599999849969ijzkkcccccclkkhdiww0700099099900090900ewewrwwwwywwwywwyywrwwwyw0ryu00ww0uy0w0000ww00r0r000rw00wqwrrurrrrrrwruuuiyiiuurrrrrruiiiituwiuwytiuyiiuwwwwwiyit2<,::::>2uw52wwu21iw39966997ku0ui",
"hkjkkkkjhphhkhhppipurustriwypppkcccccvvcvvvckhaphhhphhhphhiyaahhjddiyiyiippdpdpkjhhkfkzxkkkzzxzfkdkhddidpisddpddjhdhhhhjzzzzllkllayiryuhaur009rsaappppiy996600ew00wwrre00899996666655885+::::===:==:::1>566669euwwywuuuuywrrr00950900e000000000w0twwwwwwrrw0wywwiiiiidddsiiiyuuiiu0ruuiiiiiidipidiisddiutyuyq0www0ww22q662q669:13<1,,<qtissuuyyiiyiyiippppfppfhdhhhhhahhppppddadisirrttuuu0uur0uyyuppyyiiiiiiidpppuipyuprtuistiiiiusrsrutirrwriispsippppppspppppaddfhkkllxzzxzzzzzzzzzzxlkzzzzkkklkzzzzkzzzzzzzzzzzzzzzzzkzlcccczcclhkklkhpiiiiaddppppddddddhddipppapiypyyuuuywq0ttqqq0w7ww00uuw7wwryyww900000009997366666q676663366633363642266433464342<22122<50000000twwwq667256996332831138,18&##%#%%%%*&&%=:,:<2222221212122<8,=:5099000909wqqw622;29q50qt659099000tu00000ttrt0uut000qwwrw0r00000999999998999990009000009900uripisruuururrrrrr0r66656636wr90923656636660963663656666669660096699666696666666666666662696386655255565225666566679009wwr0wrtrwwywwywyww0999q966q67q666666q7q6q9999998998599966660600rtssiipiiuuwww990999990999799999980000wrtywrrywwrwwwywwwwwwwwuwtw0urrry0ut0t0000000000000w0w0wqwwrwrywrrwuuuirrrirrirriirrritirritwutyitytitwwwyiiiiw3,,==:2:3uq92tuw25tq66q66w0ycpyyp",
"khkkkkkdahhhhhppiyiuwrurquyyiapkvccczcxvvvvcchhphfphphpphhpidddhddiuyyyuiipphhhhkhhkkzccfkkzcckkdkdhdipsppiddppkdhjjdddkzzzzlllldiiiyruppurr90rsipppappiw6250w09900www000098686668666885=:::::;===+:::115555690wwwrwuuuwyrryrr06669000000000ew00000tw0wwrywryipiiiiiiddidddiiuyiiiuuuipyiipiipppiddddiiuuurwww0wqwww227665q666,23<<1<<6wtuuuiyiiiyyyyiphpfhpdhdadhdhhdhhphappdddsssruuiiu0uuiuuryyyyyiipiiyipdipdppppuuusiiisiiuiuuiuuusitturruurutspppppdddpdhdhdhdfkkzlzzzzzzzzzzzzzzzzkkzzzlzkkzzzzzlzzzzzzzzzzzzxzzzkzzcccvcccckhfkkkhpiiiiidapppppppddhhadppppppppiiiuyr0764qqq7060yruwruuwwwyywwww0000w0q099967676q666q666333666646364236366663333223=21215000r000wwwww666566693553322212211%+#&%%&%&&=&&=:::1252222212222<,1,*:809990000060w7775259q60qt780090rre000tsu0000rrisi0wwwwrwr0000rw9995999999599899099000099000iyrpiiruirurrrrirrqr55356669ww90w539255566996663653366566666qq679677q966739966666666669666922866662252352552662666890900wr0rrrrwwwyywywwqw9q976q66666666666669699399999999695959966588666969076999999999999999999909999900000wwyrrwyryrwywwrywywywywywyyu0uu0uu00000000000r0re0q00wwwwwyrwrrwyrrrrruiurrirrrrrriitiiiiwuyyyuuuusiwwwwwyiiiq2,,==::>2t052tuw56tq66w6600ycgyyp",
"hhjkkzkkddhhkhhpsiiiruiwquywippkvcckxcvxvvvckhddhhhpfhahphsyadphddiyiypuippppkdkkkhkkzcchkkcvzkhkddddiidppidpppkhkhkddhzcczzzzlksiiyyiipsur090rpyppppppai926e06500ewww00099909866695598,=::::::==*+**:125555600wwwyyurwwrrrrr0756079009000000ww000www0w0r0wyidddiiiiidsdddidpyipiryyiippiiiddipiidiippiuuuuww0qwwww02265660953,1<<111<3qrrruuiiiiyyyuiipppapphhhhdhdhhhdadhddaddisiuruiuu0ruutruyyyiiyiiyyipiddipuuppuppssiisssurriruissiiiiiirtriippppippppdhhhdddhkkzzlkzzzzzzzzzzzzzzkzzzzklzkklzzzzzllkzzzzzzzzzzzzzzzkccccccczkhhkkkpiiiiiiddddappddpahhhdipppdapppiuiyrr06qtsstywryrryryywrwywwww7w0rqq0w0w9996669667q66q63q3666666766376q636346342312121250r00r0rwwwww0666669765232<331,222&##%&=&%&******:,2252>222212221,<,;:90000000000wq09qwq99w29ww990990r009900t00000tusgs0wwqwqrw00000099966899995999909059990990r0iyysyirurutuururrrwr62255609wwwqw5396222236355555555636666960066766997q96963666666669696666590636255565552562666568900900re0rr0wwwwtwywtw999099676q6q66666366699996999969599995666666666999997586699909999990799999900900e00ewwrwrwywrwywwwwwwwwwwwwwywy0yrr0u000000000r0000000w00ww0wwwrywyrryruriirurrrrrrrrrrriiitituyttuuuiiiiwwwwyiyit31==&:::1r026quw00u06396609ickppp",
"hhjjzkkkhhhhhhapdisiuuswwuwyikpkvcckkxvcvvcckhpphppphhpphhiiphphddiyyiddpippppdkkhjkkzlvkfkcczkakkjddsdididdppddhkkjhdjzzxklllkhipiyiipppur099wsiipaappyu090056e000wwwe0999699966965685;:::::::;+-=-=:1>55256000wwyruwwwrrr0005505606009000000000r0w0w0try00isddiiiiisdidsspiiypiruiiipiiiiiidpidiidpiiiuutrw00www762252660962<2<1<11,<3trrrippiiiiiyiipiapahhhhphhdhddhddddddddtiirrurruuu0uuuupyyiiiyiiipidpdipyupupppsiisisppiiiiiiiissstrrirrripddppppppppdddhhkkzzxzzzzzzzzxzzzzzzzlzkzzlkkkkzzzzzkkzkzzzzzzxzzzzzzzzccccccczjhhdkkkapppiiaadddaddapddhfapppdddpppiiiuuyr964q9996<27wwwwruuyrwwwwwq0q0wwr00q7q676996666q66666666766q6636666666663363<2112228r00r00rr0quw0656699655362<32==288=####=&%%****=::<892228222<222<<1,:<000000000q0wq96697990166q998990w098800u0000etusdu0ww0w0w00009099669995958999999099999909000iyrsutrrurrruuurrrwt52<2250qwwrww56r652<45635555236536666666669697q9667669696666666698666966rr6656635655852666566589909000rerr0wwyywyytwwww099966666666q6699qq79989999998999599569996009www0099999090907099999999999900wwwwwwwrrwyrwrryrwywwuuwywywyuwyrr0rryru0r000000000e00r000wq0wwwryrwrwwrruurriuurriririrriissirityyuiuytiiwwww7wiiit3,=&*=::2r056quy00iq96976wqivzdhh",
"hhkhhkhjhdahhhdpdyiiruiqrityihhkvcxklcvvvvcckhpphpphhphhhaipdhphddiuyipdippdhhadkkhkkkklffkclkkhhkhhdiiddpippppkzkkkhkkzzzzzkkhahpiuippisst0960pppppdpppsw00060rwwwewww0998999996965565*::1:::::====::1>552590w0ywyrrwwwur0099986500000090000000r0r00rr0rr0ruidsiiiyisddpdidiyiiyyruiiiiipipippiipipiiiyuuurw0w0wwq6555269962,111<<11,<<rrruupiyapiiiiiipaiiphhhahdhahhhddadddppirrturrrurr0uuuupiipiyiiiiiiiidiipuuiippppsppspppipissipdstiurrirrspddpspsppppddhhkjzzxzzzzzzzzzzzzzzzzzzzlzklzkkkklzzzlklkzzzzzzzzzzzzzzzzzzccczkddphhkkhpppppddddddddpaphhkhdihdadpppiiyiyyq75996592<<0rwwrytyyyrwwwqw7wwqw0w0qq9q76666676666666666q66666q666666666334221<312180r0r00wwqrrwq7696699633333<11=*28=%##%%&#%&**==:,2255522221<2<11,11:2000000w00000065562066<55q0099000090000000000uuihi0w000wq9700990969665985596999009909999900riyipytrrururuurrrrri2442469qwqrrw60r965422336663535556666666q666wtrq77693939669666666666369rgp63663656555559585586699990000tr0rwwwwuwwytwwwq767666q66669699997q99999999989955999699956626099966999999979999099999799000wwrrwwerwyrrwrwrwwwyywwwwyywwwuwrryrrrrtt00000000000er00qw000wrqwrywyrwwrruururiirririrrriisiitriwwttuuudiqywwwwyiiy6:=&=*::2t956wutw7ie969979wiczhkh",
"hdhhkkddhdddhhhpdpiuwuu0tuuyphdkvcczxvvvvvccfdahphpphhhppaippddhdiiuyiipipdiphdkhhhfakkzkhkcckkkkhkhdppidppppphkzkkkzkzzzzzkkkhhjpiiippspsir890ppyyppapadu00wwww0000we00996989666666661=:::;::::====:11155150000wwwrww0ruwe759690090600009000000000t000r00yriiddiiipiddidpiipiiiyyruiiiiiiiippippiiiiiiiiuutw00qww0666556q992>1<<<21,<<,rrruipiippiiiiyiaipiphhdhhpadddddddddpppitiiiuuuruurruu0iuyyiuipiiiddddiipdpphkjphhppppipppppippddpuyuuiiisddddppshppadahkkkzczxzzzzzzzzlzklzzlzkkkzzzklklklzzzzkzzkzzxzzzzzzzzzzzzzzzzljhddphfhhdpdpppaddadappddphhhhpphhhdpppiyiiiturww9639936yrrrrryryyryrwrwqq7000q0q777qq7qq66qq666666666766q677666666346632122,21280000w0wr0qriq9666996665<63,===%2=##&=%%%&&&*,*,::<2222521221221111::800000000wq00w65533766,2597048000090000090ruruuihi0qwwwwwqw0090009999969998959000090990000rwpiipiiirurtruurrrrwt622229qwrrrrr6qi969<4<4255335366666666666q6wihtuee69666666636366666669rpkay66666663855559596566990900rtrrrrywwuwuwywwwwq799966666969993666936999699699598958995690eruiuw09996799999997999990999000e00erwwwrrrwyrryyywrwwwywwwwwwuwy0y0rr0yu0rt0000t00t00000000rw0wwrwyrrwryrrrrrurrrrrrrrrirrtiiirrwiyiwitiiuwwuywwiyiu6,=&=:::3iq55wii76tw96996qqhcchkz",
"dhhhkhkdkdhhhhhddiiu0wurruuuphpkcczzxvvxvvckkdpphphahhhhippypadhpiiiiyyydiddhpddkkhhhkklkkkcczkkhkhhdsiisippppkkllklkkkxxxkkkkfhdsipppipsuu089rpppyippdddpy0wuw0w009000096669996855661,:::===::====:,,12421670www00y007yw09959990550909090900000wrt00trr000ytishiiiyidddiiidpiiiiyiyiiyyipippippiiypyiyiuiuuw0000w6566565q662;2<<2<<,<<,07wruyyiiiiiiiiipiiiphhdhpddadddddddaiiiiriiituuuuu0yuuypyiyiiididiiidiiypiphhjkhhhhpppppdppddpdddpiuiipissdhghpphdhhhkhkkkzzxzxzzzzzzzzkkkzkklkzllzzzkzkklkzzzzzzllzzzzzzzzzzzzccczzzclhdsdshhkhappdpdddadppppdddhhhhhphhaaapiiuppuuyyuusytturirryrrryurrrryyywwwwww0w07q7q6767676qq6666q66666666666666634333332211,23180w0w000r0rriq969696666656311=%%==##==&&&*&&*,1=::<2222222812122211:18000000000w0075<366669263996>508809000w09900uuidds0w0wwwww0099009999966599997990099000000yurdiipyiuuiruurrrrrrwt65529wrwrtwtr9rt99e65<>42245666669669660060uihhiiw7669996666666666666wsdhjp666966665555595585569999000rrr0eywuwywwwwrww977996766666799993666699999999999595669990wuklkhpyw997999999909999790999900000eewrrrrwrrrwrwwywwuwwwwyywwwtwrrrrry0urr000r0000r0000t000wqwwwwyrwwrrrrrruuurririrrirrrririrywiwiwtiwiiw7wuwwiiyii31:*==::8iw55tdhy6ww96w990yjckkkz",
"pphkkkkdkkhkkkhhpiyy60r0quwypkpkzzzxxvvvvvckfddappphhfppihpihhhkppiyiiuuiidspddpkkkhkkzlckfcckkzkkjhdipidpppppkzhkzzkdkzzkkklfhhdiudhpipitu099waaapiippppasreww0we00000096666666655951;::=*-=::===:;,,11>11560www070060ie095898909056999900900000w00000t0rruryidyiipiddiddppdpiiyyyiiipyiiiippiipiiippyuuuuyq000705<66256q67<*1>123<<<<<69wwuyyiiyiyyiyipiiyihhpahphdddddadapaiyirtiirruuuu0ruuypiipiiiidiiiddidyiyrrsirpphhpaddpdadddhhpdppipiusgpphhhphppdhkkkkkccczxzzzzzzzzzzzzzzlzkzkkzzzklkklzzzzkkllzzzzzzxzzzzzzccczzzzldddiddhhappdappdddpippdphhahhhhphddpappppppy64<<<3636<<qrqqrrrutrryyuyywwwqwwwww76q76q66q666766666q66663q76366634663<333212,223190r0rw0wrr0rwqq96669666663331&###%%%%%&=**&&*11,::18222282828228822119r0000000wq006<><226695q6998>8028000wrr000t00uiddsu0090wq00098999669999999999990095000000uirgispriuuuuuurrrrrrwu6555wtwrirqrr9riwwrq92<235255566696666066q6ddtihht7966663666666668969rppdhk666966658555856665568990r000000twuwwuwwwwwtwqq696q96q66qqqq9966633996999969589899955869wyidiyw976696679999997999909990ww90wwrrrtrywwryrywwwrwwrywwwwyywy0yrr0yri00r0000t00000000r000wwwwrrwrrrwrrrrururrrrrrrrrirritytitiryuwuuuiw0wtyuiiuit91:&=:::8iw62tkci6uwq69w9qwkvckkz",
"hdhhkkzzjkkhzzkhksrw0wrw0rryddhkkzkzxcvvlvczaphhdpdddddddihhiphhiwiiwihqiipdhdsphhhdhhkkkhkkzjjhkkkhppiuiiipfkjkjhkhhhlzkclkkkhhpiiiddhiiwwt60uppppiipppphpy00r0000099099595986936662,;2&&&******===8=88,,<299qw6rr659wrq996666999979990000999000000r00t00tr0ruspiippppppipppiiuyipiuiiiiiiiiiiiiiiiiiiyyyyyw00w96<><6656qq22=1<211111118qewwiiiiuuuuyuduiiuiahpapddpypadddppspuiiiiiyyyyiyyyyiiayyypasupassapppppiuuuw60wwrtisshshaddkhdddpsuipdddddddhhhakkckkckklkccczzcccczzzkkzzzzkzlkkklkkkfpklkkxkkzlzzzzcczzzzzzlcclcckhiipiipddddapppddhhppppddpdhhhhdphhppapiiisdq0w9066w47666rrrrtuuiquq0rrwt0000u00000998985q666q6q66q6666793366536533333388332222229qw7969rwwwurw967666663363363&@@&%%%*=====*===8=288332235624266<222,*twwww00er00e00;919576qe56wq73356we9q99qwq9r0rsuphpww999ww7t939q06629979960676990076wqqerrisppipppiituururrrrytru9<22wywriyyu000rrrru622<122223666922996560udhdsiiii66767666669966992qughhfk699655535368236663667999wwwrwewiwwwwuwwwuwww009796699923699966969969999986666669699969969tiq699506979996799999969699900ww00wwyyyry00urry0rr00t0t0rr0tr0tr0twtwryww00r0000000000000000000ur0twwrwwyyyurrrruurruryrruwuuuiuuuuwywyiw00wyyiiyyu8==*=,1:2w90ikccr6qww99959pzxkzzc",
"ddhhhkkzhkhkjzkdhpiw7ww0wrrudhhkzzlzxvxvlvczhpppdpidpddddiijphhhhtshwiiqiippddsdhhhahhhkjkhkzkkkkjahpsiiiiipkfkkhhhddhklkzkkkkhppiiipdhihiiw77ydippiipppddpy0wrw00009999995859966633<::,*&&**&**=====88=<<23699w9rw529rr999966995999599900099000y0000u00t0rrywusiiiiippppiiipppupiuppiiiiiiipppiiiiiiiiyyyiyw0qw96325665696221=2213111123qiruddhdiuiiiiduiiiikkpdpddpipdpdpspiuiuiiiiiiiiiiyyyaaayiiippisipipppppiiiutw00wwruiisshhhhdjddjkdsssahhahhhhhakhkkklkkcckccccxzccczzzzkkkzzzlzklzzkkkkhpkkkkzzzzxczzzzllzzzkzlcllzckppppppadhdddpppadhdpppppddahhkhdphphappiiiisq6033wwi6w669rriuururtuuwutwrw00w009999999599696666669666666966666666333333383222<22,qqq9636qwqqwr0966696967633463,&$#%%%%%**&=&====1=82363332664<25<218:=00000000000e00:9:62356722q7q6676ww69w9qww7e3wiupdprww96ww9e096009959999706099900076qqrrtiiipipipiiiyruuruyrrwuru0426wuryiiyuur0rrrru052552256666965969990udiipiihiiwq766669836269659rshhhkkw6250064252222293636699ww9errwwruwywwurwrwww0w969666679q999096556669699996966663699999972900900099969699999999969966990000000wyyruryu0u0u00rr0r0r0w0wwwwwrwwwrwyww0wr0000ee00r0w000t0rr00trrtuyrwwwttyuyurrrrruwrrruwruuuuuuuttuyw0wtwyiiyyt2==%==,=8rwypkvci6ww056999pcczkzc",
"ddhhakkkhhhhzzjahpprwrrwwrrudhhlzkzzvcvvcvczhahpdppipdhddiiphkkhieiswiiwiippdsdihphhdhhhkkhkzkkjkhhdppyiiiiphhfhppppdahlkkkkhhhsiuiipppiiiir00ipiipiipppddpy00rw00999599999559593382:;,,*&&*****====1==1<<22569ww9655www96666q9q9999999000099900000r0ur0r0t0ryrsypiippipppiiipiiuppipipupipiipipiiiyiiiyuryuqwwq963265659w6<,1,<3111111116ewwipidiiuiiiduddddddsppdddiidiidpsiiiyiyiiiiiipiiipaiiiyiipiiipsapddhpsiuiiu000ewuutihsshhkkhdhkdpaadjkhkakkhkkkklkczlckczzcczzccczzzzzklkzxxklkzkkkkcdihkzzzzzcczzzkzzzzzzzzlcccczkppapppadadpppppphhhpppdpaphhhhhhdhpppapiyiiiq693297r66<>6uuuuurrrwiyqwr0rr00w0098899989596666666696666666656265563323322322323<2<q6963236rwwwr079434366663323661&@#*%%%%*&&*===8111186633262<<2548,9::190r0w00rr0r00,526235692<75qqqq6eq79w69wew92wiuppprwr969qqwq69909986996696099900096wwriiiipppipiiiyururutryurtrtr<29wuryiiuuurrruurrr09w9256666699689599rididihhiiiireq7666q6366995usdhjhhkksrthjpr92<2822655566699qwwwrwwiuwwwuwuyrrwwwq979qw660ididsiiurq966999999696666993699996iiiuq096696999699699996969696999999900wwr0u00y0urut00r000r0twwwwwwwwwywrtw0w0000000ww00w00000r000wrryuywyyuyuyrrruurrrrurryruuuuuuuwywyyyw90wuyiiyiw2==*=:1=2suphzccw5qw059099pcczkzc",
"dddjkkkkhkhkjzjddiprrrsrrsrudhhkkzzzxvvxvczkhpppdppddhhdhiihphhhitsiwiitiippddddddapdhhkkhhjkkkjkhhhpiiiipiipphdippppakkkkkhhhpsyippppihpyit0wiiipiiphfpdddyyww000099995595956553831*,,*******&*====123=<<<269q999525ww95666669699579999000900000000t0r00r0twriipyypippiiippiiiypupiipipipippiiiyiiiyiyiiiuurw07665666660q3,,=,211111111,3wwwwiisurriiiiuiddddssiddiiiidyispiiipiiiiiiiiiiiipppiiiiiiispsiispahhppiispiw00wwruuidahhhhkkhkkhhdjkkkjjkjkklklkkckckkcczccczzcczzzzzzfzlzlkzzkkklkkkdidkkkkzzzzzzzzzzzzzzzzlccccckjppppppdpaappapppffpppadppphhhhhhphppiaiiisdq66<<wqiq964wruuuurrrwuq60rr0wrw00099259995996666666666666266366666363223222=2221,<,<1223112396699963<<<33633433<382&@&**%%&==*=====2=12399332552<2222,8,:*9000w0r0r009012>555qq72263667w69wq6q669932<0ipppprwr067wwwq939q0996996699999990q99wurissppppippiiiuuruuyrrtwuuur22wyuwyiiusurrruur0s00ur295666369692560usdiisihhhshhdiww7623986688sdkjhkhkkkkkkjkjr9<22226365366797qqwrwewuwuuuurwrwewqq999q966ujjjjiyqq09396639969366666696676969099q066379695957996997990706969699990www0u00u0u000t0r0t0r0r0wwwtw0trrwwrw000r00e0ww000w0t000000ttrt0wwwwrrrrrrrruururyrrwrrutuuuututuytuiw0wwiiiuuiw2=*%=,1:8iidjjczi5ww055090acczzzx",
"pdhhdkhkhkkkzckdprrryrrwssuidhhkzkzzxvcvvczhapapddpppaddiihkpdkhhhhitwiwuiiiddidahhhhdhkkhhkkkkhkkadiiiypiippppppphpphakkkkkhhdpuiippppppuwtwwpiiuyupdppdhdy0ruq0099999996699266888==1=**&=&&=&&===,111,2,<26wq995229w9566666969699969999009000000000u0000uu0yuiiiipddiipiiiiiiippuppupyiipiiiiyiiyyyiiyrrirqq96635665660q2,,::<3111212116reriiiturrriuruipiiiiiisssiiidyidppiidiiiiiiiiiyisppiiyiiiiiipiappdjhhpasippirw0wwwruidpdhhkkjkhkhkjhlkkkzkjkjzzckclkzkzzzzzzzzzczzzklzfkzzzkkkllklkkkhhidhhhhkkkzlccckzzzzzzzzccccckjdpiiiaiappaippppkhpppphpppdhhfhhappapaiyiii666<=ruir963qrruuuurutuw5qrrrwrr0r009229965996669666969636335366666663222,2<<=2=2=1=,=,,,,,<30000009644363636236<431&+#%%%%%*******;:1122693223624255218::&9re000r00r959252952w753<6266q736q79063962<40sspittqrqwewwwr95909909975996699079999yuuipipippipiiiyruururrruruyit52wrwruiiisuuuuiuurir0ur25566529668569rusihihdddihihhhduw7336666wihhjhhhkjdhjkddhjhr222225565366990wqwrewwwuwwwuuuwwwwwe996766wdkkkpiyq96266696999q66666939636756099999699969599956999999699996999699900wy0utur00ru00t00ut0e0rww0twwwwwyyww00000000e0we0w000t00u00wrwwwwtwrrrtutruurur0uruuuururuuytuwruuuiuwwwiipiyiq<:==;::*1tudjcccy6rqw89099pxczzzc",
"pphhhkhadkdkzkkdppprrriqspuidhdhzkkxvxvcvvzkaphpdppdhhhdhhhgpdhkshsrytwiiiddsddiphhphhhkhdhhkhhkkjhdpiiiiiiipppppdpdpakkzzzhjkpdiippppiipitwwipiiq9wippidhduwwr00099999969622995881=====**&&&&**====1111<,,399965225695269669666976999909990000000rr000tt00uurruyyiiidiiiiyiiiiipupuiuiuipiiiiyiiiiiiyiirrrrww6533466335002:,<,<3113111216qqwririirrriiruipiiiiuisssiuiiyippiiiiyiiiiiiisiippiiuiuiiiiipisppddhhhpapspstewwwrruupphhkhkhkkkkkkkkkjkkkkkkckkczkzlxzzzzzzzzzzzzlkkzkkzzklklkkkkkkhhhhiddhhkkklcccczzzzxccvccckddpdppaiiipipppppppahhppahppphhhhhkhaapppiiiuuu6663<wur936>5qwuruuriwy95qrrw0rrrre09229996596666q6q96666666355552555222=<<2<222111,,2222<<3qrrrrurq066366666236<<<1=O##%%*%%&&&*****==22332255552526211<=*9w00000re0925525052w32677467wq66q6996696<22wipiuiswi9rr7wwq6260995999999909909967quuiipiiipipuiiiyurturuuruurrtr69rryuiiipiiiiiiiu0ir0ur85266366929290tiiisdsdddhihiigdppiiq627rphhhhhkhkhkkhhkzjkzpw2265565356669w9wwrtwwyuwuuuwwerwwwq96967wpcckxllkkiq766399639666666699666650ijjsiq998689995993996396669696969666600ww0u000rtr0tu0000000rrww0w0wwwwwwrw000r00000w000w00000000t0wtwyuidjhhsiiyrurrrurruruytuuuwuuyywuuuiit0wiiiiiuw,==**:<*1uidkccky9ury09079plczkzz",
"pdhhkfhhdhdkkzfpdpuryriwssuudhhkkzzcxvvvvvzhhpdpdippphhphidhhdhheiitywiiyiiddddihhhhdhhkhddhjkkhkkhppipiiiiipppppddddakkkzzkjhhhpiiipdpidiiw9wpit650ippppddiwrr00099559966666629811====&%&&==&=*1==1,,,<,<255632<<266655666q66969996999999090000000r0t00ut0uuurruiiididipyiyypiiypppyyypppipiiiyiiiiiiiyirrrrq75<4<53<>3q0<,,<,:111==11=,<36qtrwriurrturypiuiiuridsiuuiuyuiidpiiyiiiiaiiiispiiriyiyiiiipapphdhhhpdppsspsewrrwuuypdhhhkkkkkhkkklkkzkkkkjzklzkkcckzzzlzckkxczzkkkkzkzfkzkzkkkkkkkhhhhiihhhpkkkklzlzkzzzzzcccchppdppppiaiappppipppphhppphdhahhhkhhhhdpipaaiiiy66062wiiq3736wwriiuirwt027www0er00t0966998995666667966666666635535535222222<3232222216635346wq000w09566634336233433,=##%&&**%&&&****;==3336226222556528,<*:0ww0000r009<25<9022w52766266q666q59969w6466ripyiphri3ri6ewq62695550999999999909999uusippppppupiiiuuryuurrrtrtrtr6qurruiiiipyiippyyyyr0yr92365566699360tisiidpdhippppdipdddpi0wydhkhhhkkkhkkhddhjhakjp0325636556666990wrwwwuwwwwuwwrrewww06990izcczlkckksq76666669996q66666666965egdjsw9699692929599639966969699696869990ww0000ururru00tr0ur0000rwrwwwwwwwww000000r00w0000w0u0000000rwtwudjjjhsiutrruuwuu0urruuuywuuwytyyuuiuwqwiiiyii7:==&*:1:1tsjkccci9rwu98099dvxzkxz",
"pddhhhhaddddjzhiprry7wrwtsrudhhfzzkcxvcvvckaaddpddpppphhhiihhhkftisiitwwiipisidspppppphhkdhhkkhkhhdpiipiiiiiappiiippdajkkkkkkjhhddiipppiipiw60iiq6<7iphpdddywrr0909999956359256688==1=&&*&*&&=**===,,=,2,<365222<22452566666696q699979909990000000t0r00ru0t0uurryyiiipiiiiyiyiiiuppiyyipppapaiiyiiiiiiyyirirrq735<<56<460q<=,,,=111111111336wiiirtir0rrrpyuuuut0sdsiruuuiipsddiuyyyipipaiiiapyryiiyyippisppdhhhhipaaisparrruwuuypahhkkkhfkkkkkkkjzkkjkzzckkccccczzzzzzkczzzzzkkkfkkkkzkkkklkkkfkhhhiidhhahahhhhhaahfhakkcczkpdddppppippaapaipppphhdapddhhhhhhhkhhapaiiiiiuy66066wiu9<q56wyrtiuutquw5qrw99rw00r089966999566366669666666665665365332323333222221126355557twwwwr096663433663333632=+#%&%*%%&&***:::=23332226242356580:1*:00000900006>>2:90><w2,632-335766q5933ww22w6ruiiiphtr3ri2weq5259955909999996090999qiiisppipupuiiiiiruuruurryrrrrr9rrrwuiiiiiuyuyiyyuwur0w92566623989969rusdipisiddppddhddpprippypdahhkhjhkkkjkkjkhjdcjr223666665779w00trywewywwuwiwrrrwiq77969icxlklkkkjiq766666969q6666639669966rzdkdq5692669999596696996956663636336990wwt00t000000t000000rr0r0r0wwwwwwww00000r000w0w00e000000tu0r00wwusjrrrrrriyuuuurruruuuuuturwuywtttiiyq7wipiyyt6>*=%*::;1rrdkckky500u99980dcxzkzz",
"ddddhhhhkkdkkchpiidrwuwwtrrihhhhczccxvvvczjhhpshspidhhppaihapfpprsiuuuuyypdidspihpddpakhhhphhhhhhhppiaiiyiiaidddppsdppkjkzkjhhhhpppaiapppiyww9669166wjipidst000999957960662566968===8=&==*&&*:,*1,1=,:,,1112<2<,<,2335666666699669999999900000q9000tywwwwwryrrrywyuisssssuruiiiiiaiiy7iiippiiiuiiippiiiyryyyyw6332332,<3r3,==,<<=,2=:11,,<3qwwuirrrrrituussuuuu0usdiyiipiipphdsiyyiiippiaahppuuipuiiipppaddhhddhapppssssyyyyyiyihhhhhkhjkkkkkkkkkkkkkkkkkkklzlzzzkzzzzzzlllklklkkkhkkjkkkhkjhhhddddiiiddhddkhhhhhhdhdddaddddpppapppisppppppiipddhhppphapphhkhhhhhhhdaiyiay45q26=40pw36=37wrirruuiw7wwiw7qwqwqq999569636636653666666663633556363633665663321222223366529iwwwwtr9666666666666534<< #%%*%#%===***;:==<<6522555535529528=10r0000w0w09,:13223663224529609>=<56699r6=w6upsspppsr0ss0www655w6267q7999990990000wiipiippippppipuuuuuuuuruyrryrryrrrrruuitiuuwrwywrwtur1s2560266969669ridipdddddpdpppddssprrsiphhphhhkhkhhhkhkhkhkkdjs252565669266990qyww0qwwwywywwiwwwww0q02pvgkzczkiy764696696665666666693333wzvzczi556369699999999899999669666999963696900000000ut00tr0rr0ew009re000wrtw0w000000w0ww0w000000r00000yidhiiiryyyy0uyuuuu0ruuwiiuwewwwuiiiyuuwywyyiyis8==%&*,&=190rczcku60r00659wkxcczzz",
"ddddkhdkkdhdkkhisidwwiwwtrrihhhhkczccccvczjhsppsipsdddhpdihppfphruiutruuupdiiddpdppddhhhfhphhhhhhhhpiayayiiippspppppahkkkkjjhhdaaiiiiippiiyw99663<66wdipphduw00009976669966666628====&&=&&&&***,=111:,:,,,11<,<,2<223335666666996999999909000w0700r0wwywyrrrrrrryrriuuuus00uuiipiiiiyyiiippiiiiiippipiiyyyiyyr643<363,2qe3,,,:,,281,,1,,,<36weruiiriiiitusiuiuutuidiyyyiypppdhdsyiiippppadhpiiiyiuiiiiippdddddhdpppppsssyiiiiiiiddhhhhkkhhkkkjkkkkjkkjjzlzlkzzzzzzzzzzzzkzzzkzzzhkjkkkhhkkdkkkhhiddiiiidddddhhhhhhdhdddpdakdapapppppppppippipisdhhhpphphphhhhhkkddpppppipy46833,<wiq6686rwrurrwwywwwww76w0wwqq9222609663256666666666665366666555363634433222222232363<6wqrqwur997663696766666534##+#&&&==*&***;,,,<36522255356556221=,5t0w00rrw091;,2<2992<<22<<229q64669699w6:96rptippdpr7ur60q9626w669q6999697090096wwpiippiippupupuiiututuuurryrrrrrrrryuuuutuuurwuwuuwwu05s2wqw576962999rpdidiipisdisspdpdddriupphhhhhhkhhkkkhkhkhhjkhju265523565969900wwtwwtwwtwywywwyiww77qq6pvkcckkkkhiyw966666636666666988836pccjzcjyq9666929225596566363966996396669999idssssyy00000e0000000wrr00wwwwww0000w0w00000wwe000er00t00yiskcckzkhdkkdpiy0uryuurwwuiiuiiuuyyyyissyyyyipyut2==&=&==:2riscccjw900rw886wcccczzk",
"dssdhhddhddkkkfigiiwwirwirridhhhlkcccccvcchhppphdpidddpphihpppppruuuwurwyiddiddipdddddhhhhphkhhkahaiiyiiiiiapppppdpppdhkhhkhdpdpipppppppiiuw09622<69ypippgst0w00909666669666662<=81=&&=&&&&**,,;1=,=:=,,,,,,,<2,,,2226666666396996996999900000qw000twrwwwrrruurrrr0utruus0uuiiiiiiiiyiiiiipiiiiipippiiiiuuiyyq6,<<33<,1q93,,,,,:1111,,,,<<39wtiiirrutitirsitiiuiuisiyiipyiipdhdpyipdappdpddppyyiupiiiiaipaddhdhhdppppspsssipipppdadhhhhkhhkkkkkjhhhjkkkkkzzzzzzzzzlzzzzzzlkzzkkzjkkhkhkkkkkjkkkhdddiiiiiddddhhhhhdphadddddddpppppspsspppiipppiddhhhphhppddhhhhjkpppppyaii0<3622>3qiiw6weuyuuuiuwtwwwwwww0qqqww0961609962<2763696666966366696663566663343222222212<25<<6wwwwwrw663543666666666666&##%%&=1&**:***:,,2226262555655325,,1=,rw00rrq0q6<:1<,13w5<252<>9690966639w903:65rurrppdpiwut0ww6525q959q7q699699000990wiiipipiippppiiiuuuuuuuruuyururuuyrwuuuuuuuwrrruurrru05u2utw566939599rppidiiiiiidpdshdddpsridhdhhhhhhkhkjhhkhhkkjjhjr66666529939299qwqrw0wwerywywwiwwwwww9q6uczzkckkkhgtw96666996666666663966wkvcczvziq7399999999636636666996696962690690vccxckdir00000erew00000000ewwww0we0w000w00we0w000r0re00r9uhzcczzczcccczkhiiuuuuuwwwuewerwwyyijxcvvkdpppaiyt2=*&=&=::50rdcvcjw60900089ycvccczz",
"ddsdhhdjhkddkkpydwrwwprritridhhkcckkcccvcjkppsppiiipaphphihpiphptsiuuuuryppisdiidapppadhhdphhhhhhhppiaiiiipipphpsspppdkjkkhhddppapppfappiyww9932<26qipppddiw0q00000996963266965<=11=&&=&&*&&***,,,,1,:=;=::,<<,1,1<223666636666966669999990990w9rw0wwryrrryw0rrry0rruuiusutiuiiiiiiyiiiipppiiiiiiiiipiiyuuyiiw6<,,332=2663<,,,=,=1,,,,,,<<26trirrrrtisirritrisusyidipyuyyiiidddiiiidhaddphdaaaiiiiuiiiiidpdaddphspsdpsdspddadppiipdddkkhhhhkkhjkkhhkkkhjkzkzkzzzkzzzzzzzkzzkzkzzkkkkkkjkkhhkkkhdisidiiuuppddhhhppappppppddadpapppppipssppppiiisdhfpphahhphhhkkhkhdadapyyi0<<2<<<4wwiy4qwwwwuiiiiiyiyiwwwqwwq0009966967q6<39666996969966606966666666666663222332123222267qwwwr05534333663333636558%+%&=11::<::==,,<<2266655556566291:1=:00w0rr00962<56656t5<552<29699669649w305>56rurruidsr0ur0qw6625q66696797969999099wwiipipiipupupiiiiuuruururrtuuruurwrryrrrutuurruwurrru09r5www566965959wipisdiipiisspspdsspsrrphppjhhkkhkhhkkhkhkhhjjp0266226666659790qrrwwwwwrwutwwwyywyww697wdclkkhuw9753996366693666666933937hvzckkji7556622555566669699966963699269067tzkkkkkiy0trr000r0w0rr0r00w0rwwwwwwwwewwe0w0wwww0000e0tr09ydccczzczzzzxxzkduuuyyyruuuuwwrwyyydkvvvccjhpiippt2**%&&:::290ucccd0999r0998uvccczkz",
"iiidkddkhhpkkkhiiew7wiiriruiddhkclkclclczkddppppiiidddpphippiapkussuuuuryipsiididpadphphhpphhhhkhdpppiayiipippppispiadhkkkkkaddpppppappiiuw09622126riipdddiw6q00000960676666762>=1==&==&&&&====*,,1,=,,,::,,,1<11112326663633699696969069079qqww000twyrwywy0rrur0rtuuustt00iiiiiiiiiiaiiiaaiiiiiipipiiiirtiiyw72<233<13q62,,,=,:11=1,,:,<<,5qrrwuriisiiuuitriituyuppiiyyuiippppiiiidfhdaddappiiiiipiiipipdddapddppppddddhdddddpppppaddkkhhhhhkhkkhhkkhhkkkklkkzkkkkkklklkkzkzkkkhhkkkkhkhkhkhhhappdipiiipppdhhhspdppppppddhpppppppsspippippipppdkhphhphdhphkkkhhhhaddpypp0,=2<<<<66y0<6777wrwyiiqwywywwy0wq00099q669697225966699999999999999060006q66666333333223233226wwwwwr93643343343555635338&O%%===:><<=::<,1<3366662262666292,2==0rwwrw09672><6999w22562<36666>>67<09906<2wtswrrsptw6ri8096625w936997669669999960wipippiidipipiiiyruuruuruwurrrrrrwrwwrrrrwyuwuuurwiww00w6www2639566550iidpsidppiisppshpppprrppspdhhkhhjhhhkhkhkhkkhr2226666665922990rwwwwwwwwuwrriwriywww6q06pczzzsw55536993336963966666939836hxkckzki66w669599596666969666696936396066ypkffkkkpir00u00r000wrrrre0w0wwwwwwwwew000000ew00w000000r00udzcvcclzkkxxzxkhiidiuyrruuirihkjhjkzzkcccckkkdiyu2&=&==,<<590icccd09090r989uvvccczc",
"diiddkkkkhpkhkpiiew7wiwriwuidddkkckckkkkjkddppppidispdapaiapipphsdsuuuutyiipppdipddppphhhhppphhhhpiiipiipiippipppppppphkkkkhhdappppppppipuq77621265tsdhpgsiw9ww000990666666662<<81====&%=&&&==,*,=,1,=*,:,,,111<2112226656666666696676909999779w0twwywywywr0rr0ruiuisuuuuutiiiiiiiiyiiisiiiiiiiiiiiiiiyyrurryw64<232<<3q32,,,:=,21,8,,:,<,<57wwwrrritiuuisi0tiruyiiiiyiyiiippppiiipddddddpddaapiiiipppspdpddhppdsdsdsddsddddssiipiipdddahdhhhhhjjhkkkkhhkkkkkkkhkkkkkklkkkkdkkkjkkkhjkkhkhhhhhppddipppiuuppddhdhphpaaadapddhappppppsiipipippispdhhhphhhdphhkhkhhppppdppps32=,2<6,69r746wwwwwqqqr7wwwwyww6w0099826679362>3776696669699996666900909966669q883833222332556wwrerrw6636663433666666558=&%*=3===:;=:::,1<2222225555665198282190rrrr095q2>>2wq0w6555537q992::222q69r656ehswrsphpr0si99924<26766999799979999960wiipiipiipipyyiiiurrurwuwurryruuruwyrrryrrrruurrrriqq6w96www5627296550udiiiddpipippphsphpsrripspphhhkkhjkkhkhjhkhjh922266626695995900wqwrewrrwuwwwiiwuwyw6006yzkzjhiwq976966669666666666688q39hvcckcci656665995986666636669939669990667izvxcvvvxzt0000r00000we99900000wwwwwwwe000000we0w000r0rr0r00ukzxcckzzzxzzzhsiidiuyurrrrwridhhkccvcvvvvckhayyw,&&%=&::>590dkcks00r000999uvccckzz",
"ddidkdkddhpphkpidrrwuierrruiiphfkkkcckkhkkhdppdpdsipdddppyapifppsssiuruuypiiidiipahppffphpippdhhhpiiiiiippiiipppipspppkjhkjhhdpphphpfhppiu06632<332udijpddi060w09999966666664<<<1=&***&&&%&&=====1====,,::,,1<,<2222225626666663966666909969qqqw0wtrrrwrrwryrriuiiisuuu0ruuuiuuuyiiiiiiippiiiiiiiiiyyyryyyywyw64<2111<333211,==,,,=81,,,<2<6wwiirrrrrrr0tiu0uiuuyiiiiiiyiipipdiiyiidddppdpdppappspisidsddpadphapppdsdddddddpsiiipipppddpdddhhhhhhhhkkhhkhkkdkhhkkkkkkkkkkkkkdkkkhkhkkhhjkhhkhhhpdppipipiuipddddpppppddppiadddpppppsiippiipsiisphhhhhpfhhdhkkkkhhppppppppu<<,13<633rrww0uyyrw7wrrw7wwiww76wq095526266692;6662376566969667696799676q69q6668332322236322237wwerrw67336656666666666583=%%=====;==:::,1332652655226261892111,00wruw0596<<2wq9w96267660992;>4<6046r66qrpprrpphhi0is0w0<2<2663399999999999096wwpipipipiipiiyiyiruurrrrururrrrrrrruwuwurururuuwuwiq06u66wqq5626296550yipippipiidpppppphssuuppppdhhhkhkkhhhkhkhhkkp2<622366565958590w0wwrwwwruwwuwiwrywww6607ichzhpitw65299666666666666699339tkvcxcccht7255928522969366666366966829067ykxzzzczxczgu00r000ww0000wrtuturw00ww0000090r0w000e0r0r00r000udkzklzzzzzzzciuuuuyyyiuwurrriwyiihzcccclkkppipyr:&=&&*=,259ukcczs00tqrr959ivcccczz",
"iisdddddkppppkhiduuwwiwrrtwippdkkklcckhdkkhddpppdidddhhppypppfphsssururuuidpiidipppdapppppiapaphhdpiiaaypipiipippppipdhhkhhadddpfpppppiisu06632<931udsdpsit660000090000966652<251=&**&%=%%&=*,11===,=:*,:,,,11<,212142222666966696666990996967wwwwwwwuurryrryiiissuuuuus0uussruuiiiiiiipisaiiyiiyiiiiyiyuyywq06<2221<2332112<,=:=*=,,,,2,,<2qeiwiiuruuuruiuruituyuiiyiiyipipiddiiipddddddapadaaipppppppdadpddppppsddpddddssipipiipppppdahdpahhhkhhhkkhdkjkhkhhhdfkakkfkkkddkkddkhjhhhkhhkkkhkjhpppiipppiiusdddddppppipppppddpppppppppiiispppiisdhhdhhhhhdfjkjhhhadddpiiiq,<,23<q,2iq0r0irr7wwwww7wwtiiww6qwq09557252266<6622366333366666666666666666066333=2222336522<367ewwr92646665666666666663e8%#%*=:::==:::,,<36652265252521295><:&0000w06556666ww7962<366<<>>::<6269:5q56wrpswwyshpr6rsqw06655qw5297999999999ww9wriiipisiiiipypiyiuurrryuwurruuruuryrururruwyturywriw06u6600w5626<5699uddipiiyiiidppppdgppspspphhdhhhhkhkhjkhkhkkhhs<2q<26226695995900r0wqwwwwuwrwrrrrww7009wwpckzjhkhiitw6666966636396636923qicvkvkkczjstisssiuur99999666996966993866whvczcczzzzccd0t0r00000wtidjkkkjdiywwww00090000wwr0000000r00uudzxxzxzxcczcccckkkkkkkiuruihjjkkjzcvvccccvcccccjs9=,==282899ykvvcd0qu000989dvccczkz",
"ppphddddapppaaaiiwrwwrwurruipdhfkhhkkkhkdkdppddpdppppphhpihhppppidsurwrriiipiiipppdpdapdhpyppaapfaiaiyiaipiipiipippsiahhdppphhhphhpiipsit0665222922tdppkdiq60q7q092599996662<<63=*&=%%%%&&&=====,====>===,:,,,,<11312236436666636666997960666qwwqrrryrwrywwrrrriuuuuuiuuyiiiiiiaiaiipppssipiiiiipiiiyyurtuww0763,:<22266,1,,,=<==111=111:,2120rrrtuuuturut0ruiuuurrruurrudyidiiryppdppppappadpddpdpdddhddadppapdppipddpppappppipypppppdddddddhhhdhhhhhhkkkkkkdkhhkkhkkkkkkhhhkhhkjkhhhkkjhkhkhhhappppppayippdppdihhihphipphhpppkuuupuuppipiidddijhpphpfpajkkjhkhhppppppy3<,,<<<2439ruurrrrqwwuww7iq7iiwuwww000456652362>4654355555356662666333334336654<<2<,,,<222<<<212545696552226255566665555299$$&1&=,::=,,,,1222663666395252881:1,*&2t22r9w0<955q059::::13>=<6:><7699929060wssrwrihhqqru00r53635w5<677999966q30w0qupipiididppypiuuiuurrrrrttuutyyrrrrwrurrywywuwuutwiw9wq675952920595595rdiudyduh0pddddiddddiewwydhddhhhkkkhhhhhhhhhw23535662666666667qqtwywrrwrrrwuuuuuww79000tdjjkdddiyw096666666666666693396jckkzzkkcchhhhkkaipisur058899967656506r0uvvccccccccczzi0r00r000uizzkzlkklfi7wwwww00w000000ww0000w0wwuiaallllllckkccczcllklkfiriipiisiiphkkzzvvllccxlkki2:,:;222399thccxp7ui7r0986pvlcczzz",
"ispdsdsdpapihaiiiewwwrwyurripphhhhhkkhhkkddpppdpdhpphhphpydpppppisdurrrryyiappippadpppphapppppphaaiyiaiipippipiiippiiphfhpiaaphhhhhppddit7655252225udppphiw6996q999599926652<52<=*====*=&&&&==1=,:,:==:<,=,,<<,,1331<234663666666669666006607qwwwqrrrrrryryrrriiiusuuwuwyyyyyiiiiiiipppppiiiuiiiiiiiiurruuwq0q631,<<2552,12:=<=,====1111:,,180rwuuuuuuurtturtuuuurrururridyydiirwipdpdhppddppddpddpaahhdddpdppppppippppppppiiiiiyyypppdpidsddhhdphhhhhkkhkdhdkhkhhhkhhhhhhhhhkhhkhkhkhhhhkkhhhdhpppppiyppyripppuiiiiiiiiphhhfpiiippupiiiidpisiidkdhpphhhdhkkkkhkhhpppppp2<<,<25639wqwrriirrruuuy6uw6tu0wq0w009>52244532><62263565566666666666666633363342<<<<<<<323<<22252236655223633366535335<528:$%==::,::,::,,122363232393562831<22:*1tq0w6w6;266w0w3<,,,892<36:26rw7666wr9rrsurryipdr7ru00r69635q6267999999996600wuipdisidippiiiuuutyryyryyutuytyryrrwrrrrwuwwtuywuwu06q06959059>52659520syyjwdydypipdididiw965569riddddhdhhppdhhhad72<333556566666667qwwwwwwrttruwuwruywww90069wrw0wu0097599966666666969666396klzlzzzcvhyiwyiyyyyww09598886669900006r0uvvcccccvzzzxzu0r00r0000ikczkkllkau0wwwe0w096000000ww0000w0w0wuupfllhhkcvvzdryryyyyyrrrrurrrrryuuppskkkddkkhiyu:&=&&,=:123whcccpwip709056pvcccccz",
"iiiiippdpaiihhiiiwrwyrwyrrrupphhhphkkkdhhhdppaaippphphhhpihaphpaidiuwrrryiipipppppadpppkhpiipddhfhiiaiyiippipiipippspphkhhiipppfkppiiiiuw9656222226qidppgi969066555596259522691:&&&%&==*&&%*===1;:,;::,=;,:,,<,<1211<<36633466666566969696907wwwwrrurrrrrrrrrryyuuuuuuutyiyyyiiiiiiiippppiuiiiiiiuutyuwrwww0066211<:266<11,<<:,;==11:11111129rrruutuuir0r00r0uitryy0rrryipridiiirypdaddahadddhaddddddhhhdadpapsapsippdppupiiiiuiyypiiiiddiddddpdddhhdhhhhhhhkkdhjkhhhhhhhhhhhkkhkkjkhkkhhhhkhhhdppppiiiipuyippppjhhdpphdkkcckhiippupiiiiiipipidihdpphpppdhkkkkhhahdpdppy<33<<569qrrruwipiiruuiuwqiw0uuwu0ww009<963525664<655663666698999066q66666666363333222<<<33<22<2252236352<<22255363333<532582%$&&:,,::,,=,,,22566222265232221<21::>69q0900<6q009q3q92,99,66q,36r06226ur6qrurwiiips00ruw0q3q635qq699999000007607rpipiiididpyypuusuytyrrytyurtryuuyywrwrruwuwyyywytyuw699698rtw0292955529iidpyp0pisidpdiiiiirwuyuuipddhkhhdphadhhhphq2233555526666566q9wwywwwwrrrrruwwrywwy0q0969659599975966969666669869668396pcclzccvci767707766698585589769q00www0w0tkvccccczvzvczu9rr000000rhkcklllhirwrewww9006000000000ww00wwewwewipaiiihccpiruyipiiiirrrurrrrryyuurrhdjdjjdhywq:%=&&==*,<3rcczkpwphw00950jvcccclz",
"ipuiispspppiddiiirurruwrrrtpdhdahhphhhdhhhdpppapidppppphiikhphhhiiduurrryiipiiiipppaappphaapdhhdhhaiiiaiiiiiippiiipiihhhhhpipdhhppiywtqww955555229250dkjgi967w6659992926622262,*&&$%%%&&%%&*==1=::=:=:=<==,,,,,,,111<<4463436666636666696670q7qqqwwuyyrrrrrqrrrrutuuwtuuiiiiiiipiiyissppiuywuiyyiuurrwwww000q662<1::<92=,,,,,==,===1:1,:21120urrur0uuuw00rreuiuiu0yrrrrrisrrsriuyiddddhhphdddddddaddhhhddpppiaiappsspsppiiiiiiiipipiddidipsippadaddddhhhdhhhddhhkkhdhhhkhhhhhhhkkdkdkhjhkhhhdhhdapppapiitupirrpkckzkkkkkcccclkkkpipuiiiydiiiididhhhphhfpdjzkkkkhhhhphpiy,1<<<<36wrrqq7quutuuuurwiiuyuuwuw0t09629096369962652696969990999699676q676666666333433333353333335566525<<222555555643552922@&%==::=::,:,,=,<56622<265262821,<<>:&&:1999w60uw0696q96366<663,36w96><6ur60rsurphpdh0rstqr0<3<<26w6q9979900000wqwwiiiiddidipppyuutuuyyrrtyuyryuuuytyrryyryrwwuwtywyuuq790q90ruu0585566112wipyyp9sddpddisdddiiuiiuidpdhkkkhhdapddhapdw23335665266663666wwwwwwrwwwrruuuruwywyw0000999595959999996666666968999q366ukcccccccy236666666958599000qwqww00qw0q0qhccczcczzzzvay00rr00r000sjjzzksiwwwrrwwwww900000e0w0e00wwwwrruryrrwurwtshiwruiyiiipitiiuurryuryururuiuuuuyypuw<====::,;,2icczkiypdw0099wkvcccccz",
"piyiidddyaiihdiyuriwwrwyeruidddahhahkhhhhhppppppdiddpfhhiylapfhauiiirruwiiaiiiiippphppfhhhdpddadhppiiayiipiiipipiisspdhhkhppphhdiuywww9w0655555686259isipi9699666696529632322,:*=&%%%&&&%&&**::,=,;;=>::,=,,<,,,,<<1123364323363656666969699wwwwrrrruurryrrrwwyruwwuuuuuiiiyiiiiiiiiiappiurruiuuururywww00099633,,=:2q3=:,:=;;===:::,11:1,:19009rr0rrr000rr0ruiuur0uyrr0ri0ri0iuyidddhdddaddadddadddhhhhppipiaaipsipippppupuiuuuypppidsppppdpdpddpdapadhhdhkkdkdhhhhhhkkhhhhhkkjkjhkjdkhhhhhhhphpppppppppipuuypzcczzzkccczzzxclcdppupiiiiiddiipphhphpphphhkkkjkhhhdpphrw<<332359rrurrwuiriiruurqiuwwuuwu00w09629006666966632696699999q9960q699q6q06666666646333366655536666962262223566666636636692:@-==*:*:;,,,=,::<236624266562222111<1=&$&2022009wqw7536699693<3>99w992<6iu9wrspipppdh0tsrwr7,6<<25w7099690000q7qywyiippipppppiiiyiuuuttyyurtrryruuturrrwyrrwytyuwuwyuuww0qw00r90525<5921120iiuydupddiididdiiwwwwywwwiidhhhapipipppppiq<<2325252566666669qwwwwwrryuytuuuuutw0099909959959599999966668669669999695wkcxzzzchw3899663666999900e0wqqw0w00wqw0wpcccccccccccs0r0rr0000000iijhiw0wwwerrwww90000000we00e0w0ww00wruuwyrrwertrrrrryyyuyirrtitrrrrrrruuuyutwqtiyyue,&=&=:=:*;<wcvcjiwhh70r09rkvvcclzz",
"piuiiddpphpiadyyuriwwuwrrwuipdddhhdhhhhhdapipappidsdppphiyapihppuidurrrryiiiiiyipphpppppdhdppdddhppiiiiyiuiiiipiipppdhkhhkfhfhhpiwwwwwqwq955655226660wq0uu09wq699966666522831:*===&%&&&&%&&***::=======::,,,,,,,1,22<3366334464356667699997w9wwwwrrtrurrrrrwrwrrtrwuwuiuiiiiiiiiiaiiiippuw0wuuuuurrrrrqw0060q633,==:892*=,,========::1212,:29009rr0rrrw0r0rrrrruiruurrryysrys0uuypdpddpadddaddadddddhhhsppaiiiiapssippiiipipiupuuuyuiiiiipdpppddpddpppdhddhhdkdkhhhhhhhjhhhhhkkhkdkkkkkhkhhdhphpphppapppdtruppdkzkzzzzzzcczzcvcchdpppppipiiihhiihhhphhhpkkkjkkkhhhhpppr63336697uiiiiiiipirriuruuutuwwwywwwu0005rwq96669669526969698999990660696966q666666563664435635553966665552266666666666666692:@;:***=;*:,,,,,,<2562<,>552522222222:11,&;91<wq9wqw0q75qq93q933>99929226tu6widpyipyphwihr0r61q2353e709990q090qwyiyyiiiippidiaipppiuuuyyuuruurrruruuurrywryrrywwwwutywwrw0wq60029555<2681229iiipdydddiidiidiuuwwwwwwuipphhhdpppppppppiq2<3325665366666667wwwwwwwrwwwutuiyuww0w000005999989559698999999669996666666kxxzckxhw389663966699900rr00w000w0www9w7yccccccccccku0rr0u000000000tw000w00wwwrww000000wwwwwww0ewwwwwwrrrwrrrrurrrriuusuppyrrriiuurrwrrrrurpiuqriipuw0,&&%&:=:**<wkcjhuwjk70u09uzvcccczz",
"piryidppppipahyyurswwrwwwruipddahhphhhdhddppppppisidpaapiikpihaiuiiuwrrryyiipiiipfhpfpdhdaaippddapipiaiyypuppipiippphhkkhkhhhhdpiwwyytwiw0555626266990060w99q739996696222292,**:&=*&&*&%%&****::;=;===:::::,,<<,11212236634234336666699099999wwwwrrrruyrrywwwyrruuuuyiiiiiiiiiiiiaiiipiiurrrrruuuurrqqwqq6663622,==:39<;========&==*:12282129900000000wwrrrr00ruuu0u0r0ytsrrirrtwippppppdddpdpddddsshahapipiiiiiaisiipaiiiiiiiiiuuupiiiiipipppddpdppppddpdddkdadhhhkkhhkkhhhkkkkkdkddhkhhhhhdhhapppadddpptuphkddkkzzcczzcccxcclkhdpppppiipipispphpphhhppkkkjkkkhhhhpppy5<<<<<56qrqwwwyyyruuuuuuuiuuiuuuwuqw0rw9rrrw7600969526966666969996qq696966666666436364335656566556666622523666566666666966691**=&*:::,,,,,11,<2532<:;2543222352221<13;*2:2tw0w797wq669939q33>996:6223ru6wihdpppiag0shwqr5,q3652w50099ww097ywyiyypipiipdidyaiiyuyyuttyyuutruruurruryrrrrrrwywyuutyuwwt00w9rr5065222922329uiiiydiiduisdidiiuwwwywwuppahhhhhapppdhhdiw2233666525566656667wwwtwwwwyuuyuuuuyw0uy0w009990999998966989996669699986662kcxcckchq3q666626329990000r090wwwww0w0q7ycvccccccccs00t0re0t000r0r00000wwe0wweweww0000ew0www00wwwwryrwuwwwrwruirrrrrrrrruyyiriipirurrrruuuuyuw00tuuur01==%=::::12tcvkhuizj79r98izcccczzz",
"iyypiddapapiffyyiriwwwwrwrruppphhppdhdahdddpppappiddpapppikpifapyypuurrryyiipipappphppppdddpypapappipiiiuypuiiiipippdkkkkhhhphppsiuytwqww6566566662600q070999969635699522222:*==&%&%*&&%&****==,;====::,:=:,<,,<11<22323333433346666609999999wwewwrtriyrrrrywrrruuuwuuiiiaiiippaiiiiiiiirrrrwrruurryywwq66663222,=%:32=&=,,==:======:122922569900900000w0rrrr0r0uu0rryr00i00r00twuppppppdddpdddpddaashasppiaaiaippisppiiiiiiiyyuiiupiiiiiiipppssppappppdddddkdadkkhkhkhhhkhhkjkjkjkjkkhhkkhhhhddhddpphddsshjjhhkkjzzcczzxlzclkaaddiupppypipiipipfhhphfppkkjhhkkhdhhpaay2996690wrstrwypiiitrrrrruywtiuwyw0906005rwww9990999346665666966960666066636667663666466345666556566966422289666666666666662q31@&&::::*,::,,,,<2552<:>5666383222125;&2:-1$<927q<267w627q7w6,:=999>6666rswwippidhpahqij0902;q<63<w50000ww09wywwiyypiiipidddiiiiiiuyuuyuuuuuruuruuuurwrwryrrywutuwywuwuw9wt9ru6r95222522965uidiydiididdddddiiiuruuuippahkhhhpppadhhhi72<33556365666666667wwwuwwtwwwuuutwuwutuu0w095965969599999996966999986986974kvccccch7286636999899900r00wwqww0qw0w9w0ycxzcccccccs90tr0t00000e00e000r0www0wwrrrwe00000www0wweewrwywruuuwruuewrrriirriiupptrriitrrrwrrrtrriyuwtuipu091=&&=:::,<3dvckpyrcz78r95scvvcczzz",
"iuusppppdppaddai7uwwwwwywriiipdhhphhhppdppppapppddidididydaiipyiyydiwrwwruupiiyyppppdphadhhhappappiiiiyiyipippspidsdhhhkddhhhhpippiiwwww965352226229000ww9qw979696369982831=*==&=*%%&&%%&&&*=,:::===::<==,,,,,,,<<<<4336466242662666970rq099qwrqrrrirururtrwqqriiwyiiiiiiiipiiiisisiisurrrrrrrruurrwwwqq9676634<1=<*3<=&==,==,,,==::::52052969990090000t0r00000uu00yu000000e00000uusiidiidddddidiidisdspppidpspdppppipiisuisuuuuyuuiruiiruiiusssdisdssssddiipahkhjhhhhahhjkhkkkhhhhkjhhkkhhhddddpphhhphhhjkhhjjdhhkkckkxkcckpiiiipididiiipiiipiphhppdddpkkkkhhddhhhphi06rq3663qiiiiyiiiiruriuturuutuuuw0rww0w00wqrw99w99763366556698999q9966966666766696663633633233333336566522266666666666666659066:X=*,,,::,,1111<<<26325625622228111=,,,,,1=2,999<00t769999q63;256r663,6ruwwhiydhpippwhi06q<29:0:5990000rw00rrryuiypdiidddiiipiipyiiuytyuurruruuruuruyrryrryrrrururrtw0rtr05t099982>82<2589uhud00s0dddsssdsurweq6qweiphfkhhidiiidddt633555535535526662520tw0wywwyuyyrrruuuy0r0990950595999596666999q969967998q967rhcvvvhw5599666936969900000wer0w00wwqqwyqukzczcczsirwwwwtww00000000w0wwwe0wwweww00000000www0ww0wwwwwrurrywruryrrrrrrrriiiyuurrssiurrrrryruuiyuwtyiytw02****:===13ivcziupcc96995hcvzclkkl",
"siuipipddppdadiiwwwwwwwweriiidpahhpfhhpdapppppppdididsddiakippppupduururwuiiaiiipppppdphpdhdaipphppiipiiiyyppippdpidhhkkhhhhhhppiiiiywq7752656566569qq0w79999q979996698333,====*%=*%&%%%%%&*=:=======<,<,==,11<,<<<22336662422666656990ww009wwqrrrrrruruwrrqwwruiuyyipiiiiiiiiiiisisturrrrruruuusuyrrrrr006663241,:=8<=*===,===,==:::<2992226669r000r0r0t0t090rru000uu0y000000000uuuiidiidddiiispippdpppiiippiipssppiiiiiuuusuuyuuiuirtytytissisiiuissitssdddaadhhhhkkkkhkkkjhkhhkhhkkhhkkhhhkhdhhkhhhhhhkkkkkhhhhkkkcckcckhpiyiisipdiiidiippipihppppadhkkkkkhhpahhdsrw9e623669tiyiiiiyiirriruururyuurwwqu00w09wwrw9999666656665666969969696696666666666363434433332233236536624666996996666666666669>O&,=:,,<<<1=113<3362536566822221<111,,11,1:$6666u5q969996q6<>545q33336uuuuhpidfppppwsiw5q<89<0>999069wr000rutiidipiiyidpppiiiiipyiuuruurrrruurrururyrrrrrrrrywrrruuwwwrr09i09908>>12229580aud0ududsiu00000666655657wyiiiyq96567962552556533252666666627qwwwwwyuwwturrruiu0q0999959969895996696669699999996q89967wpappuq666699669969990000r0000www0wtwww0qdzzkkkjdrwwwtw0rw0000t0000w00wwwwwwwwww0w0000wwwewewwwwewwrrrrywrrrrrryyrtruuiupurriiruirrrrruyuuyiuwwuiyww72;**&:====<qspiq9pck667w3hcvzccczk",
"suuiipphddppdpuywww7yywwwruiipdhhpphfhhhpapappppsdidissdidhdppppuiiiurrrruudpyyiaiaidpddppppipppdpiipyiypiiiiippiippdhhhkhkhappaiiiiiww7633666666669000wq9677q66699663882,:::=**&%%%&&&%%&***=======::;<,,,,1,,,<<<<<334634336363266970q0q007qrrrrriruuurerqwwyuuyyiippiiiiiiiiiiitiiuuuruuuuuuuuuuyyrry0066665<3==,9=**=&=====3*::::12862596990r00e0rre0t00000r000yuu00009900000tuuiisiiidididddddsipippipppsidiiiiiiiiiiuttrrtiuyiityryyrisuisiuiiiiiiruiiiipiiidhjllkkkhkkhkkhjhkkhhkkkkkhkkdhjkjkhkkhhhhjkkhddhkzkkkcccjpiiipipsdipipipipipiphpaphhhjhkkhhhhhhhpiurrr667wqriyyyiiiyyrurrrrirrururwww0rq0q00www9966966552665236666699q6666q66666666663333334333232222533555222669999969896969666501@%,:=,,<<11,11<2<663566669222222111,,,=,=,::*&ww569269q9766<26<5w51260iiypaiiaappairgiq66<22:629090690r0qwyuuiiipiiiudddpiypypyiyituuyuruururuurturrryrrrruwrurrrrrqw00000u09008>:<225558raid0rs0siu0998826666633326wwyyq73222522<6535666552566666566660wwwwwuwywuwrr0uuu00000999996965599998969996969969969966667w766997666963966999000r0r00r0wwewwwqw0wdvvczccs0rrwwww0t00t0000000e00we0wwwwww0e0090ewww0w0wwwwrwrruryrryrurrrrrirrtiuiuiurssrurryryuririyiwwuiiww92:&**=**==>7ipi67ick66996hjvcccclc",
"iuusppphadppdpiywww7ww7wwwuipphhhphhhhhhdhpappppdididdididappppyiiiuuwrrruuiiiiiipppapddpdpapppidppippiiyiippiiiidsdddhkkhdpppppipppiwwwq63766526259qw00w969677666963939<:=::*%*%%%%%%%%%&*===:======<;,=,,,<<<<,,<<2<43634336436266990rwwrw7qqrrrrruurrrrwryuuuiiuipppppipiasiiisssiuuurwuuiuittuurrrrwq000063<1,=26*&*=&&==&:3*:,:<,19652990000r000t0000u090rtr0yuu0y0009909000turiisippidiiidsidipiiiiyyiipppssipaiiiuiitttyuiiyuuiurtturuuuurrtitsiiiiiipppduiihhkkkkjkkhkhhkkkhhkkkkhhkhkhkkhkkkhkkpkkkkkkjdhhkkzxlccckkppiipiiidiiipipipipppphpphhjkkkkkhhdhpiiiiurq0quriiyiiiiyyyurrririrruuuw0wy9rw0000ww9q99766522225226666696666666966666666663465433433222211553566552266896666696966625609=&==,,<<,,,,,<<22632566626988222111,,=,=,=:3*o66<06299q9996<66;3w6,360yiihappdpappiids066<82>52999090wrr0wuysipiiiiiiidppiiiiipyyiuuuuruururuuruuurrrrryryruuwurrrww009900u090r9>>2522290sdid0uirihssiu099666qq766widjkhst9336qw965535666365626666266660qwwywwytuu0urrruu0r00r0999966698999999969999699699969976766655669696699669999900000rww0w0wqwwwrwtszzzzccdur0wwwtrr0000000teewww0wwwwewww000000ww0w0ew0wewwwwrurrrrrrrrryrrrrrrrsuuuursirurrrrrrrriuiuwwuuuq773;**%:=*==<ickiqepck669q9hzvccccck",
"ssuippphdppapiyy7rw7ewwwwwyippahhphkhhhkhhpppppisddiiiddppapiaaypiiuurrwrtisiiiippiappddphppddpppppiiiyiiypiipiiisddppfhfpiipppppppiiiuuw66696226569w000w966697696666932,;=::&&=*%%%&%%%%&===*======::<:,=,,1<<<,,<1<43363433663566690007wrww7wrrrrruurrurrruuruiipiipipipipiisiissituuurruutuiuiyyywrywyqq79335<<=32*&*=%=,===8:,,,,,:59560qw0wr0r00r0r00r000riuuruuu0u00000000ruutiiuuipsididhdsddppiiyyyiiiiipspppspsuustutuuittuuirwyyuuuuttutuuiuiriiuuuiiiddhhkzkkjkkhhkhhhhkhhkkkkhhhkkkhkjhhhppphkcckkkjkhppkzxxkkckjdpiiiiipiipdiidiiiipadppahhkkkkhkhhhhppisur090ryyyiiiyiiiywrrrrruuuruuwy0ww6ur90qwtw9999666625566556666699666666966666666665635433333322212325555652556666669669666656699=%*=:<22,,1,12<2566566622688588221111,,,,,::1<$>q023369969<>56:363<35wiiiphppphppppidhw66398:09009000rr00ruppipaiiiiippiippypiiiiiuuuutuuururuurrurryyryrryrrurrrurre09990u090052>2222590upddiiiuisiiur00969666669wiihhhtw39669q6656356666566552252656670wwwywwrruuuuwrurrr00r0r9996666999q999999979q9997969699966q36q366q3996636999999000eww0wwww0rwwrrricvvvvcksrrrrr0t0000tr000rwwww0w0wwwwwww0e000ww00ww0wwwwwrruurryrryrrrrrrruuiriiyiriisrrurrrrirityiywqiyiw793;***,===:2ivcheihck699q7jcvcccckk",
"iuispppdapppaaiy7wwwtrwyewupiphhfpphhhphphfppppppdidddsdipdppaaydiuisuwrwuupiiiiaippapaddadddappppipyipyiipppipppdddhphkfpiiphhakhppyiyw9623966652690090799699699626982:>:;**&&&*&%%%&%%%&****======:::,,,,,<1,<,,<1<334663646646256900rrqwqwwwrrrrrrrrrrrtruuurppiisipipipiisspitttiiiurruuiuittstiurrrrqww9966<9=22**===&=,=18:2,:,::262600w0wte00000000000eriuu0r0uuue00000000ut00uu0iipddiddddidiipiiyyissppppppppppsuusuiuuitutiutttiuuuusuuur0rrr0t0uuuuidjkkkklkkkkkkkhkhkhhhhhkjkkhhkhkjkjdiiiyyyihhjkccfhkkkxczkkdiyyipiiiiipdiipippiippppdpdhhkkkkkhhhdpiiisuw79qrryyyiyiiiyyyrrrruuurrruuryww5ur90wwwqwwww76765256662966696659666666666666q663433344333222121522223225225666666666666969238=#&*=,22<,31225566666965262822222,811111,,,=*::69592666666>>65563>355wppphhdpahppiphshrq6909200009000r0000uisspiippiidpiyiippiiiiyuuutuuuyuuturuurrruyrrrrrruwrrrrrrw00900u0909555,8855990uiduiu000085855866366396<5996732q333333354356666656665525259660wwwwyyrrruuurruu000r0009599666699996q899999799999999699973qq6666796999969099900rrwwrrwwwwwrr0w00tjzzzckptr0r00rwrr00000r0wwwwwew0wewww0000e0wwew000w0wwww0yuurrrrrrryyrruuuriiiiiritruuurrurrrruuiiuqqwyy7095;***===,:<wspe6wihs399w9jcvcccckh",
"iiuphpphppppppiywuwwiiuwwyuiippahpphhhpkhppppppppdpiiddsiaapadpydiyisurrwuuiiiyiippappdddhpahhpppsiyiiyiyiiiippiipddppdkhkhhapdhhhhppiyyw52566665669000099999966669662,>:::*****%%%#%%%%%%*&***&=====,,;,,,,<<<1<<122366366633666666990rr0rwqrqrwrryrrrrqwrruuusipipspppiiiipiiisurutiur0rrutuutsutuuuuuyq0096634q,6:**==&===,11=2,:::-2<<5900w00r000e000000rrrrr0rruy0u0000000000000ry0iiidsdssidpddiiipyyiadppssppppppssiiiuuiuiiiiuiiiiuusuuuuurrriisssddkkccjkhkkkkhjkhkkhkkkhhkkkjkjkkhhkhdkdiuyyyw7wtwuidjhpfkzzzkdpyuyiyiiiuiiippdipiiiiippappphkjkkjhhhhdapiiuuwwwqriryyiiiyiiiyrwrrturruuuuury05rr56qwwwwwwq96q522366339666666366666666666666663434343432322121532255523525666663636363969638=%===,<2<<<<135566666666662822221,1111,=,,=3@#80;699699652<3647w<<366wppafphpphhpiihphrw6t065q0508900rr00ruuiiyyyyiiippiypiiiyiiuiiuuuuuuturuuuuuuuurwyryruururrrrre0r0ww0rqwq02<2:82298550uuuu0980995589896639996366357633666963353236665553662556255669wwywrrruuruuwrru00r000009665669999699q99q999999999996669967q7q66q96939699999900r0re0rwwwwqtw0ww0w0yyyyr09erertw0r000000000wwwwe0wwwweww0we000w0ww00wwewwwrrruurrrrrrrrrrrurrirpiyriruururrururruuiyw0wwyy99w6:*=====:>;5iy729uii3969wjcvcccckh",
"utspdpppappappiyuiwriiywwwiiipphphphhphfppppppppdisiddidiipppdiyiiuiit00uuupiipiaiippadhdpphddppppppyiiyuiiiipspisdsppdhkkkkpiihkhphppiyq72266566260w0099999999666993<::*>:&&**&####%%&%****===&=**=,=,<,,,,<1<1,1<2<366646646362666990qrr0wrrrwywrrrrrr6qrrrrusippsppppssasppspiuwwuuuwwruiiiiiusuuuuuuw0079999<r,8:*==&=&==,1,*8,=<:;8>:<6qwwwrrr00000e000rr0rruuuuu000000000000990y00yuidpdipddidippiiyyipiiiiiiispisussiiiuutiiiitiuiisiussuuuuisgjkkkzkkkkfjkhkhkkkhhkkkjjhkkhhhhkjkhkdddpppiiiyiyyqwww79qwphpkzlkpyuddsdiypiiiipppidippiiiippappkkkkzjhhhpppdyywrrq0wwuiy7iiiiiiyywwwuiiuwutuuuuw02rr87wwwqwwwq6766656666696636663q6666663666633636666636333233222765666666552666666666666629328=*<=,=11<,<<<<2256626696252881282,81182,,,=8*=:>&790099995255;9r<3<56wiiafdpppppiiifihur9sw96r0909990rrw0ruiiiipiiiiippiipyiipuiiutiuutuuururruruuwwuurrrrwwuwrrrrrrrriuuurwrr02>1251>59890iiii0955855995866699999366233q653366666242365662236666662559690wwwywrruwuuw0rurrru0000969999859699699999799979969999999796776666q9699968899900000r00rwq0rw0tuwu0yrurutt0r0r0rrt00000t00000000wwwwwwwe00w0000w0ewwewwwwwwryuurrrruryrryrurrrriirtriuuruurrrrrriuyyywwwww77w6,*====**=,9piq3wpppw979wzcvcccchp",
"iiipgddpddpppsrww7wywwwwwwuidddphhphhhdpdddipidipippppddippiiapisiuuiuy0trusiiyippppdddddhhdddaapppippiiiiyyiiriiipdhklxcklkkhpipppddpry96223225260r09009663366688881==1====****&&&#%##%&%=%===%=;=;:,::,,1121112,<<356566663666666699yrwwrwrrrruyrwyrww0qyyriidipiiididiipiipdist0ruiu0uuuippipyyiyyuiyyyw007073qq2,,:&&====1=11::::;:1:166wr60uww06600rr09wit0rrtir00t0w0r909w900w0e09wussppddppsppppsryuiiipiiapdppiiipspiipiyuiiiiiipppiipiiiutupphdkddhkkjkkkhhhkkjkkjkkkkhjhhkhkkzkcguppuiyiiisuuuuurrrrrre9qicczkpppiiiiiiiiiispsddpiiyiyiidpppkkhkkkhhdhdisuruwrw0qwrswwiis0hturrrrusrrruquitiu259t56tq9qqqww666635569q6969696553696666696986666635366666663333236666766666366999666636666663522==8=11222111<556522556532225655<6111::,=11*@@*2999999992131<q31222wwpddphdppddaypppsrwwr999999696wq0wwwwppydpyypuyiipiiiiitritiuuururrryrrrryrryrrrrrryrwyuuwwwiir0rt00i0i000,<228218887tiywiu766666666666696966666636663665666325552236666635662226666q7wrrryryryww7rrrtrrr000095999099969699990006969906666999796999676676996699999900ywrwew0wrwwtewww0thhdtrwwrwwry0r0000ww00e000ww0wr000e0000re0r00r0w0qw00wywwyiwytryrrrrrrruriyiypuurruurrrrrruuuuutrwrrqwy973:-*=::1225jcjiicvvj669yplvvcccchi",
"iiipppdpppppppsruwwuriwwwuuiiipdhpphhhhpdddppipipppppspdspppiapydiiusuy0rrusiiiipppppdddhhdddapadpipiiipiiiiypispaakkkkckckckhaphhddpppyr9666656570r0q9066996696q8811,11==*&***=&&&&&%&&%%%=%======,:,,::,:12221<<<355656666636966676wwrrwqrwrrrwrrwrww707qyuiidpippppdiippipsiisurruuu00uuiiiiyiiiiypyiyyw000002992,:==========1,:::=:1::669w60tte006000r090tuwr00r0000006w6090660009990uidpssdpppspppsryupisisaippapppdipippiiiiiiipiiipiiiiiiiuuipjkkkhkjkkdkkkkkhkkhkhhhkhjhjhhhdkkzhkkiipipypsiisututururyweqqyihzcpiiiiiyppiiiipshppppiiyiissdphhkkhkhkhhhsisw0w90q0rrrrw9riswdusurrrsurruiiiittw466q67w76wwwww96066666967669996663699996669666666655535666636534263666666666666666669666666696656==1=11222122225555366655565522<<:>,1:,1:8**,522958899962<32<36<242rwpddhdpppddppsphsrrre099933399qq0wwwtpyyppuypipiiippiiuuiiuuttuurrrrrryrrrrrrruyrrrwrwrruurww0iirtr0090809,22<21298599uurit666666963666669639567996656666666655552555665666662<236567qwq70ryyrwwwyyyw090r000999959999999999999000999966769999699996997q699699999999000wwwrwrwrwwrwwwrwuurrwwwwwwr0yr0w0w000w000w000ww00r0r0r00000000000w000wwwtittiywrrrryryrruripyiyuyrrytyyryururuuuuy9rrqww699,**=223266kvsipzvvk6967izxccccchi",
"iiipphpppppppssww7wuiwrwwwuipddddhahhhhddddsidiipippppddpdaiiaaidiisi000rrusiiiipypppdpaapdddppppipipipiipippppphhkklkklclkckkffkhddphpsr06656366900090036390996q61=11====*****+%&&#%#%%=%%=====;:=,:,,,,:,,1,2,,<225356666669969966qwywwwwrryrqwywyrwq707wyssddpipdsdsipppppppiuuutuuuuuuuuipipiiiyyuiyyr00w9w967q2:=:====&**==:::1:===:1969w69rwwrww0090w00rtwrrrrrr0r0r9r9090660009950wtspssdpiippdspiiiappsaiiapdpppipdispiiipiidiidiiiiiiiiiiiidjkkkkdkjkkdhjhhkhkjhhkkhkkkhhhdkkkzkkkdpidiuiuuuuuuuuruuuwuwwwqtikciiiiiiiippiippppppppiiiiipppadkjkhkkhhhdiusw9990659wrtw0wrsrdtisrrrusuuuyiiy0w0<76q0wq63ww0www0066666666669966662696696666666666665666656634634436666666666996669666666966699999*&2=1,,1222222256626666266655<<<1:11:::&:*:8095859999926391*283255iwipdkhaapdapypppsirrr0we955900w000ywudiyppyyippidpiiyitiuririuurrwrrrrrryyrrrrrrrrwyruuuwyiw680r999899529522,<22255559uiiu0555556736666666696632233556666566335255335666536663<<3356990rrrrrwwwwwrrwwr00009989695909979699999099999967660999996767699679799995999799000wwrr0rewwwewwtwwww0wrrwwwr0ryr00w000000w0wew000t0t0000000000e0q0w0qwwqiwuiiwyuryyrrrrrruryiiiiutyryyurrrrruuuuuiy9wuqw979q<**=::::<<phuwikcvh769wpcvcccckdi",
"iispppppuppupsiww6wtriiwuuuiidddhpddhhhdddppdiidspspppdspdpppaiidiuuiu090riiiuyipppppddddddapdpassiiipiipipipphhdajkkcklcckkkkkkkkhhpppsr96553667000099096699999631=,11=====+**%%%%&#&%#%=%===%=&===,,,::,:<23<<<<33635696666696q6667wwwwwwwwrwrywwyrqwwqqrysidpdppssasdsddssppuuuuu0u0uuuuuiipiipyppyyiirrwwyw7qqq2:==&&=&&**==;::11:=:12969w6wrrwwtw000w000wr0rrrtr0rr0w0t0090000000999wispdssppippdpsipiiiiiiiapaddpadpsdpipiipdipdipippippiiiiuidddkkdkdjkkdkkhjhkhhhkhhhhhhkdjhhkzkkdzkyuputuuuuurruuurwwrwwwiiyiphiiiiiippppppsppsidpaiiyiiipppdhkjjkkkkhdsruq9q6r<229rrrr7riwsrrrrruuruur0ww06665q600qq67q00wrw056q66q6q6666666652666669666666669663556367666563366666666666699669996996966699999&%1=21,11222555576656552255522552121::=&@<55255589006255331*3q3276twupddpppppppishhsusir000669qq0uw0wwuddpyiyyuiippiiiiiriruurrurrrryyrrryrrrrryrryrrrrwwuuwuy059r08899908992<8,<22<2550rssiuu07965666366666639675336q6666535369665566556655555633336566qwrwrrrwwwwyrrryr0rr00989999999595770999999069679990999599996999q9q99w9979999599000w0rrwwrrwrwwwwewwuurryrwwyr0r0w0wr0w00w000wwe00e00rr00r0r00000w00wwwwuiytiiytrrrrrrurryuiyyiyuurrtytruyrrtuuutuywrwww96q9,*&=:===<5kkqqdkcck696wpcvccccjdy",
"yipppppiipisssrww7wiiuw0uuiidddhppphhhhaddidiiidpsppdidpapdppapiiuyru000tyriiyuipppppppppdppapppppipiiiiipypppppdhkklzcczzzkklzkkkhhddpiwq6996690wq09999966669992,,,11======+=**&&&&&&%%==%&=======:<<,,,,=,1212,2366555663667q66666wwwwrqrqwrwwyywwwywwyywytpdddidddiddsssadpiiuusurwryutuuusiipypiyiyuiu0yyy00rqq2:&&&&&&&&*==:::21:1115w9ww9rurerwwwew000wwr00uu000000r9r9090000000096wiiadssipiiiddipiipiisippdddahdddsdippipppppppdppppppppiiuipddpdddjdddkhhkhkhhhhhhkhhkhhjkkkkzkzdkkiuirrruuiuurytuyurwr0wuiiiyiiiyiiiiphppppphhsddppiiiuyppiahkjhhkkkddirr6696928<609w66rrwwww0rruuruuuwwyw0w00q6669q6q979qtw62666699676666663226666969866966966666666666636634666666666666q6636q96996963699969&$,,22221122666696655633252525581:11,,1,$2992599590985<593=,q32396r7spddhapppdpppphsitsr99769wq0quw0wyydiiiiyyiiiyiiiiiiiriuurruurrrrrrrrrrrryrryrryurywwuuwwuw6ur00r00u00r0228<12,2890duurwtddust0966363666666966qrir7366669990965566556535266533365655rw090riiwwwrruur000rwtuw95979999995999990006996960609997999999997090999999999900000wwwrrrrwrrwerw0ewwiwwwwy0ryr00e0000w0w9e000w900r0er0000r000r000wwwwqwiuiwitwuryrryrryyyyyiiiyuurrurururrrryruiir9wrw99699:&*=1,,:27jk0wdzkckw06ypvvvvvcjiw",
"iiipphiipppppsiwiwwituywrriiddddpapdhhhhiidiiddipiippsdddpppppiisuyuir00rrruiyuiayaiappadadpppppiiyyiipiippiippadhklzccxzlkzkkzlkjkhdpyrq666996900w0009999666966,,,,1==1====***%&%%&%%&%&%%=&====:=::,,:,,1,2113<336666676q66q79q769wwywwwwwyyrwyyq77wwwqqwwuiddsdidddddaassiuyyuuuurrryu00rruiuyiypiuypuuuryywyrq3,=&&&&=&&**==*==:::::16w0wr9wrre000ww0060wurr000000e0000r0060090000999wyipdsspiipdsdppppiiiiipppdhddpidpidpipiipipppippppppppstsiiiippiiidddshhhhkhhhkkhjkhhkjkhkkklzzkkkpur0rruuuuuruuywyrwutuuiiiiyyiiiiiipphhppssppdddpiiiypippahhkhhhhkdpsq0626>268,696w60rq06w90rrrruusrtitwwwwtw6757q6w369qw06>755666656636333356999996996666666636565566363343366666666366966666696996q9969999&+==211211266666q9766655555222251111,181::<895592990555262*1e31662w9ddddpdpppppaspsiisiqq96wqq06ruqwuiiddpiiipiiyiyiiiiiuurtuurrrururrryrryrrrrrrrrrrwruwuuwwww0ur90ur9r00i912222212250juuwwtjjuiq65666756666666667qqq666669999966666666563255262<33366569wruipyrwrryiurr0rtuuu0099999999999979966679999096099999999999999667996999099970000wwwteewwwwwrrw0wwwiwwyr0r00y00ww000w0w0wwwwwr0t0000000000000w000wqwwtytiyiiurrrrrrrryyiiiyiiuyrruuryruurruuruuy9ww9w0696:&==:===12ii50pgdkkw767hvcccccjiw",
"yippppsiipppppswiweiwyywwuupdddddphaahppididiiidsppsppdspppadpuypiyuur00rrriiryiyayppppdpapppppiiiypiiiyiyiipppphhkkkkcczkklzzzzkkkhddiy0666696600w0009999699952,1,,=1====&&***=&%%#%%%%=&%&====:=::,,:,,,,,22223<35366666q796qq997qwwrrrwwryrywwq77wwwwwyyspdddddipsddsssaiyyyiuuuirrwru00trrtriiyyypyyuurru0y0r92===&&&=&&&***&-====:::289wr690w0000ww000000ww0t0000r00r0u0w0w080006960wwiipsipiisidspiipiiiiippaddapppisdiiiiidpiiiiiipippppaiiisiipdiippdddpddhhkhhhhkhhkhhjhhkkkzzzkzkkdu00rruusuuuwuytruuuwwuiiiipiiiiiiiphpssppsdsdsppiipyipiiphkhhhhhfairqr6262629<8q6e6qrw96rqwrrrrrsirii00utwwq0w66q996999095<5222363333333<33366966666666666665552222334323243666666534369966q669999966993999&#=*1,:22222266666566665552552522112=11,1:::22285999099992:<q32396rwpddddppppppdppprisr0e76qe99wyw0wpiipiippiippyiiiiiiiittirurruurrrrrryryrruyrrrrrrwrwwyyywwww0r99006900r2<2:2521<1<8usuuwwds5t922369966636666732<23563666666666665255555225622223<6695wphkkdyiiuuurrru0rtrrw9099990999599600060066999067699009999996969609699990w999999900000rwrrwrwrrwrrwiyuwy0yw0rr0r00000ww9w09eww00000rr00r00r00r0wwqwtwwirwiuuuyrrrurrrrryiyyiyautyrrurruutrruuuuir9wqw90699>===,===12iu59iiidg0960pvvcczcht7",
"iiipppsuiipdgpprw7wiwiiwwuuiiddddpppddppdiiididippipsdddpppdppuiiuyuir00r0ruuyuuipippppppppppaiaiiiyiipiiiiipippdhhhkkclzzzzzzzkjkhhdpiprq66689q000wq0799999992,3,,===1===&&&*&+&&&%%%%%&&%&%===:::>,,,=,,,,23233322666696369q7qqqwwqrrrrrqwrrryww00w70wwypdddgiipdsdididsppy7wiuuuyyrryttuuuiruyyyiiuupuryrryy0t7<===&&&&&&&****=*;-*:::169wr696699000weww0989090088000000u00900000009900yiisiiiiiiidddppiiiiaipppddppppipidiiididdiiuiipipippassisdpdddddddddpaphhhkhkhkkkhkkkkddkkkkkkzkkzi0rwurutuutwwywtuuu00yiiyypiyiyiipisppppsddhdddipppiiipppdhkhdhhhpprwr9696q3q<qw6r2ws969dtsrusruussuu76uuqwwqt69q9w9999995<4<<22333212<<<<<<6656562366655225224222244<<422<44335533333666666666696666639999=%,=2112222266666652353555<<55221122111=22,&&<828990000033<;293999iwppdpppapppdpsppripu9q36ww67tywwtppyiuiiippiiyiiipiipiiurirrruuurrryrrrrrrrrryrrurywruwwuyy07ru925869000<28;2221<1>5uuwuursi2iq66653556663666560wq653666666366666222655552522332<<9wwphakkkkkdiiuurrw090wrry09999099999990060666767990060700099909909690699969907999999900000rwewwrewwewuwwwwrywrryy0000r00e00w90wwe0tu00e000000e0000000wwwwwtyuwwtytryrryrryruyyiiyyuurryturuuurrrrutir9wrw97699<==&,===26su6whduhkt96wjvvcvccji7",
"uipdpppiyppippyyuwwuitwiyyuippppppdhhdapdiiididididppddsiddidpiihyiuui09rrrtrruippipppppppppappiiuuiiiiiiyypppaphhfhhzzzzkkzkkcclkhpirrrr76999qrw0690w0979ww93<<1,:=:=:====&&+&&&&&%%%&&&====*===,=,<<,<,,1113335325666366997w9qwwwwwwwyqwwyyrywq6q6wwrripddapppappppdapasiurrwrtytutyywrrrryyiyyiiiiyuuuru0u0u0r3<<,&&&**+&&=&&**======158wre96999999900000008900t000000000www000900990090wsiiyiiiidddisppippdhaaddppppipppidiiiuiidp0pipappaiiiididpdjdddpdpppphhhkhhkhjkkkkhhkklzkzzkklkkklaywtuiiiywittwwtw0ipklkapyutriippippppppspppapppippipiphhkkhphkhppirwrw99q749urii6rpprppysiiiiyyyiiiywwwwiwwwrrww9qqqw66653<,<2222=312==31,<366365262625622222<<2<212221234<335343563563436666666666666q991%1&11:1<<2225556366632628<,28222122,:*=***&,229289096673242356w0suwrdhtppppsppspihsss07q7i<u9uuuqwidpppppippipiiyypiiyyiirrirrrruruwurryrrurrrryuuuruwyqywwr200i88892q0w99:88,=282,=20psuqpdu09pi06598166666666339irq53662666666666224<1138332245wydkklhkhfkklkjduururwtrwriiy70979099699995999996999990909600e00006000090099909999099999999w9wewwwwwrerewwrwwwywwwywwwe0r0wwew00w0w0ww000u000000ww00e0q0w0wuwuyuttyyyyrrryrrryrruuuuuurrrrrrruurryrruuyi09wuyw9w962=&:=,=229dw5ithiivi766hvvvcvjsrw",
"iipdppiiypiyppuyutyiiwtuttuipphhpphdhhppddiiiddiidsddidisddddpiidyuiri0000uurturpypippppppipppipiiuiiiayyiyiipiphhhhkzzzcccccclkaappiuyrw967969ww09090999w9632<,,,,:=:=,1=====&&&&&%%%%&&====*=:==,,,=,,,,,12223535566636699qwwqwwwyryrrwrrwrwywqqq0wuuippdddappppppddpasdduuuuuiiyuuuryry0ryiyiiiyuiiuuuru0uuu0r3<<,=&&++=&&&==+*+====:1160rw96996699090ww000990ru000000090ww0000900990000isiiipiipiddpdipipdhhppddpppppipiidippididsyippppppaiisiipdpkdddddapddhhkkhhhkkjhhkkjkkklkzkzclkkcckpwwwytwww5560yidjppklkkpiutiiipiipppppppppphppiiapupppahkhhdhkkhdiyryw09q06qrrst9wrwwruwwrryiiapawiy7wwqtwewwwe7qewqwq9q633<2232228238=11<<36632265566226222222221212=33=5<4334332443366566666666666666692%,*11=1<222525666676225582<58221211,:::=:,%&905590097656342999rwrrrsdhsipippiipdrhsss009qw9w0wwiwypppipipyiipiiiiiipippsitritrruwuwirrwrrrrurrryyuuuwuwwtwqr2r0088595uuq98:22==>1,210ud906yduutddp055583666653567qiie7666666665662<255632=1<30rphhahkahkkhklcklhhddiuwwwrwtjdiyw06900099999999799099999666600000000000090000099979990999999999wwrwwuuruwwrwrwwwwywywwwwww0rwww0w00wwe0wr000t000w0000w000w00qwwuytyyyttyyrrryrrurruuuutiuryrrurrwrrrurrruu79ryyy79099,*==,,839dw6itshhvi997kvccccjitw",
"ipppppiiipiippiyiwyuiywyyyuipdpphaadhdhpdiiiiiiipiidsdsdiddidiiii0iuui00tt0tyrrrppipdddiappippiisuuiiiayiiypiiaiisddhzzzlzczkkkayiiyurrrw966697rww099909qw632<11,,=:::=:===*&+=&%%&&&%%&========,=:=,,,<,,2,<333633666969999wqw7ywwwywrrwryryyww60qwusiipppadddpdppdadppdpiurrtuiywyrrww0wy0yyuuyiuiyiuuuu0urru0r73<<:&&==&====+=*===:::1569ww0699979999000w0009u000000000900w090900w000w0wwyyiipipiidiipdpdahhhddddappppiypiiipdidsdpyippppppiiippdpppkddaddpdaphkhhhhhhhkkjhkkklkkzzkzcckkkcckpiiiipipdpddhkjhhhkzlkpiituuiiiipspppshhphphppapiriyikhhkhdhhhhhppyw00000qwq0ur6wrrrsw00rrriyprw7iw67qw9iewewrwwwqwwq7q63322233<2323313<3336626666626666333362322321=33=4<<43424<434366662362662363366962*,*1,=1<236626632565525282<85228<121:,::,1%-9969990999932>2796ww6wuppphppsspspphspsss00wu<t6wwwiuuddpipiiiiippiiiiipiiyitirririwuruwrwirrrryrrruuurrurrrwutr8rr0285950r912:1=$$2>:18uidtu0yi00wdsu0528966666666757ee76766636666666662<4<<6qrpjkkkkjkkkhhkhkkkkkhhkhpurw0r0udjppu0999000999997999999999606560we000009000099099997999099999999w0900wewwewewwwewurywwwwwwwwwr0www0www0w00w0u00000tw00000r000ww0wyruuytyuwyurrrrrrrrryuuuuuyrruryruurrrrrruiiq9ww769q99q2===,:339w7whihhjvh99wkvvvcchiyy",
"pipppiiyypiiddiyuwuwtywwytuipdphpdhhhhphdidiihidsidiidppsddidpiidyiiui000uusurruypppiiddpppappiiiuriiiyiuyrryiiiidhhhzzzkkklkhdpaiiiprrrw966990qwq00990ww93<<1<1,::====:===*====&&&&&%%&==1===1=;,,,,,,<,,,2<24365669679w99999qwwyyrrrruyrwrww996q0wussippdpdppdadpdddppiiirwwwriyww0w0wr000ryuyuiiuuuruutuuuuuur733<:&&**=+=====*==:::1126wwrww6999999000t000090t0ur00r908900099000r000090wyyyaipiidispdiddddhhdddappppiipppipididddpypppppppiissdddpakkdddpdppddhhkhkhhkhkkkkhkkklkzzlkkkkkclcclzkzlllzkhkjhkdppkkzkkiiwywtiiisssisshppphhppipuryiihhkhhhhhhhhpdpy0w096w0590959wwqw969wwyypr725wq6377qruwwwrrr9999q9762331<33,13123<83<33666662666656655366323333233323<3355366333555362636226555563663*;*::=1<222566622256556188<282882121111,=,::1>5999999999669rewuw57uppdppppppppppppssr00wq-w50wuuusdaiipiiiiipppipipppppiirrirrruruwurwiyrryrrrrrrrruwurutiwi9rrr29585wr6<1=1&+$81&:,w0uriwui0wru095595566666635533775556656666633665622wupjjkhdphhhhkkkkhhkkclkkkhpiiyuruuujkppr069000090999999999999970660www09090000000000999999090999ww9999009900000wewwwrrwwyywywwy00erww0w99w000ww000tr00000www000qq00wrwruuwityituwryuryrryiuiuuuurrrrrruwururruuyywwhhdhuuw0w3<42227qwuwpjdhhkvh7wyzvcccvhiyp",
"ppdipiiiiiiidduuwyutuiuwuyuippppphhhhhpphhiiiihiidididididdidiiidyiiru000truuuuuiidiiidisiaiiaiiuuuiipiiuuryypiiidhhhkzzzzzzlkappipipirrw969q00rw0ww0000321,,,,*=<>====>=====%%==&&&%%&=======:1,,,=,<,,<<<<234366669999w799qqwwyrwrrrruryyyww9w00wrsiidppapaddpdddpapppiiiuwwwritww0w00www0rryruuuuituruuu00urrwq631,==**+===&======:11888wwwww99990000t0ww0990t000t0000999990990eww000000ryyiappiiiddiisddddhhpapdppaiiipipisidddidiudppppppipddhdkakkdddddppphhkhhhhkhhhkkkhjklkkzzzzhfzzlkkcclklzlzkkhdddkphhhjkzchiiutwyuiyipupsppphhpapaiprwryihhhhhpdhhhkhhpiwww66w926062290964:50wwuir922666759rwwwwwwwe9wqq9qqq3931<32:<2<<3<323<366666666666663565653563368113334666796636533466366636666666693:==:,::<223566623653656282<282892121111==,=&*:599999999567qe97w00wughppppppppspppssprw0q7;w50yutusddspppiiiiiiypyyiipiiiiririirwruwwiwwrryrrurrrwrwrrrru0urt90r918292ru6<2:1*@&81=,,5599uwuy65965<5585266666653665663662666666665256wipkhhhhhddhhhhhhjjkhhkkzklxhpyppyy0yyyuuyu0090w000066099979099900080iiiu0600000e000000009995990099w00099990900e0wwewwwruiwyuwwwwwww0wwwweww0w00ew0r00t0000w000q000q000qwruyutwwuyyuruwryrrrrrutuuurryrrrruuwuryruryyw0isiprr90q3<66326wewrpdippcvp6qyzvzvvcsyyp",
"dpddppiiypiiddpiwuiiiiiwtyuipddppddahddpiidihisiiddididipddidiidsrsirr000rt0uuuuiiiiidddapipaaiairryiiiiuurryiiiidhhhkkzzzzzkkaaiiiiuurrr0660wr0wq0000994<11,,,=<==============*=*&&&%&========:,,,<,<,<<<<<2<3<666q999999997wwwrwwywrruryww9997q0wridddapppddddddpdpppiiiiuuuuuiyw00709000wwr00uyuururuuuuuuuurq76311===*&*&&=&++===:::159www90699000000r0000000rtutut00099909900wwww09000riiiapiiddpsdididadddpdpdppypipiippdidsdidsudkpppppppddkkkkhkkdhddappdhhkkhhjhhkhkkkkkkklkkzlkkkcckkklkkkkzkkccckkkhpijkkkkpitwyyuyyyiupisppppppppaiiywrrphhhhppahpdhkhhirw090q069q7260qq05<6rrrssw6<,112623eewww9www669979998931121,69263<63<<<2569965635666556663556<276,,6432363666656666666666666666666663,*=:,:1223656666665563<282<22228<<<1111=:1%@,1599999999236qw52q0wusphpppppgppppppipiww0q36t7wwwuisddippppipiiiyipiiiiiitiitirirurruuywirrrrrruyrrrruurui0uqr99r022282ru926>1:&:>1,815459uruy92225555>2566666666666656665666622256wrpdkjhddhhakkkkkkkhkhhkhkkzckldppphywypiyyy0rr990wq060000997790997700itiire00000000000090009999990999w900w9090000wwwwwewwwwwywyuuruwwewwewww0w000we0w0000000000w0w0wwq0wwwrwrytyuiyttwurururrrruutruuurrryrrrruryrrrudiw6q965707004<35222776iiiiipzck9qtzvzvvgiyik",
"iiiiiyiyyiiidpuywuiiiiuwyyuipdappppddddphiiiiiiiiiipidididiidiidpyiirr000utruuuuuiidiiidppaippiirutiiiyiuuruyipiidhhhfkzfzzzkkhapipuuirrw0690rwqw0000065<<<<,,,,=<>=*-==**====%*=%&&&&&=&*====:=,,,,,<<<,,<22<4<5669999ww99wwwwwrrwrwyruurw999wwwwwuiiadpdadddddapadpppiiiiiiuisyy9797999900ww09u00uurrur0u0rurrq73311,==**&&&=&:===:::1166ww9966990wwwwr0000000u00rrr00000900090wr00w09009ripiapiipiddididdddahdpapapippipppppdsiddddudddpappdkkkkklkklkdhhhdpphhhkhhhkhkkkkjjkkkkzzkzkkkkxckkkclllccccppdhhkkkskzkppiytywuiyiyiiupipppdpapaiyyu0rrthspapphhhhkkhhpiw79q5600r0<wwrwr65wswwwq82=,,,,2227www9999963666696q32112<129266266<<<<5666666665566663365563555<<34<<4343343566666666666666666666692%:=1:1<33366666666365<281<882151,<11,,=::&:885999909957qqwi75wwwtspppppppppppppprsi7wwq2wu5p0wissdispippiiippyiiyppiiiirtiiiiruwuwywwtyrrrrryruuutuiuts9u0r95r022285wr669:1:==:1:915475ruyywww22592<<9366666653555555266666569riakckadhkkkhhdpdhahkkjkhkhklzkkkhahppaicckphkddu00000090096690098669wridsr700wr0e00w000r0000r9897999099000000009900wewwrerwwrwwuwwuywwwwwwwwwww0000wwww00000t000w0w00000wq00rwuyytytyyyrruwrrrrrrtuuuuuurrrrrrururryruyuuw7ispdww00q6<6960qewwjdipppcxkwtucvccciwwpk",
"uuuryyyyyiiuppiuqwtuutw7ttuipppppppdddpihidiihidpipisisdiddiddidiyiiruy00rruuryuupddiiidpaiisaiirrriiipyuurriiipidhdpfkzzzczzkkkdpupuurww0667ww00000065<,<<,==*,,===*;==%*===*=%%*&=&%&&&&*==:**,,,2<<,,,<<223245696969w9999qwryyrwwyruuury9777wwqwyudhhappddddaddpppayiiisuutrrpy0979995800w009rrruurruuuu00u0uq983,1===**&=&=&====::::1560w967669wwwwu0t0000rrt00000r000809009errw0ww9765yipiiiiiiisidiidshpdppddppppiipppppddddddjdikkdkppkdkhkklkkklkkkhhhaahhkhkhhhhhhkkkkkkkkzzlkzkkkzckkzczkkzckckkkjkkhpikzpyyywwwtuyiyyiipussshpppppppruwqruhshpphhhppkhaddp0690<20600:r00ww656q0928323=3112355wwqw999w7999q9q7q312<<22<2262<9633226666535663666667656663<3655<6336334663365366666666666666666q82%,:1121<23256656523765282<582281,<8111:&=10r8999799097q67we6250wrssspghppppspppdrsi9w0w<wi>gwussiiidppiiipipiipyypyipiititiiiururutyywurrrrrrruiiiuisit6t909509><<85iu<3q,1:&*11:2<55yqsuyy096911295556666635323556333666226qwzkhkkfllphphhhhjahkkjhhjkkhhkkllcckappkkkkiypkdisr00009000000090689wrialiwwwwuw000www000r000000999990999000000000000wwwwwwerwwwwwwuuuwwww0wwwe0w0w0w0w9w000000000w000wwq0000wwwutyyytytiryrurrrrrrrtiiuuyrrurrruywurrruuyy79ijkkapw9w99qw7qqiiqzckckkvczriycvcvcuwypc",
"7wwwrwwrwuuupirr0rwuiuruuyuiidppipdhdihdppipiipiiiipipipdiiddipisuipii0000uutuuuiiaippiassiaassirwtuiuuiuurrusisidsdhhkzcczkxzffddiiuuiywq06qwrwww7w795211,:::::========*****&&&-+:-+:+**@:;;:::,,,,,<<<<<22234236677q7qq7wwrrrrrryrrrrruw99wwww9wwyudddddppdpppddddiiiyiitiuuyiyww009699999990990rur0uurererr0rr8<2<::,&&&&&===++==:::1222666960009900u0ut0000t9909y0yy9099000500ewe000090riiphsuussiipiisshhhhididdidipipisddddddiidddddpaakddhhhhkdhdddddppppddphfhkkkhkkkklljkjkkkkkkkkkkkkkkklklkkfkkkjjhhdipiiitrrtuywyiyyyyiipipiddddiiiewwrwuisihhhhhhkkhdddiw9960qr6r63r9trr50rqr9<<2<,2211,,12qrqeww6w9q96699q693<=6,6<56666909225676626896996663666356666653376666653366653635666666656666366q3#==1,,<1<<<3633566696638216e9382,1118*;:80000000900952593w5096669igppphsspppppsssutrqw0t009i0yrsiwsihsippiiiiiuippiipiiiiiiiyiyyyyywyiuwwutuyyuwrwuryq059w92206><<66u929523=$:1:11228,1t0dr8;22284285<25566666552288894<60yhkkhhhhhkhkhhhhhhhhhhkhkhkhhjhkkkkzkkkflczksuwwut00990qw000900869890wsjkjhhidkir90rir000000000w0w06999000099900w0ew0000wwurewwwwewrrrruuurwww0weww0w000e00w0000r00000000000qw0qwwuuwrtyuuwwruryrryrrruuuuyirrrrrrrruyrrrrytu099yihahtw9767736w0wwihhpppfkzciwhcxvxkwwtkx",
"wqwwrewrriuidpur0rruiurruyuiddpippddhdhipppiiiiiiiippipidiidiiiiiyuiiu990tu00iuuiiiapispipspsasuyrruiiusuyrruuutiidddhkczzzxzxzkdppiiiyww7667wrq9q6665241,,,:,::=======%**&*&**&:++::@*;@:**;:::,=,,,<<<,,2234646666q7qq7wywrrrrrrrrrrrwrwqwqwww000wupdpdpaddpdddsdpiiiitiuwyuiiuuw0099969699986000uruuurrrrr0rr08222<,,=&&=&=&=:=*:::;12<260997000990r00000900090y0y0000999000590we0e00r00rusppuiugsdipssspphppdiddddiiiiipiidsdsdidsddkddpdddkdhhkkhadhdadpapypppphhdhkkkkkkklkkkkkkjhlklkzlkzkkzczzcckkkkkkhhddiiiiitwyuwwyiyiiiiipppidhiiiurwwwttiiiiishhkhkddsdiw99wwrr3w69w6qwq40rir2<892=2221,2226q3w0w6989966999qq<216,6266666860262692633q3369666666656553355349655566565566656566663666363666623#*==*,<22333336666666322328091828818:=000r099r09900052576w5q07q6eihpphppppshpptsiiitrr0rur0i0yriiwdrsiiiiiiiiiuiiiipiypiyppipiyyywtyuwwywuwuywuwuuuurrw90w02292,<<69w656<<31:2,:,,218=:80iy8;25882559565256562225852<<29uhzjdakhkhhhhhhhhhhhhhhhhhkjhhjhkhkkkczkkkcczartqqrusurqqq0qww699ewruikkkkkjhdddpsuwutie00www0000000e69999009999000000000ewwrw0wwwwwwrwruuuurwww00www00w000w00r0t0000000e00000000wwwuwwyywwuuuuwrrrrrrrruutuiyirrrryyyutrrwrutr097ykkkdueqwqww99qwwipgpppphklvgwhckvcfqeicv",
"wwwwrwrr0iuuidur0uuuuu0rtwuyippiipddhiihppppiiiiiiiipiiidiiidiuiiyiiii090tutuuutiiiaipppisipppaiiuusittyuurruuiiuiddddkckkkcczkhpppiiiyyww770qww7q69632211:::,:1,======&%***&=&&:=+-@**@&&**::,,,,=,11<,2223364636667qw77wrruurrrrryrryy99wqww9qwwwyupdpddpaaddasdiipiiiiuwwwyidiurw0099669696669000uuuu0rrw00et95<221,1==**&&=====:::::112590970009900t09090909y0y0y0y09999909999000990r000ruisu0tusispssisppppiddiiiippispdddddddiidddidddpddddddhdhhdddddppaiiipappppkjkjkckkjkjkkkkjkkkkkkzkkkkkkzlkkjkkkkjhpiiiwywrwwwwwyiiyiiiipipgsddpiuwwewwwiiiriihhhhpdddsir9969w6<2>502996>60e6=<88,=2112=222<4209w6999969999q8:<=q=2666266869<656942239666966626666553345345966366666666636666666666666663663q=%==;1<233333<255655221222282:,,,=,,&1uur0000e0000008567qw7q76qwishpphspsdppppiiitiitiwrut0t9000wys0ispiiisisuyiiuiiiipypyiiyyywuwwywyuwwwuuttwutyutrwwwwq9266:,2:359392<<21122>1,322=:0wiw4>2262459555256666483222600upgjkkhahhhhhhkhhhhhhhhhhhhhkkhkhhkkkczkzzlkcckauistw00wuww0770wwwuuphhkkkkkkjjhdpsusssstw00we000e00ww090790000999900w0w0000wwwew0e0wewwrrtuuurwewwe0ww0e00e000w0000r000000009000w0qwwyuywuwuwturrrrryyrrrutiryiryrrrruryyrryyurt099wyiirw9q9qwe9969wyiiiiiiipfkhwhcxvch7epkc",
"wwqwtwwe0yyyiir0wurwuu0ruywyiiiiipddhhiipipipipiiiiiiiiidiiiiuiidyppii000u0u0ui0iiiiiisipiisppsisuuuuttuuuruuttuyusdddkczzxxckddpppppiyyuq767qwqw996665211::::::=,=====&&*%*&&&&+::=*@+:&&*:::,<,,,,211122343633667qq7qwwyrruruurrrrrrw799999wwwwrrrupppapppddddiiiiiiipwww0wwiduure09968899886698900uuurrrw00tu92222111==&*===&==::::>:>12899960099900000900909yyy9y0099969900999009999r090riuru0rssiiiiiipppppdiidididpiiididididsidsiidddppdkdpphddhkdddpaapippppphppdhkkklcckkkkjkkkkkkjzkzzlklkzlkkjkjzkkhphiwwwwwtwwwwwwyiiyipipppihidppiwwwqwwiiritiippppddidieq990w624>6w5662;<2<<,<82=,,,=====1,,,9396999999qw986=2=9=222<<,26664226622233669365523665234335<3<663335636363565666699996666666666e8%11,12233352<252555<<221<1222828=18&r0000t00r000r0099w9wwwq75yuihdpphhppphshstsiiiirriwsu8099908ti90iiiiiisisyuiyyipipyiiiipyuytutyytuiuuuuuuuuuiyutwwuwq9906:22:6<29q2<2,122,*,><<219rsdy9596262585<6656676532469rdkjjjaddjzhkkhkhhkhhhhhhhhhhhkhhkhjkhjhkkczczccczpissitrrrw000yyyiaaafklllkjkhkkkkaiiuidsuw090w00000w0000799900009990000e0w0000e00wwwwwrrwrruuuuwwwww0www0w0w0w0w0r00000009000000rq0wwwtwutwuuywywyrrurrrrrruuuiiyrrurrrrrtyryrrruir9667659969767q76357wtiyiiiypfkhikcvvkp7ikkk",
"qwwwwqqw0tyyiirwwuuuut0uittiippiiissshihppppipiiiiiiiiiidiidsiddiripiu990tu0usu0iiiiiiipipissiiiuyuuuuuiuurruiuuyiapddhkzccckhiipipppiyyuq66qwq79955252411,:::::========&&&&&&&&===:*++=&**=:1,1,<11111<22336666667q7wwwrrruuurywtrwwwqw99wwwwwrrruyruddppappppaipiiipyp0000wruiiuwe99988909665699890uirrrrwq0wr99888221====***===::::1:11569796899990e000000000iyi007099959000969960689099wrrrruuusipipiuussdppidiiipiiipdiiddddsdidiidipppipphdappddhhadppappipppppaapiidhhhfhkhkkkakhjjkkjkkjzkzlzzzckkkkkkkdjpywiywiwewq7wwiyiiippipsdppppiweww7wiiritiiiiipdistrw6669r662:99239<:,<=331<21=1,======<,,6<96999969096q826<9:6,<<::,<82<2266<2233666966256666255553<<<434<43436666666696699996669669996w3%111<2555566622552242221118828=1*,,+8000irr0000000009wwiieiw6iipddppdppppdddpgpititrrs0tr9896909uu88wuisiiiuuuypuyppiiiiiiiiiwuyuwuwuuuyuuuuuiisissisustrw0t022816:<w3,221169q<9666wirisdiruu5558096466268966150rphkkhjjkhhhhhkhkhhahhhhhhhhhhhkhhhjhhkkhkkkckckkccckckhiuyy0wyyydkzclklkklkkkkkkkkjhdddssdiyw000w0000w000w0999900009999000w0w00000009wwwwwrrrruutyrrwwww0r000r00w0e00000t000000009000qqwwwwuwyywyuyuyrryrrrrrruuuiyiurryryyuurrrrrryuw967966997999www969wiiiiiiiiiphsikcvviuqdkck",
"w00ww77wwuuyddurruuwuuwwiuwypppiiihhsihippiiiiiiiiiipiiiiididisdiyiiiu9900utuuuuyiiiiiiipisaapiiittuuuusuuruuuuuyuupddkkkkkkhdppipiippiyuw00wqq99995532211,::==:========&&=&&&%%:+=+**::***:::,,1<<1<<,,,2336666q6qqqwywuuurrrurwwww7w7qwww9qwtrruuwrsddpapppppaiiyyiiyy99000wuuuuww09969999969955590rrrrrwww00099585211====***&+=:::11121569077900990r000t0090tiyy8y9y99579000969009699990wrr0yuuuuiiyiuuuissppdidiidipdipspsspidididdiiippppahppphhhhhddppppppppppppppsddddhddhhdfhhhhhhahkhkhhdkkzzzzkkkkkkddkiyiwwwtwww7qwwyyiiiipppsppppduwrwwwwrtiirwtiippdddrwq9336w26>;96228<<,<,821181==,=====,2,<8169966666762682823,6<23<,<28<,2236<2<23666666636666656554<>465333666666666669666696666966969996*;<1126653796666666528211221,1,1,8,*0r0000r0rr00rw00wi7iiiiuwiidddiiddppsdsdpsssiiiiir6r00096800ii00wuiiisuuippyuiipiiiiiiiiyytwyytuytwwwwuuuuutissiiidwrw60511312&<w,,22,><96*2><>5wsihsirsi2442888566522564tusdhhhkaahhkhhjhhhhhkhhhhhhhhhhhhhhkkkhjjkkkkkkkckkccclvkiyyyiyhdkzccccfllklkklkkkllkkkdkkdasiwre0eww0e00w00ww99999009999000w00e0000we0wwwwrwerrrrururrwrwwwwew00000000000w000090r0000000wwwtywywtyuwwyrrrrruyrrruuuyiyuurrrywrryrrryrrr09970079999960rt967wiiriiiiiyipiizcvciwihkck",
"wq9qw09qrsiyddutwuuwuu0yuuyyiipiihhsshisppppiiiiipippippisddiiddirpppi00000u0usuiiiiiuiaiiiissiiutryurrsyrruruiruiipdhhdfkkkhppppyippyyyuw000w96995963221,=,::::======&&&&&&&&%%*-=+**::***:::11,<1<,<,,222466667qw7wrwyururrrrrrwwqq7q7qwwwrrrwrrywuuddppaippiiyiyppiyy69690eyiuuww0009966699998559900ttr0ww0955522211,==****&=:=:=:11:2256997600000000u00000rusyr9y9099660w08099866699980ww00rr00uuiyyuuuiidppidiiiipiididdididddsdsiiaipppdddpdahhhhhdppppppiipipppppddddhpdapppphpdppsppppddppphdddddkdkkdddkiywuwwqwq670wwiiiiippiidipipdiwwwwwwrirttitiyiiuire9699q9w5w2<r3<,6<2<223===8========,,31<8,3w36663362<2,2,2::3,<32<<28,=2336<<<225566652636652543543<<666666666666666666569986666666669691%11<566666966666666622221<18,==:=@;80099000r0wr00wrui6hwihwupppppddidsppsdppssiitssst9r9y080809iiu0y00ruissupiiyuipiiiiiiiiywtwtwwuwuwwwwuuwyttuuiuuui9ww292,,2,::21:21,1><q0*96007ihshisuhi084265554565660wzkhhdhjkkhhdhhkkhhhhhhhhhhhhhhhhhhhhhkhkjkkkkkklkklkkcckituudkcvcccclzkhkkkkklllkhhlkkkkkkkhhsiyrw0rww0w00000r0799900009900000www00000www9wwwrurwryuuuurrrewwwr000w00w0et00000000000000e0qqwwtwuwwuutyutrrrrrrrrrruuuiirruwuwuuurrrutyrrr09999796699690rw066wytwyuyiyiyyiikcvkyihhkkf",
"uwww099wriiudiurwuw0uy0uiiiyipppidshhhihppiipiiiiiipipiididdiyidirippu090ttuutuiyiiiiiiipiipipiiiuryyrwuurwtiurruuypdfhdkkkkhdpppiiiippytw060076555533111,:=:::,======&%&=&&%%%%=+-*@*+=***=::111,111211,2266666997wwwwyururyrrrtwq777qqwwwrturwqwr0wupdpppaiiyiiiiyipyw096660wiuuwwe090096669995898890rur00w0552558211,==&***==:::=::11555690090te00000t0000tisiyw907y99990w098600996999000000y0yriiiypsuuspiiidsiiiiiididiididdiidiidiaiippdhhppdhhhhpdapippppiipppddasidpphhhphphppdhshhphdddddhppppiddddkdddzdwiiywye925wwetyiiiipppssiiddiweww9wrriiiiiitiy6ww6<223977<9>:w62,8,638311=2==1==*&&==,3=,q,6936666562<<=<=5::2*===,,,=<:2233,<<<2226622442224<333<3<<<663435536966666696669996663666669<q3#,><<5666763356666658992:,8re888=@,rr000009000000rrys9gwrieepdpipddidpssdpdspsiispssdrr8w0900i0suw990980ust0uppyyiipiiiiiiiiyyyyyutyiuwywuuuuuuuusiuyi7uu2r8,18:,29*:21:325sw>wtdhykhihdhhchs0854558<26600sjdahjkhhhhhhkkhhddhhhhhhhhfhhhhhhhhhhkhkhjkkkhkkkkckckkhadhkcccczkkzkzlllkkkkkklkxzkllkkklkddhhiyre0w000wwww00ww0999000999990w00000000ww09wwweruurwryurrurwwwer000w0ew00w00000w009000000000wrwwuwwuuwywwuuryrryrrrruuuyuiurururuwrrruyryrr0969996979996wtit00wwtiuyiyiiiiiizzvkihkzkzk",
"wq0w00wwruuuppyuwuuuiwwuiutyissippphappppippiiippipipppddidduiddsriiii9900u00sutiiuiyiiapipiiiiiiuuwtyiiurwrwrryutispphakkzkaakdpiyypyyytu99www966552<<<1,=,=:======&&&==&=&&&+%+&@+-:=:*=*:::::<1<<12221223667q7wwrrwryyurrrr7rw999qwwwrywwywwwrwruiiipiiiiiaipiiiiiirw0955000wrrwwwww9695665098995996wwtw099922322211:==*&&==&-=*:::1,,869999w00900009000000siiiui00u06996w00099890890w0w060u0upiippyiiiiiiididiididiiipiiddpipipypyiyyiiiisdspddhhddappspppppaiiippppdipppppdpppppaphppdidspppdppdiiiiddkddddhgwtiwyiwwwq7qriuiiipipitididptwwwwwwwuiirriuiiy7w9w29699r99925ww2,116ww112112=1,======<2,<3609999q99662,<,====2><4<4665<<5422:<<25<4554<1<1122232226,<<366<43645566566566669996666366696933,&,,2366766356566552881,29rtriiu7590000000979990quiajyjissdspdsdpspipspddsddiiidddsipuu6099r090pwy980566yypuiyiypipyiiiipiiywiywiytwuqwwyuiiiisidwsttiuut99528893e==112216ukq96ididphisjkhhkkki006262260pkkkkhkkkkkhhhhkhkhkhhhdphpdhhhpkhhhhhhhhkhkkhkkkcklhkkkkckkzzzzzzzczzkzzklzkkkkkkkklkkzzklkfffhsdyyyr0ewrr00ww0wwww99909090090ewwwww00wwe0w90ewwwwwuwruruwuurwwwwwe0w0e00www00ew0009000000900qwywwywywuuyturryrryrrrrriiuuuururrrrrruurrrwrr96999796609990rwwwwwwuytuuuiiwipahkjpakvcczk",
"w0690000wtuyppyuwuuuywwistwuidpiippppppppiipiiiiipipppdddiipuiddsuiii09000u00srriiiiiiiiiiipppiiiiurwriyurwwwrrrtuuipahhfkkkkdhapipppppyur9599999653222<1,1,,,::===&&&=&=+=+%&++@@@*+===*-*=:::1<,11222112233qq77wwrrrrrrrrrrrrwq999wwwwwwwyrww9rqrtpippiiiiiiipuuiiiire6085909yuuuwwww0995698089595595rww08551>2221211====&&=&=**=:::,,>286996w09800r0900u000siir0u00y088950900999999900ww060rrupiyiiiyiiiidddddiiididiiippdddspppikpagippyisiipahdhhdpppppppsipiiipppidpppadddppppppapppsddispddppidduuidddddiiw3qiyyiyeww6wiriuiiippptdidpduwwrwe7wwiirriuiiy7rwe67693r96923wr3,112222==11111<===:;:<1=33296769999632=<,,:,13<<22<265<<6563:2<3652352122<<332322=q<2,363423322565623666669w99666666963969>&,<1266666366366635,2,:20rrruu00y0y000000099990quihdugussssipddddsdpsdippiddpssddpipuu6009r000iwr988255wwuyupyiupyppiiiiiyiwwutwywiiw0wwyytwutwi9tw0w009262133239==2211<2thuw7yhphphuphkhkkhdr8662860udkkhdhhjhkhhhkhhhhkhhhkhdhdhdphhhhhhhkhhhhkkhkhhkkckkkkkkckclzzzzzzzlzzkzkzzkklklklklkkzklkkkkkhasaddaiuwrrw00w0ewrwe99990909970000ewww0ww00w9wwwwwywrwrruuuuuwwwwuwwwww00wwwwww00w0e9990000000wwwyuwytuywwywrrrrrrrurirrtuuuruurruyrruuurrryr6996999996969wryuwwwyuwwiwuiiuikkhpiikzccckk",
"00606900ruwyppytwuutuwwuiuyuisiippppppppiiipiyipiippppppdidduiddi0isiu9000u00iruiiiuyiiiiipiiipiiuyrwwyiuuuwrwrruruiipdhkkzzkkhappippappur559959955332<,11,111:==,===&&&=+==&&+%@@++*=:=:::=:::1<<<12121<<3366637wrrrrrurrr7r7w7999wwwrrwwwyywwwwqriiiiiiiiyiiiiutuiiuw06066060yuuuruww090599505990589800092<>>:,211121=,=&&&=&==-::::>11556996009800009u0u0y0iir00u00y988930080999999900ww090r0upiuipiiiiiiidsiiiidididiipidsdidiiyzkkkklckkkckjdpjhhaidppspppspipippppdspdhdddpppppappdddipdpsddpiidduuiisiiiiyq,3wyiwywew6wtiiuiippppiddippuwwwewwwwitwwiuiiurirw6w696r96923wt31=,3q2=111=1=1<=====:<==33136996666632=<,,<<<925622665239369<2<663255<<2223363323263<23664463<2263556666669w96666666666993,&<,<<36666666666652,:;:10rwr00uuuuyur0ry7009000wydhswstuussdsddddpiddiddidsidsdddsiauu6009u000pyy05848500uypyyuyiuiiiiiiiyyiwriiwuwywwwwuwiwyuwt9r09q909265112192&=2221<5wddt0phpdphishhhkhhd0<<4590tkzkkhhdhhjhhhhhhhkhhhkhhhpaphhphhphhhfkhhhhkkhkhkkkkkkkkkzkczkzzzzzzzzzzzkkzzklkkklkkklkklzkklkfadahhkfduwwwwewwwwwuw0999090900900w00wwe0wwwwww0wuwwuwwwruruuwuwwwwwww0w000wwwwew00w009000000900qwuwwuuwywutyurrryyrrrruyuuuuuururrrrrrruurrrrw9996999697999wruyywwtywwuuuiiiilckiihlcclkkk"
};
